; generated by PrusaSlicer 2.6.0+win64 on 2023-10-09 at 13:49:29 UTC


;
;
; 

; external perimeters extrusion width = 0.45mm
; perimeters extrusion width = 0.45mm
; infill extrusion width = 0.45mm
; solid infill extrusion width = 0.45mm
; top infill extrusion width = 0.40mm
; support material extrusion width = 0.35mm
; first layer extrusion width = 0.42mm

; external perimeters extrusion width = 0.45mm
; perimeters extrusion width = 0.45mm
; infill extrusion width = 0.45mm
; solid infill extrusion width = 0.45mm
; top infill extrusion width = 0.40mm
; support material extrusion width = 0.35mm
; first layer extrusion width = 0.42mm

M73 P0 R14
M73 Q0 S14
M201 X1000 Y1000 Z200 E5000 ; sets maximum accelerations, mm/sec^2
M203 X200 Y200 Z12 E120 ; sets maximum feedrates, mm / sec
M204 S1250 T1250 ; sets acceleration (S) and retract acceleration (R), mm/sec^2
M205 X8.00 Y8.00 Z0.40 E4.50 ; sets the jerk limits, mm/sec
M205 S0 T0 ; sets the minimum extruding and travel feed rate, mm/sec
;TYPE:Custom
M862.3 P "MK3SMMU2S" ; printer model check
M862.1 P0.4 ; nozzle diameter check
M115 U3.12.2 ; tell printer latest fw version
G90 ; use absolute coordinates
M83 ; extruder relative mode
M104 S215 ; set extruder temp
M140 S60 ; set bed temp
Tx
M190 S60 ; wait for bed temp
M109 S215 ; wait for extruder temp
G28 W ; home all without mesh bed level
G80 ; mesh bed leveling

;go outside print area
G1 Y-3 F1000
G1 Z0.4 F1000
; select extruder
Tc
; purge line
G1 X55 F2000
G1 Z0.3 F1000
G92 E0
G1 X240 E25 F2200
G1 Y-2 F1000
M73 P0 R13
G1 X55 E25 F1400
G1 Z0.2 F1000
M73 P1 R13
M73 Q1 S13
G1 X5 E4 F1000

M221 S95
G92 E0

; Don't change E values below. Excessive value can damage the printer.
M907 E430 ; set extruder motor current
G21 ; set units to millimeters
G90 ; use absolute coordinates
M83 ; use relative distances for extrusion
M900 K0.05 ; Filament gcode LA 1.5
M900 K30 ; Filament gcode LA 1.0
M107
;LAYER_CHANGE
;Z:0.2
;HEIGHT:0.2
;BEFORE_LAYER_CHANGE
G92 E0.0
;0.2


G1 E-.8 F2100
M73 P2 R13
M73 Q2 S13
G1 Z.4 F720
;AFTER_LAYER_CHANGE
;0.2
G1 X117.162 Y89.683 F10800
G1 Z.2 F720
G1 E.8 F2100
M204 S800
;TYPE:Skirt/Brim
;WIDTH:0.42
G1 F1200
G1 X118.487 Y88.518 E.05532
G1 X135.767 Y81.314 E.587
G1 X136.826 Y81.102 E.03386
G1 X142.6 Y81.102 E.18104
G1 X144.017 Y81.495 E.04611
G1 X144.985 Y82.479 E.04328
G1 X147.872 Y87.479 E.18103
G1 X148.241 Y88.903 E.04612
G1 X147.872 Y90.233 E.04328
G1 X144.985 Y95.233 E.18103
G1 X143.66 Y96.398 E.05532
G1 X126.38 Y103.602 E.587
G1 X125.32 Y103.814 E.03389
G1 X119.547 Y103.814 E.18101
G1 X118.129 Y103.421 E.04614
G1 X117.162 Y102.437 E.04326
G1 X114.275 Y97.437 E.18103
G1 X113.906 Y96.013 E.04612
G1 X114.275 Y94.683 E.04328
G1 X117.132 Y89.735 E.17915
M204 S1000
G1 X117.458 Y89.923 F10800
M204 S800
G1 F1200
G1 X117.488 Y89.871 E.00188
G1 X118.632 Y88.866 E.04774
G1 X135.912 Y81.662 E.587
G1 X136.826 Y81.479 E.02923
G1 X142.6 Y81.479 E.18104
G1 X143.907 Y81.871 E.04278
G1 X144.659 Y82.668 E.03436
G1 X147.545 Y87.668 E.18101
G1 X147.86 Y88.995 E.04276
M73 P3 R13
M73 Q3 S13
G1 X147.545 Y90.045 E.03437
G1 X144.659 Y95.045 E.18101
G1 X143.515 Y96.05 E.04774
G1 X126.235 Y103.254 E.587
G1 X125.32 Y103.437 E.02926
G1 X119.547 Y103.437 E.18101
G1 X118.24 Y103.045 E.04278
G1 X117.488 Y102.248 E.03436
G1 X114.601 Y97.248 E.18103
G1 X114.287 Y95.921 E.04276
G1 X114.601 Y94.871 E.03436
G1 X117.428 Y89.975 E.17726
M204 S1000
; printing object M6.stl id:0 copy 0
;WIPE_START
G1 F8640
G1 X117.488 Y89.871 E-.02772
G1 X118.632 Y88.866 E-.35161
G1 X120.314 Y88.165 E-.42067
;WIPE_END
G1 Z.6 F720
G1 X120.397 Y92.139 F10800
G1 Z.2 F720
G1 E.8 F2100
M204 S800
;TYPE:Perimeter
;WIDTH:0.419999
G1 F1200
G1 X121.087 Y91.847 E.02349
G1 X123.775 Y91.847 E.08428
G1 X124.287 Y92.041 E.01717
G1 X124.825 Y92.342 E.01933
G1 X125.409 Y92.787 E.02302
G1 X126.755 Y95.119 E.08442
G1 X126.831 Y95.595 E.01511
G1 X126.852 Y96.159 E.0177
G1 X126.84 Y96.408 E.00782
G1 X126.754 Y97.003 E.01885
G1 X125.41 Y99.33 E.08426
G1 X124.939 Y99.702 E.01882
G1 X124.448 Y99.994 E.01791
G1 X123.78 Y100.273 E.0227
G1 X121.092 Y100.273 E.08428
G1 X120.58 Y100.079 E.01717
G1 X120.042 Y99.777 E.01934
G1 X119.458 Y99.332 E.02302
G1 X118.112 Y97 E.08442
G1 X118.019 Y96.282 E.0227
G1 X118.027 Y95.711 E.01791
G1 X118.113 Y95.117 E.01882
G1 X119.457 Y92.79 E.08426
G1 X119.928 Y92.418 E.01882
G1 X120.345 Y92.17 E.01521
M204 S1000
G1 X120.182 Y91.835 F10800
M204 S800
;TYPE:External perimeter
G1 F1200
G1 X120.472 Y91.68 E.01031
G1 X121.022 Y91.47 E.01846
G1 X123.844 Y91.47 E.08848
G1 X124.292 Y91.639 E.01501
G1 X124.738 Y91.852 E.0155
G1 X125.246 Y92.172 E.01882
G1 X125.703 Y92.542 E.01844
G1 X127.115 Y94.988 E.08855
G1 X127.207 Y95.568 E.01841
G1 X127.228 Y96.176 E.01907
G1 X127.21 Y96.571 E.0124
G1 X127.114 Y97.133 E.01788
G1 X125.703 Y99.577 E.08848
G1 X125.377 Y99.848 E.01329
G1 X124.932 Y100.154 E.01693
G1 X124.395 Y100.44 E.01908
G1 X123.846 Y100.65 E.01843
G1 X121.023 Y100.65 E.08851
G1 X120.575 Y100.481 E.01501
G1 X120.129 Y100.268 E.0155
G1 X119.621 Y99.948 E.01882
G1 X119.165 Y99.578 E.01841
G1 X117.752 Y97.132 E.08857
G1 X117.668 Y96.665 E.01488
G1 X117.63 Y96.126 E.01694
G1 X117.657 Y95.548 E.01814
G1 X117.753 Y94.987 E.01785
G1 X119.164 Y92.543 E.08848
G1 X119.49 Y92.272 E.01329
G1 X119.935 Y91.966 E.01693
G1 X120.129 Y91.863 E.00689
M204 S1000
G1 X120.465 Y92.002 F10800
;WIPE_START
G1 F8640
G1 X120.472 Y91.68 E-.08977
G1 X121.022 Y91.47 E-.13594
G1 X123.509 Y91.47 E-.57429
;WIPE_END
G1 Z.6 F720
G1 X125.614 Y93.483 F10800
G1 Z.2 F720
G1 E.8 F2100
M204 S800
;TYPE:Solid infill
;WIDTH:0.43068
G1 F1200
G1 X125.114 Y92.982 E.02282
G1 X124.907 Y92.807 E.00874
G1 X124.524 Y92.548 E.01491
G1 X124.148 Y92.351 E.01369
G1 X123.804 Y92.22 E.01187
G1 X125.9 Y94.317 E.0956
G1 X126.432 Y95.238 E.03429
G1 X126.467 Y95.432 E.00636
G1 X123.221 Y92.186 E.14801
G1 X122.673 Y92.186 E.01767
G1 X126.518 Y96.032 E.17535
G1 X126.487 Y96.549 E.0167
G1 X122.124 Y92.186 E.19894
G1 X121.576 Y92.186 E.01767
G1 X126.373 Y96.983 E.21873
G1 X126.172 Y97.331 E.01296
G1 X121.059 Y92.218 E.23314
G1 X120.672 Y92.38 E.01353
M73 P4 R13
M73 Q4 S13
G1 X125.972 Y97.679 E.24164
G1 X125.771 Y98.026 E.01293
G1 X120.317 Y92.572 E.24869
G1 X119.987 Y92.791 E.01277
G1 X125.57 Y98.374 E.25457
G1 X125.37 Y98.722 E.01294
G1 X119.698 Y93.05 E.25863
G1 X119.498 Y93.398 E.01294
G1 X125.169 Y99.069 E.25858
G1 X125.147 Y99.107 E.00142
G1 X124.88 Y99.329 E.0112
G1 X119.297 Y93.746 E.25457
G1 X119.096 Y94.093 E.01293
G1 X124.55 Y99.548 E.24871
G1 X124.195 Y99.74 E.01301
G1 X118.895 Y94.441 E.24164
G1 X118.695 Y94.789 E.01294
G1 X123.808 Y99.902 E.23314
G1 X123.721 Y99.933 E.00298
G1 X123.291 Y99.933 E.01386
G1 X118.494 Y95.136 E.21873
G1 X118.438 Y95.234 E.00364
G1 X118.38 Y95.571 E.01103
G1 X122.743 Y99.933 E.19892
G1 X122.194 Y99.933 E.0177
G1 X118.349 Y96.088 E.17532
G1 X118.4 Y96.688 E.01942
G1 X121.646 Y99.933 E.14799
G1 X121.154 Y99.933 E.01586
G1 X121.063 Y99.899 E.00313
G1 X118.967 Y97.803 E.09557
G1 X119.716 Y99.101 E.04832
G1 X120.418 Y99.802 E.03199
M204 S1000
; stop printing object M6.stl id:0 copy 0
; printing object M6_0.1mm_offset.stl id:1 copy 0
;WIPE_START
G1 F8640
G1 X119.716 Y99.101 E-.22907
G1 X118.967 Y97.803 E-.34603
G1 X119.656 Y98.492 E-.2249
;WIPE_END
G1 Z.6 F720
G1 X142.06 Y92.592 F10800
G1 Z.2 F720
G1 E.8 F2100
M204 S800
;TYPE:Perimeter
;WIDTH:0.419999
G1 F1200
G1 X141.728 Y92.79 E.01212
G1 X141.06 Y93.069 E.0227
G1 X138.371 Y93.069 E.08431
G1 X137.859 Y92.875 E.01717
G1 X137.322 Y92.574 E.0193
G1 X136.738 Y92.129 E.02302
G1 X135.392 Y89.797 E.08442
G1 X135.299 Y89.078 E.02273
G1 X135.307 Y88.508 E.01787
G1 X135.393 Y87.913 E.01885
G1 X136.736 Y85.586 E.08424
G1 X137.208 Y85.214 E.01884
G1 X137.698 Y84.922 E.01788
G1 X138.367 Y84.643 E.02273
G1 X141.055 Y84.643 E.08428
G1 X141.567 Y84.837 E.01717
G1 X142.105 Y85.139 E.01934
G1 X142.689 Y85.584 E.02302
G1 X144.035 Y87.916 E.08442
G1 X144.111 Y88.391 E.01508
G1 X144.131 Y88.955 E.01769
G1 X144.12 Y89.205 E.00785
G1 X144.033 Y89.799 E.01882
G1 X142.69 Y92.126 E.08424
G1 X142.218 Y92.498 E.01884
G1 X142.112 Y92.562 E.00388
M204 S1000
G1 X142.223 Y92.942 F10800
M204 S800
;TYPE:External perimeter
G1 F1200
G1 X141.674 Y93.236 E.01953
G1 X141.125 Y93.446 E.01843
G1 X138.302 Y93.446 E.08851
G1 X137.855 Y93.277 E.01498
G1 X137.408 Y93.064 E.01553
G1 X136.901 Y92.744 E.0188
G1 X136.444 Y92.374 E.01844
G1 X135.032 Y89.928 E.08855
G1 X134.948 Y89.461 E.01488
G1 X134.91 Y88.922 E.01694
G1 X134.937 Y88.345 E.01811
G1 X135.033 Y87.783 E.01788
G1 X136.444 Y85.339 E.08848
G1 X136.77 Y85.068 E.01329
G1 X137.215 Y84.762 E.01693
G1 X137.752 Y84.476 E.01908
G1 X138.301 Y84.266 E.01843
G1 X141.124 Y84.266 E.08851
G1 X141.572 Y84.435 E.01501
M73 Q5 S13
G1 X142.018 Y84.648 E.0155
G1 X142.526 Y84.968 E.01882
M73 P5 R13
G1 X142.982 Y85.338 E.01841
G1 X144.394 Y87.784 E.08855
G1 X144.487 Y88.365 E.01845
G1 X144.508 Y88.973 E.01907
G1 X144.49 Y89.368 E.0124
G1 X144.394 Y89.929 E.01785
G1 X142.983 Y92.373 E.08848
G1 X142.656 Y92.644 E.01332
G1 X142.273 Y92.908 E.01459
M204 S1000
G1 X141.873 Y92.749 F10800
;WIPE_START
G1 F8640
G1 X141.674 Y93.236 E-.15769
G1 X141.125 Y93.446 E-.13572
G1 X138.931 Y93.446 E-.50659
;WIPE_END
G1 Z.6 F720
G1 X142.894 Y86.279 F10800
G1 Z.2 F720
G1 E.8 F2100
M204 S800
;TYPE:Solid infill
;WIDTH:0.43068
G1 F1200
G1 X142.393 Y85.778 E.02284
G1 X142.187 Y85.603 E.00872
G1 X141.803 Y85.345 E.01492
G1 X141.427 Y85.147 E.0137
G1 X141.083 Y85.017 E.01186
G1 X143.18 Y87.113 E.0956
G1 X143.712 Y88.034 E.03429
G1 X143.747 Y88.228 E.00636
G1 X140.501 Y84.983 E.14799
G1 X139.952 Y84.983 E.0177
G1 X143.798 Y88.828 E.17535
G1 X143.767 Y89.345 E.0167
G1 X139.404 Y84.983 E.19892
G1 X138.856 Y84.983 E.01767
G1 X143.653 Y89.78 E.21873
G1 X143.452 Y90.127 E.01293
G1 X138.339 Y85.014 E.23314
G1 X137.952 Y85.176 E.01353
G1 X143.251 Y90.475 E.24162
G1 X143.051 Y90.823 E.01294
G1 X137.596 Y85.368 E.24873
G1 X137.267 Y85.587 E.01274
G1 X142.85 Y91.17 E.25457
G1 X142.649 Y91.518 E.01296
G1 X136.978 Y85.847 E.25858
G1 X136.777 Y86.194 E.01293
G1 X142.448 Y91.866 E.25861
G1 X142.426 Y91.904 E.00142
G1 X142.16 Y92.125 E.01115
G1 X136.577 Y86.542 E.25457
G1 X136.376 Y86.89 E.01296
G1 X141.83 Y92.344 E.24869
G1 X141.474 Y92.537 E.01306
G1 X136.175 Y87.237 E.24164
G1 X135.974 Y87.585 E.01296
G1 X141.088 Y92.698 E.23316
G1 X141.001 Y92.73 E.00299
G1 X140.571 Y92.73 E.01386
G1 X135.774 Y87.933 E.21873
G1 X135.717 Y88.03 E.00363
G1 X135.66 Y88.367 E.01102
G1 X140.022 Y92.73 E.19892
G1 X139.474 Y92.73 E.01767
G1 X135.629 Y88.885 E.17532
G1 X135.68 Y89.484 E.01938
G1 X138.926 Y92.73 E.14801
G1 X138.433 Y92.73 E.0159
G1 X138.343 Y92.696 E.0031
G1 X136.247 Y90.6 E.09557
G1 X136.996 Y91.897 E.04829
G1 X137.698 Y92.599 E.03201
M204 S1000
; stop printing object M6_0.1mm_offset.stl id:1 copy 0
M106 S84.15
;LAYER_CHANGE
;Z:0.35
;HEIGHT:0.15
;BEFORE_LAYER_CHANGE
G92 E0.0
;0.35


;WIPE_START
G1 F8640
M73 Q6 S13
G1 X136.996 Y91.897 E-.22924
G1 X136.247 Y90.6 E-.34583
M73 P6 R13
G1 X136.936 Y91.289 E-.22493
;WIPE_END
G1 Z.6 F720
;AFTER_LAYER_CHANGE
;0.35
M104 S210 ; set temperature
G1 X139.746 Y98.03 F10800
G1 Z.35 F720
G1 E.8 F2100
;TYPE:Skirt/Brim
;WIDTH:0.42
G1 F3000
G1 X126.38 Y103.602 E.35022
G1 X125.32 Y103.814 E.02614
G1 X119.547 Y103.814 E.13962
G1 X118.129 Y103.421 E.03559
G1 X117.162 Y102.437 E.03337
G1 X114.275 Y97.437 E.13963
G1 X113.906 Y96.013 E.03558
G1 X114.275 Y94.683 E.03338
G1 X117.162 Y89.683 E.13963
G1 X118.487 Y88.518 E.04267
G1 X135.767 Y81.314 E.45278
G1 X136.826 Y81.102 E.02612
G1 X142.6 Y81.102 E.13964
G1 X144.017 Y81.495 E.03556
G1 X144.985 Y82.479 E.03338
G1 X147.872 Y87.479 E.13963
G1 X148.241 Y88.903 E.03558
G1 X147.872 Y90.233 E.03338
G1 X144.985 Y95.233 E.13963
G1 X143.66 Y96.398 E.04267
G1 X139.801 Y98.007 E.10112
G1 X139.656 Y97.659 F10800
G1 F3000
G1 X126.235 Y103.254 E.35166
G1 X125.32 Y103.437 E.02257
G1 X119.547 Y103.437 E.13962
G1 X118.24 Y103.045 E.033
G1 X117.488 Y102.248 E.0265
G1 X114.601 Y97.248 E.13963
G1 X114.287 Y95.921 E.03298
G1 X114.601 Y94.871 E.02651
G1 X117.488 Y89.871 E.13963
G1 X118.632 Y88.866 E.03683
G1 X135.912 Y81.662 E.45278
G1 X136.826 Y81.479 E.02254
G1 X142.6 Y81.479 E.13964
G1 X143.907 Y81.871 E.033
G1 X144.659 Y82.668 E.0265
G1 X147.545 Y87.668 E.13962
G1 X147.86 Y88.995 E.03299
G1 X147.545 Y90.045 E.02651
G1 X144.659 Y95.045 E.13962
G1 X143.515 Y96.05 E.03683
G1 X139.712 Y97.636 E.09965
; printing object M6.stl id:0 copy 0
;WIPE_START
G1 F8640
G1 X136.514 Y98.969 E-.8
;WIPE_END
G1 Z.75 F720
G1 X120.094 Y91.71 F10800
G1 Z.35 F720
G1 E.8 F2100
M204 S800
;TYPE:Perimeter
;WIDTH:0.449999
G1 F1500
G1 X124.774 Y91.71 E.12194
G1 X125.044 Y91.866 E.00812
G1 X127.37 Y95.896 E.12124
G1 X127.37 Y96.224 E.00855
G1 X125.044 Y100.253 E.12122
G1 X124.761 Y100.417 E.00852
G1 X120.093 Y100.41 E.12163
G1 X119.824 Y100.254 E.0081
G1 X117.497 Y96.224 E.12125
G1 X117.497 Y95.896 E.00855
G1 X119.823 Y91.866 E.12124
G1 X120.042 Y91.74 E.00658
M204 S1000
G1 X119.886 Y91.348 F10800
M204 S800
;TYPE:External perimeter
G1 F900

G1 X119.995 Y91.285 E.00328
G1 X120.817 Y91.286 E.02142
G1 F1500
G1 X124.064 Y91.291 E.0846
G1 F900
G1 X124.887 Y91.292 E.02144
G1 X125.35 Y91.561 E.01395
G1 X125.761 Y92.273 E.02142
G1 F1500
G1 X127.377 Y95.072 E.08421
G1 F900
G1 X127.788 Y95.784 E.02142
G1 X127.788 Y96.336 E.01438
G1 X127.377 Y97.048 E.02142
G1 F1500
G1 X125.761 Y99.847 E.08421
G1 F900
G1 X125.35 Y100.559 E.02142
G1 X124.872 Y100.835 E.01438
G1 X124.05 Y100.834 E.02142
G1 F1500
G1 X120.803 Y100.829 E.0846
G1 F900
G1 X119.98 Y100.827 E.02144
G1 X119.518 Y100.559 E.01392
G1 X119.106 Y99.847 E.02143
G1 F1500
G1 X117.49 Y97.048 E.08421
G1 F900
G1 X117.079 Y96.336 E.02142
G1 X117.079 Y95.784 E.01438
G1 X117.49 Y95.072 E.02142
G1 F1500
G1 X119.106 Y92.273 E.08421
G1 F900
G1 X119.518 Y91.561 E.02143
G1 X119.834 Y91.378 E.00951

M204 S1000
G1 X120.004 Y91.393 F10800
G1 X120.063 Y92.052
;TYPE:Solid infill
;WIDTH:0.37219
G1 F4800
G1 X119.992 Y92.033 E.00156
G1 X120.011 Y92.104 E.00156
G1 X120.052 Y92.093 E.0009
;WIDTH:0.411095
G1 X120.249 Y92.086 E.00466
;WIDTH:0.449999
G1 X120.446 Y92.079 E.00514
G1 X119.709 Y92.816 E.02716
;WIPE_START
G1 F8640
G1 X120.446 Y92.079 E-.24066
G1 X120.249 Y92.086 E-.04552
G1 X120.052 Y92.093 E-.04552
G1 X120.011 Y92.104 E-.0098
G1 X119.992 Y92.033 E-.01697
G1 X120.063 Y92.052 E-.01697
;WIPE_END
G1 E-.42456 F2100
G1 Z.75 F720
G1 X121.036 Y92.08 F10800
G1 Z.35 F720
G1 E.8 F2100
G1 F4800
G1 X118.902 Y94.214 E.07863
G1 X118.809 Y94.356 E.00442
;WIDTH:0.411095
G1 X118.717 Y94.498 E.004
;WIDTH:0.37219
G1 X118.645 Y94.479 E.00158
M73 P7 R13
G1 X118.664 Y94.551 E.00158
M73 Q7 S13
G1 X118.706 Y94.54 E.00092
;WIPE_START
G1 F8640
G1 X118.664 Y94.551 E-.01003
G1 X118.645 Y94.479 E-.01719
G1 X118.717 Y94.498 E-.01719
G1 X118.809 Y94.356 E-.03907
G1 X118.902 Y94.214 E-.03919
G1 X120.976 Y92.14 E-.67733
;WIPE_END
G1 Z.75 F720
G1 X118.095 Y95.612 F10800
G1 Z.35 F720
G1 E.8 F2100
;WIDTH:0.449999
G1 F4800
G1 X121.626 Y92.081 E.13011
G1 X122.216 Y92.082 E.01537
G1 X117.983 Y96.314 E.15596
G1 X117.886 Y96.144 E.0051
;WIDTH:0.411095
G1 X117.788 Y95.974 E.00464
;WIDTH:0.37219
G1 X117.774 Y96.15 E.00374
;WIDTH:0.449999
G1 X118.2 Y96.689 E.0179
G1 X122.806 Y92.083 E.16972
G1 X123.396 Y92.084 E.01537
G1 X118.416 Y97.064 E.1835
G1 X118.632 Y97.438 E.01125
G1 X123.986 Y92.085 E.19727
G1 X124.576 Y92.086 E.01537
G1 X118.849 Y97.813 E.21103
G1 X119.065 Y98.187 E.01125
G1 X124.894 Y92.359 E.21477
G1 X125.11 Y92.733 E.01125
G1 X119.281 Y98.562 E.21479
G1 X119.497 Y98.937 E.01128
G1 X125.326 Y93.108 E.21479
G1 X125.543 Y93.482 E.01127
G1 X119.714 Y99.311 E.21479
G1 X119.93 Y99.686 E.01128
G1 X125.759 Y93.857 E.21479
G1 X125.975 Y94.232 E.01128
G1 X120.181 Y100.026 E.2135
G1 X120.763 Y100.035 E.01517
G1 X126.191 Y94.606 E.20003
G1 X126.408 Y94.981 E.01129
G1 X121.353 Y100.036 E.18627
G1 X121.943 Y100.037 E.01537
G1 X126.624 Y95.355 E.17251
G1 X126.84 Y95.73 E.01128
G1 X122.533 Y100.037 E.15871
G1 X123.123 Y100.038 E.01537
G1 X126.934 Y96.227 E.14043
;WIPE_START
G1 F8640
G1 X124.484 Y98.677 E-.8
;WIPE_END
G1 Z.75 F720
G1 X126.395 Y97.318 F10800
