; generated by PrusaSlicer 2.6.0+win64 on 2023-10-09 at 13:50:24 UTC


;
;
; 

; external perimeters extrusion width = 0.45mm
; perimeters extrusion width = 0.45mm
; infill extrusion width = 0.45mm
; solid infill extrusion width = 0.45mm
; top infill extrusion width = 0.40mm
; support material extrusion width = 0.35mm
; first layer extrusion width = 0.42mm

M73 P0 R13
M73 Q0 S13
M201 X1000 Y1000 Z200 E5000 ; sets maximum accelerations, mm/sec^2
M203 X200 Y200 Z12 E120 ; sets maximum feedrates, mm / sec
M204 S1250 T1250 ; sets acceleration (S) and retract acceleration (R), mm/sec^2
M205 X8.00 Y8.00 Z0.40 E4.50 ; sets the jerk limits, mm/sec
M205 S0 T0 ; sets the minimum extruding and travel feed rate, mm/sec
;TYPE:Custom
M862.3 P "MK3SMMU2S" ; printer model check
M862.1 P0.4 ; nozzle diameter check
M115 U3.12.2 ; tell printer latest fw version
G90 ; use absolute coordinates
M83 ; extruder relative mode
M104 S215 ; set extruder temp
M140 S60 ; set bed temp
Tx
M190 S60 ; wait for bed temp
M109 S215 ; wait for extruder temp
G28 W ; home all without mesh bed level
G80 ; mesh bed leveling

;go outside print area
G1 Y-3 F1000
G1 Z0.4 F1000
; select extruder
Tc
; purge line
G1 X55 F2000
G1 Z0.3 F1000
G92 E0
G1 X240 E25 F2200
G1 Y-2 F1000
G1 X55 E25 F1400
G1 Z0.2 F1000
M73 P1 R13
M73 Q1 S13
G1 X5 E4 F1000

M221 S95
G92 E0

; Don't change E values below. Excessive value can damage the printer.
M907 E430 ; set extruder motor current
G21 ; set units to millimeters
G90 ; use absolute coordinates
M83 ; use relative distances for extrusion
M900 K0.05 ; Filament gcode LA 1.5
M900 K30 ; Filament gcode LA 1.0
M107
;LAYER_CHANGE
;Z:0.2
;HEIGHT:0.2
;BEFORE_LAYER_CHANGE
G92 E0.0
;0.2


G1 E-.8 F2100
M73 P2 R13
M73 Q2 S13
G1 Z.4 F720
;AFTER_LAYER_CHANGE
;0.2
G1 X130.935 Y104.216 F10800
G1 Z.2 F720
G1 E.8 F2100
M204 S800
;TYPE:Skirt/Brim
;WIDTH:0.42
G1 F1200
G1 X132.651 Y102.956 E.06675
G1 X141.506 Y100.821 E.2856
G1 X142.152 Y100.745 E.02039
G1 X149.699 Y100.745 E.23663
G1 X151.116 Y101.137 E.0461
G1 X152.13 Y102.203 E.04613
G1 X152.453 Y103.499 E.04188
G1 X152.453 Y114.032 E.33025
G1 X152.06 Y115.449 E.04611
G1 X150.994 Y116.463 E.04613
G1 X149.699 Y116.786 E.04185
G1 X142.152 Y116.786 E.23663
G1 X141.506 Y116.709 E.0204
G1 X132.651 Y114.575 E.28559
G1 X131.365 Y113.861 E.04612
G1 X130.543 Y111.897 E.06676
G1 X130.543 Y105.633 E.1964
G1 X130.919 Y104.274 E.04421
M204 S1000
G1 X131.293 Y104.386 F10800
M204 S800
G1 F1200
G1 X131.311 Y104.326 E.00196
G1 X132.74 Y103.322 E.05476
G1 X141.595 Y101.188 E.28559
G1 X142.152 Y101.122 E.01759
G1 X149.699 Y101.122 E.23663
G1 X151.006 Y101.513 E.04277
G1 X151.882 Y102.559 E.04278
G1 X152.076 Y103.499 E.03009
G1 X152.076 Y114.032 E.33025
G1 X151.684 Y115.339 E.04278
G1 X150.639 Y116.215 E.04275
G1 X149.699 Y116.409 E.03009
G1 X142.152 Y116.409 E.23663
G1 X141.595 Y116.343 E.01759
M73 P3 R13
M73 Q3 S13
G1 X132.74 Y114.208 E.2856
G1 X131.561 Y113.521 E.04278
G1 X130.92 Y111.897 E.05474
G1 X130.92 Y105.633 E.1964
G1 X131.276 Y104.443 E.03895
M204 S1000
; printing object Housing_half_test_1.stl id:0 copy 0
;WIPE_START
G1 F8640
G1 X131.311 Y104.326 E-.0282
G1 X132.74 Y103.322 E-.40326
G1 X134.292 Y102.948 E-.36854
;WIPE_END
G1 Z.6 F720
G1 X149.699 Y114.032 F10800
G1 Z.2 F720
G1 E.8 F2100
M204 S800
;TYPE:Support material
G1 F1200
G1 X142.152 Y114.032 E.23663
G1 X142.152 Y112.19 E.05775
G1 X144.496 Y112.19 E.07349
G1 X144.777 Y111.909 E.01246
G1 X144.777 Y105.622 E.19712
G1 X144.496 Y105.341 E.01246
G1 X142.152 Y105.341 E.07349
G1 X142.152 Y103.499 E.05775
G1 X149.699 Y103.499 E.23663
G1 X149.699 Y113.975 E.32847
M204 S1000
G1 X149.014 Y113.862 F10800
M204 S800
G1 F1200
G1 X149.014 Y103.838 E.3143
G1 X148.595 Y103.838 E.01314
G1 X148.595 Y113.693 E.309
G1 X148.176 Y113.693 E.01314
G1 X148.176 Y103.838 E.309
G1 X147.757 Y103.838 E.01314
G1 X147.757 Y113.693 E.309
G1 X147.338 Y113.693 E.01314
G1 X147.338 Y103.838 E.309
G1 X146.919 Y103.838 E.01314
G1 X146.919 Y113.693 E.309
G1 X146.5 Y113.693 E.01314
G1 X146.5 Y103.838 E.309
G1 X146.081 Y103.838 E.01314
G1 X146.081 Y113.693 E.309
G1 X145.662 Y113.693 E.01314
G1 X145.662 Y103.838 E.309
G1 X145.243 Y103.838 E.01314
M73 P4 R13
M73 Q4 S13
G1 X145.243 Y113.693 E.309
G1 X144.824 Y113.693 E.01314
G1 X144.824 Y112.341 E.04239
G1 X144.636 Y112.529 E.00834
G1 X144.405 Y112.529 E.00724
G1 X144.405 Y113.693 E.0365
G1 X143.986 Y113.693 E.01314
G1 X143.986 Y112.529 E.0365
G1 X143.568 Y112.529 E.01311
G1 X143.568 Y113.693 E.0365
G1 X143.149 Y113.693 E.01314
G1 X143.149 Y112.529 E.0365
G1 X142.73 Y112.529 E.01314
G1 X142.73 Y113.862 E.0418
M204 S1000
;WIPE_START
G1 F8640
G1 X142.73 Y112.529 E-.30779
G1 X143.149 Y112.529 E-.09675
G1 X143.149 Y113.693 E-.26877
G1 X143.568 Y113.693 E-.09675
G1 X143.568 Y113.563 E-.02994
;WIPE_END
G1 Z.6 F720
G1 X144.824 Y105.43 F10800
G1 Z.2 F720
G1 E.8 F2100
M204 S800
G1 F1200
G1 X144.824 Y103.838 E.04992
G1 X144.405 Y103.838 E.01314
G1 X144.405 Y105.001 E.03647
G1 X143.986 Y105.001 E.01314
G1 X143.986 Y103.838 E.03647
G1 X143.568 Y103.838 E.01311
G1 X143.568 Y105.001 E.03647
G1 X143.149 Y105.001 E.01314
G1 X143.149 Y103.838 E.03647
G1 X142.73 Y103.838 E.01314
G1 X142.73 Y105.171 E.0418
M204 S1000
;WIPE_START
G1 F8640
G1 X142.73 Y103.838 E-.30779
G1 X143.149 Y103.838 E-.09675
G1 X143.149 Y105.001 E-.26854
G1 X143.568 Y105.001 E-.09675
G1 X143.568 Y104.87 E-.03017
;WIPE_END
G1 Z.6 F720
G1 X143.51 Y110.923 F10800
G1 Z.2 F720
G1 E.8 F2100
M204 S800
;TYPE:Perimeter
;WIDTH:0.419999
G1 F1200
G1 X134.084 Y110.923 E.29555
G1 X134.084 Y106.608 E.13529
G1 X143.51 Y106.608 E.29555
G1 X143.51 Y110.863 E.13341
M204 S1000
G1 X143.887 Y111.3 F10800
M204 S800
;TYPE:External perimeter
G1 F1200
G1 X133.707 Y111.3 E.31919
G1 X133.707 Y106.231 E.15893
G1 X143.887 Y106.231 E.31919
G1 X143.887 Y111.24 E.15705
M204 S1000
G1 X143.491 Y111.238 F10800
;WIPE_START
G1 F8640
G1 X140.422 Y111.26 E-.8
;WIPE_END
G1 Z.6 F720
G1 X142.557 Y106.778 F10800
G1 Z.2 F720
G1 E.8 F2100
M204 S800
;TYPE:Solid infill
;WIDTH:0.429982
G1 F1200
G1 X143.17 Y107.391 E.0279
G1 X143.17 Y107.939 E.01764
G1 X142.179 Y106.947 E.04513
G1 X141.631 Y106.947 E.01764
G1 X143.17 Y108.486 E.07005
G1 X143.17 Y109.034 E.01764
G1 X141.084 Y106.947 E.09497
G1 X140.537 Y106.947 E.0176
G1 X143.17 Y109.581 E.11987
G1 X143.17 Y110.128 E.0176
G1 X139.989 Y106.947 E.14478
G1 X139.442 Y106.947 E.0176
G1 X143.078 Y110.583 E.16549
G1 X142.531 Y110.583 E.0176
G1 X138.894 Y106.947 E.16552
G1 X138.347 Y106.947 E.0176
G1 X141.983 Y110.583 E.16549
M73 Q5 S13
G1 X141.436 Y110.583 E.0176
M73 P5 R13
G1 X137.8 Y106.947 E.16549
G1 X137.252 Y106.947 E.01764
G1 X140.888 Y110.583 E.16549
G1 X140.341 Y110.583 E.0176
G1 X136.705 Y106.947 E.16549
G1 X136.158 Y106.947 E.0176
G1 X139.794 Y110.583 E.16549
G1 X139.246 Y110.583 E.01764
G1 X135.61 Y106.947 E.16549
G1 X135.063 Y106.947 E.0176
G1 X138.699 Y110.583 E.16549
G1 X138.151 Y110.583 E.01764
G1 X134.515 Y106.947 E.16549
G1 X134.423 Y106.947 E.00296
G1 X134.423 Y107.402 E.01464
G1 X137.604 Y110.583 E.14478
G1 X137.057 Y110.583 E.0176
G1 X134.423 Y107.95 E.11987
G1 X134.423 Y108.497 E.0176
G1 X136.509 Y110.583 E.09495
G1 X135.962 Y110.583 E.0176
G1 X134.423 Y109.045 E.07003
G1 X134.423 Y109.592 E.0176
G1 X135.415 Y110.583 E.04513
G1 X134.867 Y110.583 E.01764
G1 X134.253 Y109.97 E.02792
M204 S1000
; stop printing object Housing_half_test_1.stl id:0 copy 0
M106 S84.15
;LAYER_CHANGE
;Z:0.35
;HEIGHT:0.15
;BEFORE_LAYER_CHANGE
G92 E0.0
;0.35


;WIPE_START
G1 F8640
G1 X134.867 Y110.583 E-.20034
G1 X135.415 Y110.583 E-.12653
G1 X134.423 Y109.592 E-.32377
G1 X134.423 Y109.045 E-.1263
G1 X134.494 Y109.116 E-.02306
;WIPE_END
G1 Z.6 F720
;AFTER_LAYER_CHANGE
;0.35
M104 S210 ; set temperature
G1 X130.543 Y109.116 F10800
G1 Z.35 F720
G1 E.8 F2100
;TYPE:Skirt/Brim
;WIDTH:0.42
G1 F2043
G1 X130.543 Y105.633 E.08424
G1 X130.935 Y104.216 E.03556
G1 X132.651 Y102.956 E.05149
G1 X141.506 Y100.821 E.22029
G1 X142.152 Y100.745 E.01573
G1 X149.699 Y100.745 E.18252
G1 X151.116 Y101.137 E.03556
G1 X152.13 Y102.203 E.03558
G1 X152.453 Y103.499 E.0323
G1 X152.453 Y114.032 E.25474
G1 X152.06 Y115.449 E.03556
G1 X150.994 Y116.463 E.03558
G1 X149.699 Y116.786 E.03228
G1 X142.152 Y116.786 E.18252
G1 X141.506 Y116.709 E.01573
G1 X132.651 Y114.575 E.22029
G1 X131.365 Y113.861 E.03557
G1 X130.543 Y111.897 E.05149
G1 X130.543 Y109.176 E.06581
G1 X130.92 Y109.176 F10800
G1 F2043
G1 X130.92 Y105.633 E.08569
G1 X131.311 Y104.326 E.03299
G1 X132.74 Y103.322 E.04224
G1 X141.595 Y101.188 E.22029
G1 X142.152 Y101.122 E.01357
G1 X149.699 Y101.122 E.18252
G1 X151.006 Y101.513 E.03299
G1 X151.882 Y102.559 E.033
G1 X152.076 Y103.499 E.02321
G1 X152.076 Y114.032 E.25474
G1 X151.684 Y115.339 E.033
G1 X150.639 Y116.215 E.03298
G1 X149.699 Y116.409 E.02321
G1 X142.152 Y116.409 E.18252
G1 X141.595 Y116.343 E.01357
G1 X132.74 Y114.208 E.22029
G1 X131.561 Y113.521 E.033
G1 X130.92 Y111.897 E.04223
G1 X130.92 Y109.236 E.06436
; printing object Housing_half_test_1.stl id:0 copy 0
;WIPE_START
G1 F8640
G1 X130.92 Y105.771 E-.8
;WIPE_END
G1 Z.75 F720
G1 X143.654 Y111.168 F10800
G1 Z.35 F720
M73 Q6 S13
G1 E.8 F2100
M204 S800
;TYPE:Perimeter
;WIDTH:0.449999
G1 F1500
G1 X133.94 Y111.168 E.25311
G1 X133.94 Y106.363 E.1252
M73 P6 R12
G1 X143.654 Y106.363 E.25311
G1 X143.654 Y111.108 E.12363
M204 S1000
G1 X144.072 Y111.586 F10800
M204 S800
;TYPE:External perimeter
G1 F1500
G1 X133.522 Y111.586 E.27489
G1 X133.522 Y105.945 E.14698
G1 X144.072 Y105.945 E.27489
G1 X144.072 Y111.526 E.14542
M204 S1000
G1 X143.677 Y111.521 F10800
;WIPE_START
G1 F8640
G1 X140.607 Y111.546 E-.8
;WIPE_END
G1 Z.75 F720
G1 X134.429 Y106.773 F10800
G1 Z.35 F720
M73 Q6 S12
G1 E.8 F2100
;TYPE:Solid infill
;WIDTH:0.55137
G1 F2043
G1 X134.383 Y106.727 E.00211
G1 X134.32 Y106.743 E.0021
G1 X134.304 Y106.806 E.0021
G1 X134.349 Y106.852 E.00208
G1 X134.412 Y106.835 E.00211
;WIDTH:0.449999
G1 X135.079 Y106.739 E.01756
G1 X134.247 Y107.577 E.03077
;WIDTH:0.411095
G1 X134.178 Y107.652 E.00241
;WIDTH:0.37219
G1 X134.107 Y107.633 E.00156
G1 X134.126 Y107.704 E.00156
G1 X134.167 Y107.693 E.0009
;WIDTH:0.449999
G1 X134.316 Y108.093 E.01112
G1 X135.67 Y106.739 E.04989
G1 X136.261 Y106.739 E.0154
G1 X134.316 Y108.684 E.07167
G1 X134.316 Y109.275 E.0154
G1 X136.852 Y106.739 E.09345
G1 X137.443 Y106.739 E.0154
G1 X134.316 Y109.866 E.11522
;WIPE_START
G1 F8640
G1 X136.766 Y107.416 E-.8
;WIPE_END
G1 Z.75 F720
G1 X134.257 Y110.911 F10800
G1 Z.35 F720
G1 E.8 F2100
;WIDTH:0.37219
G1 F2043
G1 X134.216 Y110.922 E.0009
G1 X134.197 Y110.85 E.00158
G1 X134.268 Y110.87 E.00156
;WIDTH:0.411095
G1 X134.292 Y110.663 E.00492
;WIDTH:0.449999
G1 X134.316 Y110.457 E.0054
G1 X138.034 Y106.739 E.137
G1 X138.625 Y106.739 E.0154
G1 X134.571 Y110.792 E.14936
G1 X135.162 Y110.792 E.0154
G1 X139.216 Y106.739 E.14936
G1 X139.806 Y106.739 E.01537
G1 X135.753 Y110.792 E.14935
G1 X136.344 Y110.792 E.0154
G1 X140.397 Y106.739 E.14935
G1 X140.988 Y106.739 E.0154
G1 X136.935 Y110.792 E.14935
G1 X137.526 Y110.792 E.0154
G1 X141.579 Y106.739 E.14935
G1 X142.17 Y106.739 E.0154
G1 X138.117 Y110.792 E.14935
G1 X138.707 Y110.792 E.01537
G1 X142.761 Y106.739 E.14936
G1 X143.192 Y106.58 E.01197
;WIDTH:0.37219
G1 X143.42 Y106.596 E.00485
;WIDTH:0.411095
G1 X143.349 Y106.704 E.00305
;WIDTH:0.449999
G1 X143.278 Y106.812 E.00337
G1 X139.298 Y110.792 E.14666
G1 X139.889 Y110.792 E.0154
G1 X143.278 Y107.403 E.12488
G1 X143.278 Y107.994 E.0154
G1 X140.48 Y110.792 E.1031
G1 X141.071 Y110.792 E.0154
G1 X143.278 Y108.585 E.08132
G1 X143.278 Y109.176 E.0154
G1 X141.662 Y110.792 E.05955
G1 X142.253 Y110.792 E.0154
G1 X143.278 Y109.767 E.03777
G1 X143.278 Y110.358 E.0154
G1 X142.844 Y110.792 E.01599
G1 X142.784 Y110.876 E.00269
;WIDTH:0.411095
G1 X142.724 Y110.959 E.00242
;WIDTH:0.37219
G1 X142.653 Y110.94 E.00156
G1 X142.672 Y111.011 E.00156
G1 X142.713 Y111 E.0009
; stop printing object Housing_half_test_1.stl id:0 copy 0
M106 S170.85
;LAYER_CHANGE
;Z:0.438462
;HEIGHT:0.0884615
;BEFORE_LAYER_CHANGE
G92 E0.0
;0.438462


;WIPE_START
G1 F8640
G1 X142.672 Y111.011 E-.0098
G1 X142.653 Y110.94 E-.01697
G1 X142.724 Y110.959 E-.01697
G1 X142.784 Y110.876 E-.02365
G1 X142.844 Y110.792 E-.02384
G1 X143.278 Y110.358 E-.14172
G1 X143.278 Y109.767 E-.13646
G1 X142.253 Y110.792 E-.33471
G1 X141.838 Y110.792 E-.09588
;WIPE_END
G1 Z.75 F720
;AFTER_LAYER_CHANGE
;0.438462
; printing object Housing_half_test_1.stl id:0 copy 0
G1 X146.75 Y111.083 F10800
G1 Z.438 F720
G1 E.8 F2100
;TYPE:Support material
;WIDTH:0.35
;HEIGHT:0.238462
G1 F2186
G1 X144.726 Y111.083 E.05996
G1 X144.726 Y108.765 E.06867
G1 X146.75 Y108.765 E.05996
G1 X146.75 Y106.448 E.06864
G1 X144.726 Y106.448 E.05996
; stop printing object Housing_half_test_1.stl id:0 copy 0
;LAYER_CHANGE
;Z:0.5
;HEIGHT:0.0615385
;BEFORE_LAYER_CHANGE
G92 E0.0
;0.5


;WIPE_START
G1 F8640
G1 X146.75 Y106.448 E-.46735
G1 X146.75 Y107.889 E-.33265
;WIPE_END
G1 Z.838 F720
;AFTER_LAYER_CHANGE
;0.5
M73 Q7 S12
G1 X152.453 Y107.889 F10800
G1 Z.5 F720
M73 P7 R12
G1 E.8 F2100
;TYPE:Skirt/Brim
;WIDTH:0.42
;HEIGHT:0.15
G1 F2186
G1 X152.453 Y114.032 E.14857
G1 X152.06 Y115.449 E.03556
G1 X150.994 Y116.463 E.03558
G1 X149.699 Y116.786 E.03228
G1 X142.152 Y116.786 E.18252
G1 X141.506 Y116.709 E.01573
G1 X132.651 Y114.575 E.22029
G1 X131.365 Y113.861 E.03557
G1 X130.543 Y111.897 E.05149
G1 X130.543 Y105.633 E.15149
G1 X130.935 Y104.216 E.03556
G1 X132.651 Y102.956 E.05149
G1 X141.506 Y100.821 E.22029
G1 X142.152 Y100.745 E.01573
G1 X149.699 Y100.745 E.18252
G1 X151.116 Y101.137 E.03556
G1 X152.13 Y102.203 E.03558
G1 X152.453 Y103.499 E.0323
G1 X152.453 Y107.829 E.10472
G1 X152.076 Y107.829 F10800
G1 F2186
G1 X152.076 Y114.032 E.15002
G1 X151.684 Y115.339 E.033
G1 X150.639 Y116.215 E.03298
G1 X149.699 Y116.409 E.02321
G1 X142.152 Y116.409 E.18252
G1 X141.595 Y116.343 E.01357
G1 X132.74 Y114.208 E.22029
G1 X131.561 Y113.521 E.033
G1 X130.92 Y111.897 E.04223
G1 X130.92 Y105.633 E.15149
G1 X131.311 Y104.326 E.03299
G1 X132.74 Y103.322 E.04224
G1 X141.595 Y101.188 E.22029
G1 X142.152 Y101.122 E.01357
G1 X149.699 Y101.122 E.18252
G1 X151.006 Y101.513 E.03299
G1 X151.882 Y102.559 E.033
G1 X152.076 Y103.499 E.02321
G1 X152.076 Y107.769 E.10327
; printing object Housing_half_test_1.stl id:0 copy 0
;WIPE_START
G1 F8640
G1 X152.076 Y111.234 E-.8
;WIPE_END
G1 Z.9 F720
G1 X143.654 Y111.255 F10800
G1 Z.5 F720
G1 E.8 F2100
M204 S800
;TYPE:Perimeter
;WIDTH:0.449999
G1 F1500
G1 X133.94 Y111.255 E.25311
G1 X133.94 Y106.276 E.12973
G1 X143.654 Y106.276 E.25311
G1 X143.654 Y111.195 E.12817
M204 S1000
G1 X144.072 Y111.672 F10800
M204 S800
;TYPE:External perimeter
G1 F1500
G1 X133.522 Y111.672 E.27489
G1 X133.522 Y105.858 E.15149
G1 X144.072 Y105.858 E.27489
G1 X144.072 Y111.612 E.14992
M204 S1000
G1 X143.677 Y111.606 F10800
;WIPE_START
G1 F8640
G1 X140.607 Y111.632 E-.8
;WIPE_END
G1 Z.9 F720
G1 X134.349 Y110.765 F10800
G1 Z.5 F720
G1 E.8 F2100
;TYPE:Solid infill
;WIDTH:0.55137
G1 F2186
G1 X134.304 Y110.811 E.00208
G1 X134.32 Y110.874 E.0021
G1 X134.383 Y110.891 E.00211
G1 X134.429 Y110.845 E.00211
G1 X134.412 Y110.782 E.00211
;WIDTH:0.449999
G1 X134.316 Y110.115 E.01756
G1 X135.079 Y110.879 E.02813
G1 X135.67 Y110.879 E.0154
G1 X134.316 Y109.524 E.04991
G1 X134.316 Y108.933 E.0154
G1 X136.261 Y110.879 E.07169
G1 X136.852 Y110.879 E.0154
G1 X134.316 Y108.342 E.09347
G1 X134.316 Y107.751 E.0154
G1 X137.443 Y110.879 E.11524
G1 X138.034 Y110.879 E.0154
M73 Q8 S12
G1 X134.316 Y107.16 E.13702
M73 P8 R12
G1 X134.157 Y106.762 E.01117
;WIDTH:0.37219
G1 X134.177 Y106.514 E.00528
;WIDTH:0.411095
G1 X134.288 Y106.583 E.00309
;WIDTH:0.449999
G1 X134.398 Y106.652 E.00338
G1 X138.625 Y110.879 E.15576
G1 X139.216 Y110.879 E.0154
G1 X134.989 Y106.652 E.15576
G1 X135.58 Y106.652 E.0154
G1 X139.806 Y110.879 E.15574
G1 X140.397 Y110.879 E.0154
G1 X136.171 Y106.652 E.15574
G1 X136.762 Y106.652 E.0154
G1 X140.988 Y110.879 E.15574
G1 X141.579 Y110.879 E.0154
G1 X137.352 Y106.652 E.15576
G1 X137.943 Y106.652 E.0154
G1 X142.17 Y110.879 E.15576
G1 X142.761 Y110.879 E.0154
G1 X138.534 Y106.652 E.15576
G1 X139.125 Y106.652 E.0154
