; generated by PrusaSlicer 2.6.0+win64 on 2023-10-09 at 13:51:04 UTC


;
;
; 

; external perimeters extrusion width = 0.45mm
; perimeters extrusion width = 0.45mm
; infill extrusion width = 0.45mm
; solid infill extrusion width = 0.45mm
; top infill extrusion width = 0.40mm
; support material extrusion width = 0.35mm
; first layer extrusion width = 0.42mm

M73 P0 R15
M73 Q0 S15
M201 X1000 Y1000 Z200 E5000 ; sets maximum accelerations, mm/sec^2
M203 X200 Y200 Z12 E120 ; sets maximum feedrates, mm / sec
M204 S1250 T1250 ; sets acceleration (S) and retract acceleration (R), mm/sec^2
M205 X8.00 Y8.00 Z0.40 E4.50 ; sets the jerk limits, mm/sec
M205 S0 T0 ; sets the minimum extruding and travel feed rate, mm/sec
;TYPE:Custom
M862.3 P "MK3SMMU2S" ; printer model check
M862.1 P0.4 ; nozzle diameter check
M115 U3.12.2 ; tell printer latest fw version
G90 ; use absolute coordinates
M83 ; extruder relative mode
M104 S215 ; set extruder temp
M140 S60 ; set bed temp
Tx
M190 S60 ; wait for bed temp
M109 S215 ; wait for extruder temp
G28 W ; home all without mesh bed level
G80 ; mesh bed leveling

;go outside print area
G1 Y-3 F1000
G1 Z0.4 F1000
; select extruder
Tc
; purge line
G1 X55 F2000
G1 Z0.3 F1000
G92 E0
G1 X240 E25 F2200
M73 P0 R14
G1 Y-2 F1000
M73 Q0 S14
G1 X55 E25 F1400
G1 Z0.2 F1000
M73 P1 R14
M73 Q1 S14
G1 X5 E4 F1000

M221 S95
G92 E0

; Don't change E values below. Excessive value can damage the printer.
M907 E430 ; set extruder motor current
G21 ; set units to millimeters
G90 ; use absolute coordinates
M83 ; use relative distances for extrusion
M900 K0.05 ; Filament gcode LA 1.5
M900 K30 ; Filament gcode LA 1.0
M107
;LAYER_CHANGE
;Z:0.2
;HEIGHT:0.2
;BEFORE_LAYER_CHANGE
G92 E0.0
;0.2


G1 E-.8 F2100
M73 P2 R14
G1 Z.4 F720
;AFTER_LAYER_CHANGE
;0.2
M73 Q2 S14
G1 X108.777 Y102.085 F10800
G1 Z.2 F720
G1 E.8 F2100
M204 S800
;TYPE:Skirt/Brim
;WIDTH:0.42
G1 F1200
G1 X109.844 Y101.072 E.04613
G1 X111.139 Y100.748 E.04186
G1 X126.308 Y100.748 E.47561
G1 X127.725 Y101.141 E.04611
G1 X128.738 Y102.207 E.04611
G1 X129.062 Y103.503 E.04189
G1 X129.062 Y114.036 E.33025
G1 X128.669 Y115.453 E.04611
G1 X127.603 Y116.466 E.04611
G1 X126.308 Y116.79 E.04186
G1 X111.139 Y116.79 E.47561
G1 X109.721 Y116.397 E.04614
G1 X108.708 Y115.331 E.04611
G1 X108.385 Y114.036 E.04185
G1 X108.385 Y103.503 E.33025
G1 X108.761 Y102.143 E.04424
M204 S1000
G1 X109.136 Y102.255 F10800
M204 S800
G1 F1200
G1 X109.153 Y102.196 E.00193
G1 X110.199 Y101.319 E.0428
G1 X111.139 Y101.126 E.03009
G1 X126.308 Y101.126 E.47561
G1 X127.615 Y101.517 E.04277
G1 X128.491 Y102.563 E.04278
G1 X128.685 Y103.503 E.03009
G1 X128.685 Y114.036 E.33025
G1 X128.293 Y115.343 E.04278
G1 X127.247 Y116.219 E.04278
G1 X126.308 Y116.413 E.03006
G1 X111.139 Y116.413 E.47561
G1 X109.832 Y116.021 E.04278
G1 X108.955 Y114.976 E.04277
G1 X108.762 Y114.036 E.03009
G1 X108.762 Y103.503 E.33025
G1 X109.118 Y102.313 E.03895
M204 S1000
; printing object Housing_half_test_1.stl id:0 copy 0
;WIPE_START
G1 F8640
G1 X109.153 Y102.196 E-.0282
G1 X110.199 Y101.319 E-.31518
G1 X111.139 Y101.126 E-.22158
G1 X112.157 Y101.126 E-.23504
;WIPE_END
G1 Z.6 F720
G1 X115.395 Y103.575 F10800
G1 Z.2 F720
G1 E.8 F2100
M204 S800
;TYPE:Support material
G1 F1200
G1 X112.47 Y108.641 E.18342
G1 X112.47 Y108.898 E.00806
G1 X115.436 Y114.036 E.18601
G1 X111.139 Y114.036 E.13473
M73 Q3 S14
G1 X111.139 Y103.503 E.33025
M73 P3 R14
G1 X115.436 Y103.503 E.13473
G1 X115.423 Y103.526 E.00083
M204 S1000
;WIPE_START
G1 F8640
G1 X115.436 Y103.503 E-.0061
G1 X111.998 Y103.503 E-.7939
;WIPE_END
G1 Z.6 F720
G1 X114.534 Y113.866 F10800
G1 Z.2 F720
G1 E.8 F2100
M204 S800
G1 F1200
G1 X114.534 Y113.151 E.02242
G1 X114.115 Y112.425 E.02628
G1 X114.115 Y113.697 E.03988
G1 X113.696 Y113.697 E.01314
G1 X113.696 Y111.7 E.06261
G1 X113.277 Y110.974 E.02628
G1 X113.277 Y113.697 E.08538
G1 X112.858 Y113.697 E.01314
G1 X112.858 Y110.248 E.10814
G1 X112.439 Y109.523 E.02626
G1 X112.439 Y113.697 E.13087
G1 X112.02 Y113.697 E.01314
G1 X112.02 Y103.842 E.309
G1 X112.439 Y103.842 E.01314
G1 X112.439 Y108.016 E.13087
G1 X112.858 Y107.29 E.02628
G1 X112.858 Y103.842 E.10811
G1 X113.277 Y103.842 E.01314
G1 X113.277 Y106.564 E.08535
G1 X113.696 Y105.839 E.02626
G1 X113.696 Y103.842 E.06261
G1 X114.115 Y103.842 E.01314
G1 X114.115 Y105.113 E.03985
G1 X114.534 Y104.387 E.02628
G1 X114.534 Y103.672 E.02242
M204 S1000
;WIPE_START
G1 F8640
G1 X114.534 Y104.387 E-.1651
G1 X114.115 Y105.113 E-.19355
G1 X114.115 Y103.842 E-.29348
G1 X113.696 Y103.842 E-.09675
G1 X113.696 Y104.063 E-.05112
;WIPE_END
G1 Z.6 F720
G1 X111.601 Y113.866 F10800
G1 Z.2 F720
G1 E.8 F2100
M204 S800
G1 F1200
G1 X111.601 Y103.672 E.31963
M204 S1000
;WIPE_START
G1 F8640
G1 X111.601 Y107.137 E-.8
;WIPE_END
G1 Z.6 F720
G1 X119.025 Y106.265 F10800
G1 Z.2 F720
G1 E.8 F2100
M204 S800
G1 F1200
G1 X119.505 Y106.316 E.01513
G1 X119.676 Y106.357 E.00551
G1 X119.866 Y106.441 E.00651
G1 X120.115 Y106.581 E.00896
G1 X120.323 Y106.728 E.00799
G1 X120.508 Y106.887 E.00765
G1 X120.703 Y107.094 E.00892
G1 X120.922 Y107.479 E.01389
G1 X121.063 Y107.88 E.01333
G1 X121.135 Y108.308 E.01361
G1 X121.129 Y108.743 E.01364
G1 X121.037 Y109.196 E.01449
G1 X120.857 Y109.623 E.01453
G1 X120.633 Y109.958 E.01264
G1 X120.322 Y110.272 E.01386
G1 X119.944 Y110.523 E.01423
G1 X119.622 Y110.658 E.01095
G1 X119.018 Y110.785 E.01935
G1 X118.792 Y110.805 E.00711
G1 X118.565 Y110.8 E.00712
G1 X118.34 Y110.77 E.00712
G1 X118.12 Y110.715 E.00711
G1 X117.759 Y110.564 E.01227
G1 X117.425 Y110.339 E.01263
G1 X117.258 Y110.185 E.00712
G1 X117.11 Y110.013 E.00711
G1 X116.916 Y109.71 E.01128
G1 X116.757 Y109.305 E.01364
G1 X116.659 Y108.697 E.01931
G1 X116.655 Y108.344 E.01107
G1 X116.736 Y107.898 E.01421
G1 X116.875 Y107.543 E.01195
G1 X117.115 Y107.164 E.01407
G1 X117.386 Y106.873 E.01247
G1 X117.709 Y106.63 E.01267
G1 X118.109 Y106.43 E.01402
G1 X118.545 Y106.306 E.01421
G1 X118.968 Y106.265 E.01333
M204 S1000
G1 X120.399 Y109.967 F10800
M204 S800
G1 F1200
G1 X120.399 Y107.262 E.08481
G1 X120.228 Y107.091 E.00758
G1 X120.035 Y106.936 E.00776
G1 X119.98 Y106.898 E.0021
G1 X119.98 Y110.105 E.10055
G1 X119.786 Y110.223 E.00712
G1 X119.561 Y110.32 E.00768
G1 X119.561 Y106.678 E.11419
G1 X119.142 Y106.609 E.01331
G1 X119.142 Y110.414 E.1193
G1 X119.062 Y110.433 E.00258
G1 X118.723 Y110.467 E.01068
G1 X118.723 Y106.621 E.12059
G1 X118.304 Y106.719 E.01349
G1 X118.304 Y110.414 E.11585
G1 X118.087 Y110.343 E.00716
G1 X117.885 Y110.246 E.00703
G1 X117.885 Y106.92 E.10428
G1 X117.636 Y107.105 E.00973
G1 X117.466 Y107.273 E.00749
G1 X117.466 Y109.91 E.08268
G1 X117.322 Y109.728 E.00728
G1 X117.182 Y109.48 E.00893
G1 X117.112 Y109.305 E.00591
G1 X117.047 Y109.04 E.00856
G1 X117.047 Y107.58 E.04578
M204 S1000
;WIPE_START
G1 F8640
G1 X117.047 Y109.04 E-.33712
G1 X117.112 Y109.305 E-.063
G1 X117.182 Y109.48 E-.04352
G1 X117.322 Y109.728 E-.06576
G1 X117.466 Y109.91 E-.05359
G1 X117.466 Y108.884 E-.23701
;WIPE_END
G1 Z.6 F720
G1 X126.308 Y114.036 F10800
G1 Z.2 F720
G1 E.8 F2100
M204 S800
G1 F1200
G1 X122.01 Y114.036 E.13476
G1 X124.977 Y108.898 E.18603
G1 X124.977 Y108.641 E.00806
M73 P4 R14
M73 Q4 S14
G1 X122.01 Y103.503 E.18603
G1 X126.308 Y103.503 E.13476
G1 X126.308 Y113.979 E.32847
M204 S1000
G1 X125.846 Y113.866 F10800
M204 S800
G1 F1200
G1 X125.846 Y103.842 E.3143
G1 X125.427 Y103.842 E.01314
G1 X125.427 Y113.697 E.309
G1 X125.008 Y113.697 E.01314
G1 X125.008 Y109.523 E.13087
G1 X124.589 Y110.248 E.02626
G1 X124.589 Y113.697 E.10814
G1 X124.17 Y113.697 E.01314
G1 X124.17 Y110.974 E.08538
G1 X123.751 Y111.7 E.02628
G1 X123.751 Y113.697 E.06261
G1 X123.332 Y113.697 E.01314
G1 X123.332 Y112.425 E.03988
G1 X122.913 Y113.151 E.02628
G1 X122.913 Y113.866 E.02242
M204 S1000
G1 X125.008 Y108.355 F10800
M204 S800
G1 F1200
G1 X125.008 Y103.842 E.1415
G1 X124.589 Y103.842 E.01314
G1 X124.589 Y107.29 E.10811
G1 X124.17 Y106.564 E.02628
G1 X124.17 Y103.842 E.08535
G1 X123.751 Y103.842 E.01314
G1 X123.751 Y105.839 E.06261
G1 X123.332 Y105.113 E.02628
G1 X123.332 Y103.842 E.03985
G1 X122.913 Y103.842 E.01314
G1 X122.913 Y104.727 E.02775
M204 S1000
;WIPE_START
G1 F8640
G1 X122.913 Y103.842 E-.20435
G1 X123.332 Y103.842 E-.09675
G1 X123.332 Y105.113 E-.29348
G1 X123.751 Y105.839 E-.19355
G1 X123.751 Y105.788 E-.01187
;WIPE_END
G1 Z.6 F720
G1 X120.006 Y111.853 F10800
G1 Z.2 F720
G1 E.8 F2100
M204 S800
;TYPE:Perimeter
;WIDTH:0.419999
G1 F1200
G1 X119.236 Y112.033 E.02479
G1 X118.528 Y112.065 E.02222
G1 X117.805 Y111.941 E.023
G1 X117.207 Y111.702 E.02019
G1 X116.663 Y111.35 E.02032
G1 X116.148 Y110.836 E.02281
G1 X115.812 Y110.329 E.01907
G1 X115.555 Y109.7 E.0213
G1 X115.403 Y108.862 E.0267
G1 X115.388 Y108.326 E.01681
G1 X115.493 Y107.649 E.02148
G1 X115.721 Y107.024 E.02086
G1 X116.082 Y106.433 E.02171
G1 X116.502 Y105.967 E.01967
G1 X116.975 Y105.6 E.01877
G1 X117.556 Y105.289 E.02066
;WIDTH:0.446697
G1 X117.867 Y105.176 E.01111
;WIDTH:0.473395
G1 X118.177 Y105.063 E.01181
G1 X118.873 Y104.984 E.02507
;WIDTH:0.477295
G1 X119.6 Y105.019 E.02629
G1 X119.928 Y105.125 E.01245
;WIDTH:0.448647
G1 X120.256 Y105.231 E.01163
;WIDTH:0.419999
G1 X120.966 Y105.63 E.02554
;WIDTH:0.431875
G1 X121.564 Y106.15 E.02563
G1 X121.964 Y106.727 E.02271
;WIDTH:0.474119
G1 X122.269 Y107.397 E.02639
G1 X122.325 Y107.725 E.01193
;WIDTH:0.447059
G1 X122.381 Y108.053 E.01118
;WIDTH:0.419999
G1 X122.4 Y108.747 E.02177
;WIDTH:0.466065
G1 X122.349 Y109.092 E.01227
;WIDTH:0.512131
G1 X122.297 Y109.438 E.01365
;WIDTH:0.558197
G1 X122.245 Y109.784 E.01499
;WIDTH:0.584243
G1 X122.21 Y109.911 E.00593
G1 X121.931 Y110.437 E.0268
;WIDTH:0.597804
G1 X121.674 Y110.804 E.02067
G1 X121.478 Y110.96 E.01156
;WIDTH:0.553353
G1 X121.282 Y111.115 E.01061
;WIDTH:0.508902
G1 X121.086 Y111.271 E.00971
;WIDTH:0.464451
G1 X120.89 Y111.427 E.00878
;WIDTH:0.419999
G1 X120.064 Y111.84 E.02896
M204 S1000
G1 X119.916 Y111.497 F10800
M204 S800
;TYPE:External perimeter
G1 F1200
G1 X119.158 Y111.664 E.02434
G1 X118.516 Y111.688 E.02014
G1 X117.876 Y111.57 E.0204
G1 X117.353 Y111.355 E.01773
G1 X116.873 Y111.037 E.01805
G1 X116.419 Y110.574 E.02033
G1 X116.131 Y110.127 E.01667
G1 X115.906 Y109.562 E.01907
G1 X115.775 Y108.8 E.02424
G1 X115.768 Y108.285 E.01615
G1 X115.865 Y107.712 E.01822
G1 X116.073 Y107.16 E.0185
G1 X116.401 Y106.634 E.01944
G1 X116.778 Y106.224 E.01746
G1 X117.202 Y105.901 E.01671
G1 X117.727 Y105.625 E.0186
G1 X118.295 Y105.449 E.01864
G1 X118.917 Y105.376 E.01964
G1 X119.569 Y105.423 E.0205
G1 X120.148 Y105.592 E.01891
G1 X120.774 Y105.955 E.02269
G1 X121.306 Y106.434 E.02245
G1 X121.647 Y106.937 E.01905
G1 X121.894 Y107.546 E.02061
G1 X122.011 Y108.126 E.01855
G1 X122.024 Y108.731 E.01897
G1 X121.984 Y109.051 E.01011
G1 X121.815 Y109.666 E.02
G1 X121.529 Y110.232 E.01988
G1 X121.138 Y110.727 E.01978
G1 X120.65 Y111.137 E.01998
G1 X119.97 Y111.47 E.02374
M204 S1000
G1 X119.84 Y111.889 F10800
;WIPE_START
G1 F8640
G1 X119.158 Y111.664 E-.19277
G1 X118.516 Y111.688 E-.14834
G1 X117.876 Y111.57 E-.15027
G1 X117.353 Y111.355 E-.13057
G1 X116.873 Y111.037 E-.13295
G1 X116.736 Y110.898 E-.0451
;WIPE_END
G1 Z.6 F720
G1 X123.588 Y108.769 F10800
G1 Z.2 F720
G1 E.8 F2100
M204 S800
;TYPE:Perimeter
G1 F1200
G1 X123.169 Y109.494 E.02626
;WIDTH:0.46106
G1 X123.048 Y109.663 E.00723
;WIDTH:0.502121
G1 X122.927 Y109.832 E.00794
;WIDTH:0.543182
G1 X122.806 Y110.001 E.00865
;WIDTH:0.584243
G1 X122.685 Y110.169 E.00932
G1 X122.394 Y110.689 E.02682
;WIDTH:0.597804
G1 X122.131 Y111.116 E.02314
G1 X122.1 Y111.213 E.0047
;WIDTH:0.553353
G1 X122.07 Y111.31 E.00431
;WIDTH:0.508902
G1 X122.039 Y111.408 E.00398
;WIDTH:0.464451
G1 X122.009 Y111.505 E.00356
;WIDTH:0.419999
G1 X121.156 Y112.982 E.05348
G1 X116.291 Y112.982 E.15254
G1 X113.859 Y108.769 E.15252
G1 X116.291 Y104.556 E.15252
G1 X117.545 Y104.556 E.03932
;WIDTH:0.453936
G1 X117.901 Y104.573 E.01218
;WIDTH:0.487872
G1 X118.257 Y104.59 E.01319
G1 X119 Y104.573 E.0275
;WIDTH:0.453297
G1 X119.792 Y104.572 E.02703
;WIDTH:0.452192
G1 X120.355 Y104.556 E.01917
;WIDTH:0.419999
G1 X121.156 Y104.556 E.02511
G1 X121.575 Y105.283 E.02631
;WIDTH:0.443167
G1 X122.366 Y106.662 E.05291
;WIDTH:0.453624
G1 X122.74 Y107.335 E.02629
G1 X123.033 Y107.808 E.019
;WIDTH:0.419999
G1 X123.558 Y108.717 E.03291
M204 S1000
G1 X124.023 Y108.769 F10800
M204 S800
;TYPE:External perimeter
M73 Q5 S14
G1 F1200
M73 P5 R14
G1 X121.373 Y113.359 E.16618
G1 X116.073 Y113.359 E.16618
G1 X113.423 Y108.769 E.16618
G1 X116.073 Y104.179 E.16618
G1 X121.373 Y104.179 E.16618
G1 X123.993 Y108.717 E.1643
M204 S1000
G1 X123.677 Y108.969 F10800
;WIPE_START
G1 F8640
G1 X122.29 Y111.734 E-.8
;WIPE_END
G1 Z.6 F720
G1 X122.563 Y108.258 F10800
G1 Z.2 F720
G1 E.8 F2100
M204 S800
;TYPE:Solid infill
;WIDTH:0.427776
G1 F1200
G1 X123.152 Y108.846 E.02663
G1 X122.952 Y109.191 E.01276
G1 X122.712 Y108.951 E.01086
G1 X122.671 Y109.454 E.01615
G1 X122.834 Y109.618 E.0074
M204 S1000
;WIPE_START
G1 F8640
G1 X122.671 Y109.454 E-.05339
G1 X122.712 Y108.951 E-.11653
G1 X122.952 Y109.191 E-.07837
G1 X123.152 Y108.846 E-.09208
G1 X122.563 Y108.258 E-.19217
;WIPE_END
G1 E-.26746 F2100
G1 Z.6 F720
G1 X120.768 Y104.726 F10800
G1 Z.2 F720
G1 E.8 F2100
M204 S800
;WIDTH:0.495415
G1 F1200
G1 X121.424 Y105.383 E.03493
M204 S1000
;WIPE_START
G1 F8640
G1 X120.768 Y104.726 E-.21438
;WIPE_END
G1 E-.58562 F2100
G1 Z.6 F720
G1 X117.022 Y104.726 F10800
G1 Z.2 F720
G1 E.8 F2100
M204 S800
;WIDTH:0.442052
G1 F1200
G1 X117.322 Y105.027 E.0141
G1 X116.948 Y105.217 E.01392
G1 X116.627 Y104.896 E.01507
G1 X116.487 Y104.896 E.00465
G1 X116.332 Y105.165 E.0103
G1 X116.618 Y105.451 E.01342
G1 X116.302 Y105.699 E.01333
G1 X116.125 Y105.523 E.00828
G1 X115.918 Y105.88 E.0137
G1 X116.024 Y105.986 E.00498
G1 X115.894 Y106.122 E.00624
G1 X115.768 Y106.295 E.0071
G1 X115.712 Y106.238 E.00265
G1 X115.505 Y106.596 E.01372
G1 X115.556 Y106.647 E.00239
G1 X115.408 Y106.892 E.0095
G1 X115.363 Y107.018 E.00444
G1 X115.299 Y106.954 E.003
G1 X115.092 Y107.312 E.01372
G1 X115.213 Y107.433 E.00568
G1 X115.161 Y107.579 E.00514
G1 X115.108 Y107.892 E.01054
G1 X114.885 Y107.67 E.01044
G1 X114.679 Y108.028 E.01371
G1 X115.058 Y108.407 E.01779
G1 X115.056 Y108.794 E.01284
G1 X115.089 Y109.002 E.00699
G1 X114.472 Y108.385 E.02896
G1 X114.265 Y108.743 E.01372
G1 X115.474 Y109.952 E.05674
M204 S1000
;WIPE_START
G1 F8640
G1 X114.265 Y108.743 E-.39479
G1 X114.472 Y108.385 E-.09549
G1 X115.089 Y109.002 E-.20148
G1 X115.056 Y108.794 E-.04863
G1 X115.057 Y108.536 E-.05961
;WIPE_END
G1 Z.6 F720
G1 X121.323 Y111.285 F10800
G1 Z.2 F720
G1 E.8 F2100
M204 S800
G1 F1200
G1 X121.59 Y111.552 E.01253
G1 X121.383 Y111.91 E.01372
G1 X121.137 Y111.663 E.01157
G1 X120.931 Y111.803 E.00827
G1 X120.783 Y111.874 E.00545
G1 X121.176 Y112.267 E.01845
G1 X120.97 Y112.625 E.01371
G1 X120.402 Y112.058 E.02664
G1 X120.219 Y112.146 E.00674
G1 X119.997 Y112.217 E.00774
G1 X120.423 Y112.643 E.01999
G1 X119.858 Y112.643 E.01875
G1 X119.532 Y112.316 E.01532
G1 X119.268 Y112.373 E.00896
G1 X119.034 Y112.383 E.00777
G1 X119.294 Y112.643 E.0122
G1 X118.729 Y112.643 E.01875
G1 X118.491 Y112.404 E.01119
G1 X117.808 Y112.286 E.023
G1 X118.165 Y112.643 E.01676
G1 X117.601 Y112.643 E.01872
G1 X114.966 Y110.008 E.12367
G1 X115.737 Y111.343 E.05116
G1 X117.206 Y112.813 E.06897
M204 S1000
; stop printing object Housing_half_test_1.stl id:0 copy 0
M106 S84.15
;LAYER_CHANGE
;Z:0.35
;HEIGHT:0.15
;BEFORE_LAYER_CHANGE
G92 E0.0
;0.35


;WIPE_START
G1 F8640
G1 X115.737 Y111.343 E-.47986
G1 X115.044 Y110.142 E-.32014
;WIPE_END
G1 Z.6 F720
;AFTER_LAYER_CHANGE
;0.35
M104 S210 ; set temperature
G1 X115.044 Y116.79 F10800
G1 Z.35 F720
G1 E.8 F2100
;TYPE:Skirt/Brim
;WIDTH:0.42
G1 F2428
G1 X111.139 Y116.79 E.09444
G1 X109.721 Y116.397 E.03559
G1 X108.708 Y115.331 E.03557
G1 X108.385 Y114.036 E.03228
G1 X108.385 Y103.503 E.25474
G1 X108.777 Y102.085 E.03558
G1 X109.844 Y101.072 E.03558
G1 X111.139 Y100.748 E.03228
G1 X126.308 Y100.748 E.36686
G1 X127.725 Y101.141 E.03556
G1 X128.738 Y102.207 E.03557
G1 X129.062 Y103.503 E.03231
G1 X129.062 Y114.036 E.25474
G1 X128.669 Y115.453 E.03556
