; generated by PrusaSlicer 2.6.0+win64 on 2023-10-09 at 14:17:26 UTC


;
;
; 

; external perimeters extrusion width = 0.45mm
; perimeters extrusion width = 0.45mm
; infill extrusion width = 0.45mm
; solid infill extrusion width = 0.45mm
; top infill extrusion width = 0.40mm
; support material extrusion width = 0.35mm
; first layer extrusion width = 0.42mm

M73 P0 R6
M73 Q0 S6
M201 X1000 Y1000 Z200 E5000 ; sets maximum accelerations, mm/sec^2
M203 X200 Y200 Z12 E120 ; sets maximum feedrates, mm / sec
M204 S1250 T1250 ; sets acceleration (S) and retract acceleration (R), mm/sec^2
M205 X8.00 Y8.00 Z0.40 E4.50 ; sets the jerk limits, mm/sec
M205 S0 T0 ; sets the minimum extruding and travel feed rate, mm/sec
;TYPE:Custom
M862.3 P "MK3SMMU2S" ; printer model check
M862.1 P0.4 ; nozzle diameter check
M115 U3.12.2 ; tell printer latest fw version
G90 ; use absolute coordinates
M83 ; extruder relative mode
M104 S215 ; set extruder temp
M140 S60 ; set bed temp
Tx
M190 S60 ; wait for bed temp
M109 S215 ; wait for extruder temp
G28 W ; home all without mesh bed level
G80 ; mesh bed leveling

;go outside print area
G1 Y-3 F1000
G1 Z0.4 F1000
; select extruder
Tc
; purge line
G1 X55 F2000
G1 Z0.3 F1000
G92 E0
G1 X240 E25 F2200
G1 Y-2 F1000
M73 P1 R6
M73 Q1 S6
G1 X55 E25 F1400
G1 Z0.2 F1000
M73 P3 R6
M73 Q3 S6
G1 X5 E4 F1000

M221 S95
G92 E0

; Don't change E values below. Excessive value can damage the printer.
M907 E430 ; set extruder motor current
G21 ; set units to millimeters
G90 ; use absolute coordinates
M83 ; use relative distances for extrusion
M900 K0.05 ; Filament gcode LA 1.5
M900 K30 ; Filament gcode LA 1.0
M107
;LAYER_CHANGE
;Z:0.2
;HEIGHT:0.2
;BEFORE_LAYER_CHANGE
G92 E0.0
;0.2


G1 E-.8 F2100
M73 P4 R6
M73 Q4 S6
G1 Z.4 F720
;AFTER_LAYER_CHANGE
;0.2
G1 X112.341 Y82.222 F10800
G1 Z.2 F720
G1 E.8 F2100
M204 S800
;TYPE:Skirt/Brim
;WIDTH:0.42
G1 F1200
G1 X113.441 Y81.103 E.0492
G1 X115.052 Y80.657 E.05241
G1 X120.826 Y80.657 E.18104
G1 X122.346 Y81.05 E.04923
G1 X123.538 Y82.222 E.05241
G1 X126.424 Y87.222 E.18101
G1 X126.843 Y88.735 E.04922
G1 X126.424 Y90.354 E.05244
G1 X123.538 Y95.354 E.18101
G1 X122.437 Y96.473 E.04922
M73 Q5 S6
G1 X120.826 Y96.919 E.05241
M73 P5 R6
G1 X115.052 Y96.919 E.18104
G1 X113.532 Y96.526 E.04923
G1 X112.341 Y95.354 E.05239
G1 X109.454 Y90.354 E.18103
G1 X109.035 Y88.841 E.04922
G1 X109.454 Y87.222 E.05244
G1 X112.311 Y82.274 E.17915
M204 S1000
G1 X112.637 Y82.463 F10800
M204 S800
G1 F1200
G1 X112.667 Y82.411 E.00188
G1 X113.716 Y81.38 E.04612
G1 X115.052 Y81.034 E.04327
G1 X120.826 Y81.034 E.18104
G1 X122.243 Y81.427 E.04611
G1 X123.211 Y82.411 E.04328
G1 X126.098 Y87.411 E.18103
G1 X126.466 Y88.835 E.04612
G1 X126.098 Y90.165 E.04327
G1 X123.211 Y95.165 E.18103
G1 X122.162 Y96.196 E.04612
G1 X120.826 Y96.542 E.04327
G1 X115.052 Y96.542 E.18104
G1 X113.635 Y96.149 E.04611
G1 X112.667 Y95.165 E.04328
G1 X109.78 Y90.165 E.18103
G1 X109.412 Y88.741 E.04612
G1 X109.78 Y87.411 E.04327
G1 X112.607 Y82.515 E.17726
M204 S1000
G1 X112.934 Y82.703 F10800
M204 S800
M73 Q6 S6
G1 F1200
G1 X112.994 Y82.599 E.00376
G1 X113.986 Y81.663 E.04276
G1 X115.052 Y81.411 E.03434
G1 X120.826 Y81.411 E.18104
M73 P6 R6
G1 X122.133 Y81.803 E.04278
G1 X122.884 Y82.599 E.03431
G1 X125.771 Y87.599 E.18103
G1 X126.086 Y88.927 E.04279
G1 X125.771 Y89.977 E.03437
G1 X122.884 Y94.977 E.18103
G1 X121.892 Y95.913 E.04276
G1 X120.826 Y96.165 E.03434
G1 X115.052 Y96.165 E.18104
G1 X113.745 Y95.774 E.04277
G1 X112.994 Y94.977 E.03434
G1 X110.107 Y89.977 E.18103
G1 X109.793 Y88.649 E.04279
G1 X110.107 Y87.599 E.03436
G1 X112.904 Y82.755 E.17538
M204 S1000
; printing object M6.stl id:0 copy 0
;WIPE_START
G1 F8640
G1 X112.994 Y82.599 E-.04159
G1 X113.986 Y81.663 E-.31492
G1 X115.052 Y81.411 E-.25293
G1 X115.877 Y81.411 E-.19056
;WIPE_END
G1 Z.6 F720
G1 X115.924 Y84.854 F10800
G1 Z.2 F720
G1 E.8 F2100
M204 S800
;TYPE:Perimeter
;WIDTH:0.419999
G1 F1200
G1 X116.593 Y84.575 E.02273
G1 X119.281 Y84.575 E.08428
G1 X119.793 Y84.769 E.01717
G1 X120.33 Y85.07 E.0193
G1 X120.914 Y85.516 E.02304
G1 X122.261 Y87.848 E.08444
G1 X122.337 Y88.323 E.01508
G1 X122.357 Y88.887 E.01769
G1 X122.346 Y89.137 E.00785
G1 X122.259 Y89.731 E.01882
G1 X120.916 Y92.058 E.08424
G1 X120.444 Y92.43 E.01884
G1 X119.954 Y92.722 E.01788
G1 X119.286 Y93.001 E.0227
G1 X116.597 Y93.001 E.08431
G1 X116.085 Y92.807 E.01717
G1 X115.548 Y92.506 E.0193
G1 X114.964 Y92.061 E.02302
G1 X113.617 Y89.728 E.08447
G1 X113.525 Y89.01 E.0227
G1 X113.532 Y88.439 E.0179
G1 X113.619 Y87.845 E.01882
M73 Q7 S6
G1 X114.962 Y85.518 E.08424
G1 X115.434 Y85.146 E.01884
G1 X115.873 Y84.885 E.01601
M204 S1000
M73 P7 R6
G1 X115.731 Y84.54 F10800
M204 S800
;TYPE:External perimeter
G1 F1200
G1 X115.978 Y84.408 E.00878
G1 X116.527 Y84.198 E.01843
G1 X119.35 Y84.198 E.08851
G1 X119.798 Y84.367 E.01501
G1 X120.244 Y84.58 E.0155
G1 X120.752 Y84.9 E.01882
G1 X121.208 Y85.27 E.01841
G1 X122.62 Y87.716 E.08855
G1 X122.713 Y88.296 E.01842
G1 X122.734 Y88.905 E.01911
G1 X122.716 Y89.299 E.01237
G1 X122.62 Y89.861 E.01788
G1 X121.209 Y92.305 E.08848
G1 X120.882 Y92.576 E.01332
G1 X120.437 Y92.882 E.01693
G1 X119.9 Y93.168 E.01908
G1 X119.351 Y93.378 E.01843
G1 X116.528 Y93.378 E.08851
G1 X116.081 Y93.209 E.01498
G1 X115.634 Y92.996 E.01553
G1 X115.127 Y92.676 E.0188
G1 X114.67 Y92.306 E.01844
G1 X113.258 Y89.86 E.08855
G1 X113.173 Y89.393 E.01488
G1 X113.136 Y88.854 E.01694
G1 X113.163 Y88.277 E.01811
G1 X113.259 Y87.715 E.01788
G1 X114.67 Y85.271 E.08848
G1 X114.996 Y85 E.01329
G1 X115.441 Y84.694 E.01693
G1 X115.678 Y84.568 E.00842
M204 S1000
G1 X115.972 Y84.683 F10800
;WIPE_START
G1 F8640
G1 X115.978 Y84.408 E-.07851
G1 X116.527 Y84.198 E-.13572
G1 X119.064 Y84.198 E-.58577
;WIPE_END
G1 Z.6 F720
G1 X121.12 Y86.211 F10800
G1 Z.2 F720
G1 E.8 F2100
M204 S800
;TYPE:Solid infill
;WIDTH:0.43068
G1 F1200
G1 X120.619 Y85.71 E.02284
G1 X120.413 Y85.535 E.00872
G1 X120.029 Y85.277 E.01492
G1 X119.653 Y85.079 E.0137
G1 X119.309 Y84.949 E.01186
G1 X121.406 Y87.045 E.0956
G1 X121.937 Y87.966 E.03428
G1 X121.973 Y88.16 E.00636
G1 X118.727 Y84.914 E.14801
G1 X118.178 Y84.914 E.0177
G1 X122.024 Y88.76 E.17537
G1 X121.993 Y89.277 E.0167
G1 X117.63 Y84.914 E.19894
G1 X117.082 Y84.914 E.01767
G1 X121.879 Y89.712 E.21875
G1 X121.678 Y90.059 E.01293
G1 X116.564 Y84.946 E.23316
G1 X116.178 Y85.108 E.0135
M73 Q8 S6
G1 X121.477 Y90.407 E.24162
G1 X121.276 Y90.755 E.01296
M73 P8 R6
G1 X115.822 Y85.3 E.24871
G1 X115.493 Y85.519 E.01274
G1 X121.076 Y91.102 E.25457
G1 X120.875 Y91.45 E.01296
G1 X115.204 Y85.779 E.25858
G1 X115.003 Y86.126 E.01293
G1 X120.674 Y91.798 E.25861
G1 X120.652 Y91.836 E.00142
G1 X120.386 Y92.057 E.01115
G1 X114.802 Y86.474 E.25459
G1 X114.602 Y86.822 E.01294
G1 X120.056 Y92.276 E.24869
G1 X119.7 Y92.468 E.01304
G1 X114.401 Y87.169 E.24162
G1 X114.2 Y87.517 E.01296
G1 X119.314 Y92.63 E.23316
G1 X119.226 Y92.662 E.00302
G1 X118.797 Y92.662 E.01383
G1 X113.999 Y87.865 E.21875
G1 X113.943 Y87.962 E.00361
M73 Q9 S6
G1 X113.886 Y88.299 E.01102
G1 X118.248 Y92.662 E.19892
G1 X117.7 Y92.662 E.01767
M73 P9 R6
G1 X113.855 Y88.816 E.17535
G1 X113.906 Y89.416 E.01942
G1 X117.151 Y92.662 E.14799
G1 X116.659 Y92.662 E.01586
G1 X116.569 Y92.627 E.00311
G1 X114.473 Y90.531 E.09557
G1 X115.222 Y91.829 E.04832
G1 X115.923 Y92.53 E.03196
M204 S1000
; stop printing object M6.stl id:0 copy 0
M106 S84.15
;LAYER_CHANGE
;Z:0.347359
;HEIGHT:0.147359
;BEFORE_LAYER_CHANGE
G92 E0.0
;0.347359


;WIPE_START
G1 F8640
G1 X115.222 Y91.829 E-.22891
G1 X114.473 Y90.531 E-.34603
G1 X115.162 Y91.22 E-.22506
;WIPE_END
G1 Z.6 F720
;AFTER_LAYER_CHANGE
;0.347359
M104 S210 ; set temperature
G1 X111.256 Y93.475 F10800
G1 Z.347 F720
G1 E.8 F2100
;TYPE:Skirt/Brim
;WIDTH:0.42
G1 F2820
G1 X109.454 Y90.354 E.08575
G1 X109.035 Y88.841 E.03735
G1 X109.454 Y87.222 E.03979
G1 X112.341 Y82.222 E.13738
G1 X113.441 Y81.103 E.03734
G1 X115.052 Y80.657 E.03977
G1 X120.826 Y80.657 E.13739
G1 X122.346 Y81.05 E.03736
G1 X123.538 Y82.222 E.03978
G1 X126.424 Y87.222 E.13736
G1 X126.843 Y88.735 E.03735
G1 X126.424 Y90.354 E.03979
G1 X123.538 Y95.354 E.13736
G1 X122.437 Y96.473 E.03735
G1 X120.826 Y96.919 E.03977
G1 X115.052 Y96.919 E.13739
G1 X113.532 Y96.526 E.03736
G1 X112.341 Y95.354 E.03976
G1 X111.286 Y93.527 E.0502
G1 X111.613 Y93.339 F10800
G1 F2820
G1 X109.78 Y90.165 E.08721
G1 X109.412 Y88.741 E.035
G1 X109.78 Y87.411 E.03283
G1 X112.667 Y82.411 E.13738
G1 X113.716 Y81.38 E.035
G1 X115.052 Y81.034 E.03284
G1 X120.826 Y81.034 E.13739
G1 X122.243 Y81.427 E.03499
G1 X123.211 Y82.411 E.03284
G1 X126.098 Y87.411 E.13738
G1 X126.466 Y88.835 E.035
G1 X126.098 Y90.165 E.03283
G1 X123.211 Y95.165 E.13738
G1 X122.162 Y96.196 E.035
G1 X120.826 Y96.542 E.03284
G1 X115.052 Y96.542 E.13739
G1 X113.635 Y96.149 E.03499
M73 Q10 S6
G1 X112.667 Y95.165 E.03284
M73 P10 R6
G1 X111.643 Y93.391 E.04874
G1 X111.969 Y93.202 F10800
G1 F2820
G1 X110.107 Y89.977 E.08861
G1 X109.793 Y88.649 E.03247
G1 X110.107 Y87.599 E.02608
G1 X112.994 Y82.599 E.13738
G1 X113.986 Y81.663 E.03245
G1 X115.052 Y81.411 E.02606
G1 X120.826 Y81.411 E.13739
G1 X122.133 Y81.803 E.03247
G1 X122.884 Y82.599 E.02604
G1 X125.771 Y87.599 E.13738
G1 X126.086 Y88.927 E.03247
G1 X125.771 Y89.977 E.02608
G1 X122.884 Y94.977 E.13738
G1 X121.892 Y95.913 E.03245
G1 X120.826 Y96.165 E.02606
G1 X115.052 Y96.165 E.13739
G1 X113.745 Y95.774 E.03246
G1 X112.994 Y94.977 E.02606
G1 X111.999 Y93.254 E.04734
; printing object M6.stl id:0 copy 0
;WIPE_START
G1 F8640
G1 X110.267 Y90.254 E-.8
;WIPE_END
G1 Z.747 F720
G1 X115.619 Y84.432 F10800
G1 Z.347 F720
G1 E.8 F2100
M204 S800
;TYPE:Perimeter
;WIDTH:0.449999
G1 F1500
G1 X120.278 Y84.441 E.11942
G1 X120.552 Y84.6 E.00812
G1 X122.872 Y88.619 E.11895
G1 X122.872 Y88.957 E.00866
G1 X120.552 Y92.975 E.11892
G1 X120.26 Y93.144 E.00865
G1 X115.6 Y93.135 E.11944
G1 X115.326 Y92.976 E.00812
G1 X113.006 Y88.957 E.11895
G1 X113.006 Y88.619 E.00866
G1 X115.326 Y84.601 E.11892
G1 X115.567 Y84.462 E.00713
M204 S1000
G1 X115.428 Y84.058 F10800
M204 S800
;TYPE:External perimeter
G1 F900

G1 X115.507 Y84.013 E.00233
G1 X116.326 Y84.015 E.02099
G1 F1500
G1 X119.571 Y84.021 E.08317
G1 F900
G1 X120.391 Y84.023 E.02102
G1 X120.858 Y84.294 E.01384
G1 X121.268 Y85.004 E.02101
G1 F1500
G1 X122.88 Y87.797 E.08266
G1 F900
G1 X123.29 Y88.506 E.02099
G1 X123.29 Y89.07 E.01446
G1 X122.881 Y89.779 E.02098
G1 F1500
G1 X121.268 Y92.572 E.08267
G1 F900
G1 X120.858 Y93.282 E.02101
G1 X120.371 Y93.563 E.01441
G1 X119.552 Y93.561 E.02099
G1 F1500
M73 Q11 S6
G1 X116.307 Y93.555 E.08317
G1 F900
M73 P11 R6
G1 X115.487 Y93.553 E.02102
G1 X115.02 Y93.282 E.01384
G1 X114.61 Y92.572 E.02101
G1 F1500
G1 X112.998 Y89.779 E.08266
G1 F900
G1 X112.588 Y89.07 E.02099
G1 X112.588 Y88.506 E.01446
G1 X112.998 Y87.797 E.02099
G1 F1500
G1 X114.61 Y85.004 E.08266
G1 F900
G1 X115.02 Y84.294 E.02101
G1 X115.376 Y84.088 E.01054

M204 S1000
G1 X115.513 Y84.091 F10800
G1 X115.566 Y84.786
;TYPE:Solid infill
;WIDTH:0.371623
G1 F2820
G1 X115.495 Y84.767 E.00153
G1 X115.514 Y84.838 E.00153
G1 X115.555 Y84.827 E.00088
;WIDTH:0.410811
G1 X115.755 Y84.818 E.00465
;WIDTH:0.449999
G1 X115.954 Y84.809 E.00511
G1 X115.212 Y85.552 E.02691
;WIPE_START
G1 F8640
G1 X115.954 Y84.809 E-.24246
G1 X115.755 Y84.818 E-.046
G1 X115.555 Y84.827 E-.04623
G1 X115.514 Y84.838 E-.0098
G1 X115.495 Y84.767 E-.01697
G1 X115.566 Y84.786 E-.01697
;WIPE_END
G1 E-.42157 F2100
G1 Z.747 F720
G1 X116.545 Y84.81 F10800
G1 Z.347 F720
G1 E.8 F2100
G1 F2820
G1 X114.404 Y86.951 E.07761
G1 X114.311 Y87.094 E.00437
;WIDTH:0.410811
G1 X114.218 Y87.236 E.00394
;WIDTH:0.371623
G1 X114.147 Y87.217 E.00153
G1 X114.166 Y87.288 E.00153
G1 X114.207 Y87.277 E.00088
;WIPE_START
G1 F8640
G1 X114.166 Y87.288 E-.0098
G1 X114.147 Y87.217 E-.01697
G1 X114.218 Y87.236 E-.01697
G1 X114.311 Y87.094 E-.03919
G1 X114.404 Y86.951 E-.03939
G1 X116.479 Y84.876 E-.67768
;WIPE_END
G1 Z.747 F720
G1 X113.595 Y88.351 F10800
G1 Z.347 F720
G1 E.8 F2100
;WIDTH:0.449999
G1 F2820
G1 X117.135 Y84.811 E.12832
G1 X117.726 Y84.813 E.01515
G1 X113.492 Y89.046 E.15346
G1 X113.394 Y88.871 E.00514
;WIDTH:0.410811
G1 X113.295 Y88.696 E.00467
;WIDTH:0.371623
G1 X113.282 Y88.881 E.00386
;WIDTH:0.449999
G1 X113.709 Y89.421 E.01765
G1 X118.316 Y84.814 E.167
G1 X118.907 Y84.815 E.01515
G1 X113.925 Y89.796 E.18057
G1 X114.142 Y90.171 E.01111
G1 X119.497 Y84.816 E.19411
G1 X120.088 Y84.817 E.01515
G1 X114.359 Y90.547 E.20769
G1 X114.575 Y90.922 E.01109
G1 X120.402 Y85.094 E.21124
G1 X120.619 Y85.47 E.01113
G1 X114.792 Y91.297 E.21122
G1 X115.008 Y91.672 E.01109
G1 X120.836 Y85.845 E.21124
G1 X121.052 Y86.22 E.01109
G1 X115.225 Y92.047 E.21122
G1 X115.441 Y92.422 E.01109
G1 X121.269 Y86.595 E.21124
G1 X121.485 Y86.97 E.01109
M73 P12 R6
M73 Q12 S6
G1 X115.699 Y92.757 E.20975
G1 X116.287 Y92.76 E.01507
G1 X121.702 Y87.345 E.19629
G1 X121.918 Y87.72 E.01109
G1 X116.877 Y92.761 E.18273
G1 X117.468 Y92.762 E.01515
G1 X122.135 Y88.095 E.16917
G1 X122.351 Y88.47 E.01109
G1 X118.058 Y92.763 E.15562
G1 X118.649 Y92.765 E.01515
G1 X122.411 Y89.002 E.13639
;WIPE_START
G1 F8640
G1 X119.961 Y91.452 E-.8
;WIPE_END
G1 Z.747 F720
G1 X121.871 Y90.095 F10800
G1 Z.347 F720
G1 E.8 F2100
;WIDTH:0.371623
G1 F2820
G1 X121.8 Y90.076 E.00153
G1 X121.819 Y90.148 E.00155
G1 X121.86 Y90.137 E.00088
;WIDTH:0.410811
G1 X121.731 Y90.269 E.00429
;WIDTH:0.449999
G1 X119.239 Y92.766 E.09042
G1 X119.83 Y92.767 E.01515
M73 P12 R5
G1 X120.923 Y91.669 E.03971
;WIDTH:0.410811
G1 X121.052 Y91.536 E.0043
;WIDTH:0.371623
G1 X121.011 Y91.547 E.00088
G1 X120.992 Y91.476 E.00153
G1 X121.063 Y91.495 E.00153
; stop printing object M6.stl id:0 copy 0
M106 S170.85
;LAYER_CHANGE
;Z:0.519138
;HEIGHT:0.171779
;BEFORE_LAYER_CHANGE
G92 E0.0
;0.519138


;WIPE_START
G1 F8640
G1 X120.992 Y91.476 E-.01697
G1 X121.011 Y91.547 E-.01697
G1 X121.052 Y91.536 E-.0098
G1 X120.923 Y91.669 E-.04278
G1 X120.795 Y91.802 E-.04262
G1 X119.83 Y92.767 E-.31512
G1 X119.239 Y92.766 E-.13646
G1 X119.911 Y92.094 E-.21928
;WIPE_END
G1 Z.747 F720
;AFTER_LAYER_CHANGE
;0.519138
G1 X124.042 Y94.48 F10800
G1 Z.519 F720
G1 E.8 F2100
;TYPE:Skirt/Brim
;WIDTH:0.42
G1 F2751
G1 X123.538 Y95.354 E.02761
G1 X122.437 Y96.473 E.04295
G1 X120.826 Y96.919 E.04574
G1 X115.052 Y96.919 E.15799
G1 X113.532 Y96.526 E.04296
G1 X112.341 Y95.354 E.04572
G1 X109.454 Y90.354 E.15798
G1 X109.035 Y88.841 E.04296
G1 X109.454 Y87.222 E.04576
G1 X112.341 Y82.222 E.15798
G1 X113.441 Y81.103 E.04294
G1 X115.052 Y80.657 E.04574
G1 X120.826 Y80.657 E.15799
G1 X122.346 Y81.05 E.04296
M73 Q12 S5
G1 X123.538 Y82.222 E.04574
G1 X126.424 Y87.222 E.15797
G1 X126.843 Y88.735 E.04296
G1 X126.424 Y90.354 E.04576
G1 X124.072 Y94.428 E.12872
G1 X123.746 Y94.239 F10800
G1 F2751
G1 X123.211 Y95.165 E.02926
G1 X122.162 Y96.196 E.04025
G1 X120.826 Y96.542 E.03776
G1 X115.052 Y96.542 E.15799
G1 X113.635 Y96.149 E.04024
G1 X112.667 Y95.165 E.03777
G1 X109.78 Y90.165 E.15798
G1 X109.412 Y88.741 E.04024
M73 P13 R5
M73 Q13 S5
G1 X109.78 Y87.411 E.03776
G1 X112.667 Y82.411 E.15798
G1 X113.716 Y81.38 E.04025
G1 X115.052 Y81.034 E.03776
G1 X120.826 Y81.034 E.15799
G1 X122.243 Y81.427 E.04024
G1 X123.211 Y82.411 E.03777
G1 X126.098 Y87.411 E.15798
G1 X126.466 Y88.835 E.04024
G1 X126.098 Y90.165 E.03776
G1 X123.776 Y94.187 E.12708
G1 X123.449 Y93.999 F10800
G1 F2751
G1 X122.884 Y94.977 E.03091
G1 X121.892 Y95.913 E.03732
G1 X120.826 Y96.165 E.02997
G1 X115.052 Y96.165 E.15799
G1 X113.745 Y95.774 E.03733
G1 X112.994 Y94.977 E.02996
G1 X110.107 Y89.977 E.15798
G1 X109.793 Y88.649 E.03734
G1 X110.107 Y87.599 E.02999
G1 X112.994 Y82.599 E.15798
G1 X113.986 Y81.663 E.03732
G1 X115.052 Y81.411 E.02997
G1 X120.826 Y81.411 E.15799
G1 X122.133 Y81.803 E.03734
G1 X122.884 Y82.599 E.02994
G1 X125.771 Y87.599 E.15798
G1 X126.086 Y88.927 E.03735
G1 X125.771 Y89.977 E.03
G1 X123.479 Y93.947 E.12543
; printing object M6.stl id:0 copy 0
;WIPE_START
G1 F8640
G1 X122.884 Y94.977 E-.27466
G1 X121.892 Y95.913 E-.31492
G1 X121.005 Y96.123 E-.21042
;WIPE_END
G1 Z.919 F720
G1 X115.421 Y84.426 F10800
G1 Z.519 F720
G1 E.8 F2100
M204 S800
;TYPE:Perimeter
