; generated by PrusaSlicer 2.6.1+win64 on 2023-10-23 at 13:28:28 UTC


;
;
; 

; external perimeters extrusion width = 0.45mm
; perimeters extrusion width = 0.45mm
; infill extrusion width = 0.45mm
; solid infill extrusion width = 0.45mm
; top infill extrusion width = 0.40mm
; first layer extrusion width = 0.42mm

M73 P0 R10
M73 Q0 S10
M201 X1000 Y1000 Z200 E5000 ; sets maximum accelerations, mm/sec^2
M203 X200 Y200 Z12 E120 ; sets maximum feedrates, mm / sec
M204 S1250 T1250 ; sets acceleration (S) and retract acceleration (R), mm/sec^2
M205 X8.00 Y8.00 Z0.40 E4.50 ; sets the jerk limits, mm/sec
M205 S0 T0 ; sets the minimum extruding and travel feed rate, mm/sec
;TYPE:Custom
M862.3 P "MK3SMMU2S" ; printer model check
M862.1 P0.4 ; nozzle diameter check
M115 U3.12.2 ; tell printer latest fw version
G90 ; use absolute coordinates
M83 ; extruder relative mode
M104 S215 ; set extruder temp
M140 S60 ; set bed temp
Tx
M190 S60 ; wait for bed temp
M109 S215 ; wait for extruder temp
G28 W ; home all without mesh bed level
G80 ; mesh bed leveling

;go outside print area
G1 Y-3 F1000
G1 Z0.4 F1000
; select extruder
Tc
; purge line
G1 X55 F2000
G1 Z0.3 F1000
G92 E0
G1 X240 E25 F2200
G1 Y-2 F1000
M73 P1 R9
M73 Q1 S9
G1 X55 E25 F1400
G1 Z0.2 F1000
M73 P2 R9
M73 Q2 S9
G1 X5 E4 F1000

M221 S95
G92 E0

; Don't change E values below. Excessive value can damage the printer.
M907 E430 ; set extruder motor current
G21 ; set units to millimeters
G90 ; use absolute coordinates
M83 ; use relative distances for extrusion
M900 K0.05 ; Filament gcode LA 1.5
M900 K30 ; Filament gcode LA 1.0
M107
;LAYER_CHANGE
;Z:0.2
;HEIGHT:0.2
;BEFORE_LAYER_CHANGE
G92 E0.0
;0.2


G1 E-.8 F2100
G1 Z.4 F720
;AFTER_LAYER_CHANGE
;0.2
M73 P3 R9
G1 X115.934 Y95.859 F10800
G1 Z.2 F720
M73 Q3 S9
G1 E.8 F2100
M204 S800
;TYPE:Skirt/Brim
;WIDTH:0.42
G1 F1200
G1 X116.892 Y95.008 E.04018
G1 X117.875 Y94.284 E.03828
G1 X119.842 Y93.211 E.07025
G1 X120.996 Y92.77 E.03873
G1 X122.015 Y92.488 E.03315
G1 X123.172 Y92.346 E.03655
G1 X127.235 Y92.376 E.1274
G1 X128.384 Y92.578 E.03658
G1 X129.396 Y92.906 E.03336
G1 X130.59 Y93.409 E.04062
G1 X131.655 Y93.986 E.03798
G1 X132.74 Y94.72 E.04107
G1 X133.652 Y95.474 E.0371
G1 X134.343 Y96.159 E.03051
G1 X135.045 Y97.09 E.03656
G1 X136.873 Y100.256 E.11463
G1 X137.449 Y101.719 E.0493
G1 X137.741 Y103.192 E.04708
G1 X137.865 Y104.702 E.0475
G1 X137.813 Y106.199 E.04697
G1 X137.593 Y107.648 E.04595
G1 X137.328 Y108.671 E.03313
G1 X136.873 Y109.744 E.03654
G1 X134.815 Y113.248 E.12741
G1 X134.343 Y113.841 E.02376
G1 X133.652 Y114.526 E.03051
G1 X131.98 Y115.811 E.06612
G1 X130.013 Y116.852 E.06978
G1 X127.985 Y117.512 E.06687
G1 X126.828 Y117.654 E.03655
G1 X123.172 Y117.654 E.11463
G1 X122.015 Y117.512 E.03655
G1 X119.967 Y116.843 E.06755
G1 X117.968 Y115.777 E.07103
G1 X116.993 Y115.074 E.03769
G1 X115.934 Y114.141 E.04425
G1 X114.955 Y112.91 E.04932
G1 X113.127 Y109.744 E.11463
G1 X112.551 Y108.281 E.0493
G1 X112.259 Y106.808 E.04708
G1 X112.135 Y105.298 E.0475
G1 X112.187 Y103.801 E.04697
G1 X112.407 Y102.352 E.04595
G1 X112.672 Y101.329 E.03313
G1 X113.127 Y100.256 E.03654
G1 X114.955 Y97.09 E.11463
G1 X115.897 Y95.906 E.04744
M204 S1000
G1 X116.189 Y96.138 F10800
M204 S800
G1 F1200
G1 X117.13 Y95.3 E.03951
G1 X118.087 Y94.596 E.03725
G1 X119.991 Y93.557 E.06801
G1 X121.076 Y93.141 E.03643
G1 X122.071 Y92.861 E.03241
G1 X123.172 Y92.723 E.03479
G1 X127.179 Y92.749 E.12564
G1 X128.273 Y92.939 E.03482
G1 X129.269 Y93.26 E.03281
G1 X130.427 Y93.75 E.03943
G1 X131.462 Y94.31 E.0369
M73 Q4 S9
G1 X132.515 Y95.022 E.03986
G1 X133.399 Y95.754 E.03599
M73 P4 R9
G1 X134.048 Y96.394 E.02858
G1 X134.718 Y97.279 E.0348
G1 X136.546 Y100.444 E.1146
G1 X137.082 Y101.804 E.04583
G1 X137.368 Y103.246 E.04609
G1 X137.488 Y104.713 E.04615
G1 X137.437 Y106.165 E.04555
G1 X137.225 Y107.569 E.04452
G1 X136.977 Y108.532 E.03118
G1 X136.546 Y109.556 E.03483
G1 X134.52 Y113.013 E.12563
G1 X134.048 Y113.606 E.02376
G1 X133.308 Y114.328 E.03242
G1 X131.576 Y115.62 E.06775
G1 X129.811 Y116.528 E.06223
G1 X127.929 Y117.139 E.06204
G1 X126.828 Y117.277 E.03479
G1 X123.172 Y117.277 E.11463
G1 X122.071 Y117.139 E.03479
G1 X120.116 Y116.497 E.06452
G1 X118.174 Y115.462 E.069
G1 X117.23 Y114.781 E.0365
G1 X116.192 Y113.865 E.04341
G1 X115.282 Y112.721 E.04583
G1 X113.454 Y109.556 E.1146
G1 X112.918 Y108.196 E.04583
G1 X112.632 Y106.754 E.04609
G1 X112.512 Y105.287 E.04615
G1 X112.563 Y103.835 E.04555
G1 X112.775 Y102.431 E.04452
G1 X113.023 Y101.468 E.03118
G1 X113.454 Y100.444 E.03483
G1 X115.282 Y97.279 E.1146
G1 X116.152 Y96.185 E.04383
M204 S1000
;WIPE_START
G1 F8640
G1 X117.13 Y95.3 E-.30456
G1 X118.087 Y94.596 E-.27432
G1 X118.928 Y94.137 E-.22112
;WIPE_END
G1 Z.6 F720
G1 X118.099 Y98.092 F10800
G1 Z.2 F720
G1 E.8 F2100
M204 S800
G1 F1200
G1 X118.773 Y97.404 E.0302
G1 X119.869 Y96.618 E.04229
G1 X121.27 Y95.911 E.0492
G1 X122.752 Y95.453 E.04864
G1 X127.202 Y95.445 E.13953
G1 X128.665 Y95.885 E.0479
G1 X130.031 Y96.558 E.04775
G1 X131.225 Y97.402 E.04585
G1 X132.475 Y98.71 E.05673
G1 X134.555 Y102.641 E.13944
G1 X134.755 Y103.811 E.03722
G1 X134.827 Y104.991 E.03707
G1 X134.758 Y106.171 E.03706
G1 X134.559 Y107.346 E.03737
G1 X132.331 Y111.485 E.14738
G1 X131.093 Y112.704 E.05448
G1 X129.949 Y113.49 E.04352
G1 X128.477 Y114.187 E.05107
G1 X126.826 Y114.608 E.05342
G1 X123.315 Y114.613 E.11009
G1 X122.314 Y114.448 E.03181
G1 X121.088 Y114.015 E.04077
G1 X120.116 Y113.528 E.03409
G1 X119.109 Y112.866 E.03779
G1 X118.179 Y112.095 E.03788
G1 X115.815 Y108.328 E.13944
G1 X115.309 Y106.599 E.05649
M73 Q5 S9
G1 X115.177 Y105.293 E.04116
M73 P5 R9
G1 X115.227 Y103.973 E.04142
G1 X115.438 Y102.668 E.04145
G1 X117.619 Y98.582 E.14522
G1 X118.057 Y98.135 E.01962
M204 S1000
G1 X118.327 Y98.398 F10800
M204 S800
G1 F1200
G1 X119.03 Y97.68 E.03151
G1 X120.076 Y96.934 E.04028
G1 X121.397 Y96.266 E.04641
G1 X122.837 Y95.821 E.04726
G1 X127.12 Y95.814 E.13429
G1 X128.541 Y96.242 E.04653
G1 X129.826 Y96.875 E.04491
G1 X130.967 Y97.677 E.04373
G1 X132.154 Y98.911 E.05369
G1 X134.188 Y102.734 E.13578
G1 X134.382 Y103.864 E.03595
G1 X134.45 Y105.002 E.03574
G1 X134.382 Y106.138 E.03568
G1 X134.192 Y107.252 E.03543
G1 X132.047 Y111.236 E.14187
G1 X130.841 Y112.423 E.05306
G1 X129.748 Y113.171 E.04153
G1 X128.366 Y113.826 E.04795
G1 X126.756 Y114.236 E.05209
G1 X123.331 Y114.236 E.10739
G1 X122.393 Y114.079 E.02982
G1 X121.226 Y113.664 E.03884
G1 X120.295 Y113.196 E.03267
G1 X119.341 Y112.569 E.03579
G1 X118.443 Y111.824 E.03658
G1 X116.149 Y108.151 E.13578
G1 X115.676 Y106.512 E.05349
G1 X115.553 Y105.269 E.03916
G1 X115.601 Y104.022 E.03913
G1 X115.805 Y102.759 E.04011
G1 X117.907 Y98.827 E.1398
G1 X118.285 Y98.441 E.01694
M204 S1000
G1 X118.554 Y98.705 F10800
M204 S800
G1 F1200
G1 X119.288 Y97.956 E.03288
G1 X120.282 Y97.249 E.03825
G1 X121.552 Y96.61 E.04458
G1 X122.92 Y96.19 E.04487
G1 X127.038 Y96.183 E.12912
G1 X128.417 Y96.598 E.04515
G1 X129.622 Y97.193 E.04214
G1 X130.709 Y97.953 E.04159
G1 X131.835 Y99.112 E.05067
G1 X133.822 Y102.828 E.13212
G1 X134.006 Y103.898 E.03404
G1 X134.073 Y104.991 E.03433
G1 X134.008 Y106.085 E.03436
G1 X133.825 Y107.159 E.03416
G1 X131.762 Y110.987 E.13634
G1 X130.589 Y112.142 E.05162
G1 X129.548 Y112.851 E.03949
G1 X128.254 Y113.466 E.04492
G1 X126.732 Y113.859 E.04929
G1 X123.347 Y113.859 E.10613
G1 X122.473 Y113.71 E.0278
G1 X121.364 Y113.313 E.03693
G1 X120.475 Y112.864 E.03123
G1 X119.558 Y112.26 E.03443
G1 X118.708 Y111.554 E.03465
G1 X116.484 Y107.975 E.13212
G1 X116.044 Y106.426 E.05049
G1 X115.93 Y105.246 E.03717
G1 X115.977 Y104.048 E.03759
M73 Q6 S9
G1 X116.172 Y102.851 E.03803
G1 X118.196 Y99.071 E.13444
M73 P6 R9
G1 X118.512 Y98.748 E.01417
M204 S1000
G1 X118.782 Y99.012 F10800
M204 S800
G1 F1200
G1 X119.545 Y98.232 E.03421
G1 X120.488 Y97.566 E.0362
G1 X121.706 Y96.955 E.04273
G1 X123.003 Y96.559 E.04252
G1 X126.956 Y96.552 E.12394
G1 X128.293 Y96.955 E.04378
G1 X129.419 Y97.51 E.03936
G1 X130.453 Y98.23 E.03951
G1 X131.515 Y99.315 E.0476
G1 X133.455 Y102.923 E.12844
G1 X133.633 Y103.952 E.03274
G1 X133.696 Y105.002 E.03298
G1 X133.635 Y106.032 E.03235
G1 X133.459 Y107.065 E.03286
G1 X131.477 Y110.738 E.13086
G1 X130.336 Y111.861 E.0502
G1 X129.349 Y112.531 E.0374
G1 X128.141 Y113.106 E.04195
G1 X126.707 Y113.482 E.04648
G1 X123.364 Y113.482 E.10482
G1 X122.555 Y113.342 E.02574
G1 X121.503 Y112.962 E.03507
G1 X120.655 Y112.533 E.0298
G1 X119.775 Y111.951 E.03308
G1 X118.973 Y111.283 E.03273
G1 X116.819 Y107.8 E.1284
G1 X116.411 Y106.341 E.0475
G1 X116.307 Y105.223 E.03521
G1 X116.353 Y104.075 E.03602
G1 X116.539 Y102.943 E.03597
G1 X118.484 Y99.316 E.12904
G1 X118.74 Y99.055 E.01146
M204 S1000
G1 X119.004 Y99.316 F10800
M204 S800
G1 F1200
G1 X119.801 Y98.509 E.03556
G1 X120.693 Y97.882 E.03419
G1 X121.832 Y97.311 E.03995
G1 X123.087 Y96.928 E.04114
G1 X126.874 Y96.921 E.11874
G1 X128.17 Y97.311 E.04244
G1 X129.215 Y97.828 E.03656
G1 X130.197 Y98.508 E.03745
G1 X131.197 Y99.518 E.04456
G1 X133.089 Y103.017 E.12472
G1 X133.259 Y104.005 E.03143
G1 X133.319 Y104.992 E.031
G1 X133.261 Y105.979 E.031
G1 X133.092 Y106.971 E.03155
G1 X131.193 Y110.489 E.12535
G1 X130.085 Y111.58 E.04876
G1 X129.15 Y112.21 E.03535
G1 X128.026 Y112.746 E.03904
G1 X126.682 Y113.105 E.04362
G1 X123.381 Y113.105 E.1035
G1 X122.637 Y112.974 E.02369
G1 X121.643 Y112.612 E.03317
G1 X120.835 Y112.202 E.02841
G1 X120.008 Y111.655 E.03109
G1 X119.238 Y111.014 E.03141
G1 X117.154 Y107.626 E.12472
G1 X116.78 Y106.258 E.04447
G1 X116.683 Y105.202 E.03325
G1 X116.727 Y104.125 E.0338
G1 X116.906 Y103.035 E.03463
G1 X118.802 Y99.519 E.12525
G1 X118.962 Y99.358 E.00712
M204 S1000
G1 X119.224 Y99.62 F10800
M204 S800
G1 F1200
G1 X120.055 Y98.788 E.03687
G1 X120.898 Y98.199 E.03224
G1 X121.957 Y97.667 E.03716
G1 X123.17 Y97.297 E.03976
G1 X126.792 Y97.29 E.11357
G1 X128.046 Y97.668 E.04107
M73 P7 R9
M73 Q7 S9
G1 X129.013 Y98.147 E.03384
G1 X129.943 Y98.787 E.0354
G1 X130.879 Y99.723 E.0415
G1 X132.723 Y103.112 E.12097
G1 X132.886 Y104.059 E.03013
G1 X132.942 Y105.002 E.02962
G1 X132.886 Y105.946 E.02965
G1 X132.726 Y106.877 E.02962
G1 X130.876 Y110.283 E.12153
G1 X129.834 Y111.298 E.04561
G1 X128.951 Y111.889 E.03331
G1 X127.911 Y112.387 E.03615
G1 X126.657 Y112.728 E.04075
G1 X123.398 Y112.728 E.10218
G1 X122.721 Y112.606 E.02157
G1 X121.784 Y112.262 E.0313
G1 X121.016 Y111.871 E.02702
G1 X120.225 Y111.346 E.02977
G1 X119.503 Y110.744 E.02947
G1 X117.49 Y107.453 E.12096
G1 X117.148 Y106.177 E.04142
G1 X117.06 Y105.181 E.03135
G1 X117.103 Y104.153 E.03226
G1 X117.273 Y103.128 E.03258
G1 X119.12 Y99.724 E.12143
G1 X119.181 Y99.663 E.0027
M204 S1000
G1 X119.441 Y99.926 F10800
M204 S800
G1 F1200
G1 X120.308 Y99.068 E.03825
G1 X121.102 Y98.517 E.0303
G1 X122.082 Y98.022 E.03442
G1 X123.254 Y97.665 E.03841
G1 X126.71 Y97.659 E.10836
G1 X127.922 Y98.024 E.03969
G1 X128.811 Y98.465 E.03112
G1 X129.691 Y99.067 E.03343
G1 X130.562 Y99.929 E.03842
G1 X132.357 Y103.207 E.11718
G1 X132.51 Y104.093 E.02819
G1 X132.565 Y104.992 E.02824
G1 X132.512 Y105.893 E.0283
G1 X132.36 Y106.782 E.02828
G1 X130.559 Y110.077 E.11774
G1 X129.586 Y111.014 E.04235
G1 X128.753 Y111.568 E.03137
G1 X127.793 Y112.028 E.03338
G1 X126.631 Y112.351 E.03782
G1 X123.416 Y112.351 E.1008
G1 X122.806 Y112.238 E.01945
G1 X121.926 Y111.912 E.02942
G1 X121.197 Y111.54 E.02566
G1 X120.459 Y111.05 E.02778
G1 X119.769 Y110.475 E.02816
G1 X117.827 Y107.281 E.1172
G1 X117.517 Y106.098 E.03834
G1 X117.437 Y105.161 E.02949
G1 X117.48 Y104.181 E.03076
G1 X117.639 Y103.221 E.03051
G1 X119.411 Y99.977 E.1159
M204 S1000
G1 X119.742 Y100.159 F10800
M204 S800
G1 F1200
G1 X120.56 Y99.35 E.03607
G1 X121.306 Y98.834 E.02844
G1 X122.208 Y98.378 E.03169
G1 X123.337 Y98.034 E.03701
G1 X126.627 Y98.028 E.10316
G1 X127.798 Y98.381 E.03835
G1 X128.61 Y98.784 E.02842
G1 X129.44 Y99.349 E.03148
G1 X130.246 Y100.136 E.03532
G1 X131.991 Y103.303 E.11337
G1 X132.137 Y104.147 E.02686
G1 X132.188 Y104.982 E.02623
G1 X132.139 Y105.84 E.02695
G1 X131.993 Y106.687 E.02695
G1 X130.243 Y109.869 E.11386
G1 X129.338 Y110.729 E.03914
G1 X128.556 Y111.246 E.02939
G1 X127.674 Y111.67 E.03068
G1 X126.604 Y111.974 E.03488
G1 X123.434 Y111.974 E.09939
G1 X122.893 Y111.871 E.01727
M73 P8 R9
M73 Q8 S9
G1 X122.069 Y111.563 E.02758
G1 X121.379 Y111.209 E.02432
G1 X120.676 Y110.742 E.02646
G1 X120.035 Y110.206 E.0262
G1 X118.165 Y107.111 E.11338
G1 X117.887 Y106.021 E.03527
G1 X117.814 Y105.142 E.02766
G1 X117.853 Y104.232 E.02856
G1 X118.006 Y103.315 E.02915
G1 X119.713 Y100.212 E.11104
M204 S1000
G1 X120.042 Y100.394 F10800
M204 S800
G1 F1200
G1 X120.07 Y100.344 E.0018
G1 X120.809 Y99.633 E.03215
G1 X121.509 Y99.152 E.02663
G1 X122.334 Y98.734 E.029
G1 X123.42 Y98.403 E.0356
G1 X126.598 Y98.405 E.09964
G1 X127.671 Y98.736 E.03521
G1 X128.43 Y99.116 E.02661
G1 X129.191 Y99.633 E.02885
G1 X129.93 Y100.344 E.03215
G1 X131.625 Y103.399 E.10954
G1 X131.761 Y104.181 E.02489
G1 X131.811 Y104.972 E.02485
G1 X131.765 Y105.787 E.02559
G1 X131.627 Y106.592 E.02561
G1 X129.928 Y109.66 E.10996
G1 X129.093 Y110.442 E.03587
G1 X128.36 Y110.924 E.02751
G1 X127.553 Y111.313 E.02809
G1 X126.577 Y111.597 E.03187
G1 X123.453 Y111.597 E.09795
G1 X122.982 Y111.504 E.01505
G1 X122.212 Y111.214 E.0258
G1 X121.561 Y110.879 E.02296
G1 X120.91 Y110.446 E.02451
G1 X120.302 Y109.937 E.02486
G1 X118.503 Y106.941 E.10957
G1 X118.256 Y105.946 E.03214
G1 X118.19 Y105.124 E.02586
G1 X118.23 Y104.26 E.02712
G1 X118.373 Y103.41 E.02703
G1 X120.013 Y100.447 E.10618
M204 S1000
G1 X120.342 Y100.63 F10800
M204 S800
G1 F1200
G1 X120.385 Y100.554 E.00274
G1 X121.057 Y99.917 E.02903
G1 X121.711 Y99.471 E.02482
G1 X122.462 Y99.089 E.02642
G1 X123.449 Y98.78 E.03243
G1 X126.568 Y98.782 E.09779
G1 X127.542 Y99.091 E.03204
G1 X128.249 Y99.447 E.02482
G1 X128.943 Y99.917 E.02628
G1 X129.615 Y100.554 E.02903
G1 X131.259 Y103.497 E.1057
G1 X131.386 Y104.216 E.02289
G1 X131.434 Y104.963 E.02347
G1 X131.392 Y105.734 E.02421
G1 X131.261 Y106.496 E.02424
G1 X129.614 Y109.449 E.10602
G1 X128.85 Y110.154 E.0326
G1 X128.164 Y110.602 E.02569
G1 X127.43 Y110.956 E.02555
G1 X126.548 Y111.22 E.02887
G1 X123.473 Y111.22 E.09641
G1 X123.074 Y111.138 E.01277
G1 X122.356 Y110.866 E.02407
G1 X121.744 Y110.549 E.02161
G1 X121.128 Y110.138 E.02322
G1 X120.569 Y109.669 E.02288
G1 X118.842 Y106.774 E.10569
G1 X118.627 Y105.874 E.02901
G1 X118.567 Y105.107 E.02412
G1 X118.603 Y104.312 E.02495
G1 X118.739 Y103.504 E.02569
G1 X120.313 Y100.682 E.10131
M204 S1000
G1 X120.641 Y100.867 F10800
M204 S800
G1 F1200
G1 X120.698 Y100.765 E.00366
G1 X121.302 Y100.204 E.02585
G1 X121.913 Y99.789 E.02316
G1 X122.593 Y99.443 E.02392
G1 X123.479 Y99.157 E.02919
G1 X126.537 Y99.16 E.09588
G1 X127.41 Y99.444 E.02878
G1 X128.068 Y99.778 E.02314
G1 X128.698 Y100.204 E.02385
G1 X129.302 Y100.765 E.02585
G1 X130.893 Y103.594 E.10177
G1 X131.013 Y104.271 E.02156
G1 X131.056 Y104.954 E.02146
G1 X131.018 Y105.681 E.02283
G1 X130.895 Y106.4 E.02287
G1 X129.301 Y109.237 E.10203
G1 X128.609 Y109.863 E.02926
G1 X127.968 Y110.279 E.02396
G1 X127.304 Y110.601 E.02314
G1 X126.519 Y110.843 E.02576
M73 P9 R9
M73 Q9 S9
G1 X123.493 Y110.843 E.09488
G1 X123.168 Y110.773 E.01042
G1 X122.502 Y110.517 E.02237
G1 X121.927 Y110.219 E.02031
G1 X121.363 Y109.843 E.02125
G1 X120.836 Y109.401 E.02157
G1 X119.182 Y106.608 E.10178
G1 X118.998 Y105.805 E.02583
G1 X118.944 Y105.091 E.02245
G1 X118.979 Y104.341 E.02354
G1 X119.105 Y103.6 E.02357
G1 X120.612 Y100.919 E.09643
M204 S1000
G1 X120.939 Y101.105 F10800
M204 S800
G1 F1200
G1 X121.011 Y100.978 E.00458
G1 X121.545 Y100.493 E.02262
G1 X122.114 Y100.108 E.02154
G1 X122.727 Y99.796 E.02157
G1 X123.51 Y99.534 E.02589
G1 X126.505 Y99.537 E.09391
G1 X127.275 Y99.797 E.02548
G1 X127.886 Y100.108 E.0215
G1 X128.455 Y100.493 E.02154
G1 X128.989 Y100.978 E.02262
G1 X130.528 Y103.692 E.09782
G1 X130.637 Y104.306 E.01955
G1 X130.679 Y104.946 E.02011
G1 X130.645 Y105.629 E.02144
G1 X130.529 Y106.304 E.02147
G1 X128.989 Y109.022 E.09795
G1 X128.37 Y109.571 E.02594
G1 X127.774 Y109.956 E.02225
