; generated by PrusaSlicer 2.6.1+win64 on 2023-10-23 at 13:46:57 UTC


;
;
; 

; external perimeters extrusion width = 0.45mm
; perimeters extrusion width = 0.45mm
; infill extrusion width = 0.45mm
; solid infill extrusion width = 0.45mm
; top infill extrusion width = 0.40mm
; support material extrusion width = 0.35mm
; first layer extrusion width = 0.42mm

M73 P0 R45
M73 Q0 S45
M201 X1000 Y1000 Z200 E5000 ; sets maximum accelerations, mm/sec^2
M203 X200 Y200 Z12 E120 ; sets maximum feedrates, mm / sec
M204 S1250 T1250 ; sets acceleration (S) and retract acceleration (R), mm/sec^2
M205 X8.00 Y8.00 Z0.40 E4.50 ; sets the jerk limits, mm/sec
M205 S0 T0 ; sets the minimum extruding and travel feed rate, mm/sec
;TYPE:Custom
M862.3 P "MK3SMMU2S" ; printer model check
M862.1 P0.4 ; nozzle diameter check
M115 U3.12.2 ; tell printer latest fw version
G90 ; use absolute coordinates
M83 ; extruder relative mode
M104 S215 ; set extruder temp
M140 S60 ; set bed temp
Tx
M190 S60 ; wait for bed temp
M109 S215 ; wait for extruder temp
G28 W ; home all without mesh bed level
G80 ; mesh bed leveling

;go outside print area
G1 Y-3 F1000
G1 Z0.4 F1000
; select extruder
Tc
; purge line
G1 X55 F2000
G1 Z0.3 F1000
G92 E0
G1 X240 E25 F2200
G1 Y-2 F1000
G1 X55 E25 F1400
G1 Z0.2 F1000
G1 X5 E4 F1000

M221 S95
G92 E0

; Don't change E values below. Excessive value can damage the printer.
M907 E430 ; set extruder motor current
G21 ; set units to millimeters
G90 ; use absolute coordinates
M83 ; use relative distances for extrusion
M900 K0.05 ; Filament gcode LA 1.5
M900 K30 ; Filament gcode LA 1.0
M107
;LAYER_CHANGE
;Z:0.2
;HEIGHT:0.2
;BEFORE_LAYER_CHANGE
G92 E0.0
;0.2


G1 E-.8 F2100
M73 P0 R44
G1 Z.4 F720
;AFTER_LAYER_CHANGE
;0.2
G1 X115.094 Y94.221 F10800
G1 Z.2 F720
G1 E.8 F2100
M204 S800
;TYPE:Skirt/Brim
;WIDTH:0.42
G1 F1200
G1 X115.205 Y94.11 E.00492
G1 X117.152 Y93.304 E.06607
G1 X132.478 Y93.304 E.48054
G1 X134.425 Y94.11 E.06607
G1 X135.051 Y94.937 E.03252
G1 X137.369 Y99.572 E.16249
G1 X137.634 Y100.426 E.02804
G1 X138.212 Y104.782 E.13778
G1 X138.184 Y107.907 E.09799
G1 X137.632 Y111.75 E.12173
G1 X137.369 Y112.59 E.0276
G1 X135.051 Y117.226 E.16252
G1 X134.582 Y117.919 E.02624
G1 X133.407 Y118.803 E.0461
G1 X132.399 Y118.994 E.03217
G1 X117.152 Y118.994 E.47806
G1 X115.205 Y118.187 E.06608
G1 X114.579 Y117.361 E.0325
G1 X112.261 Y112.725 E.16252
G1 X111.996 Y111.872 E.02801
G1 X111.418 Y107.515 E.13781
G1 X111.444 Y104.404 E.09755
G1 X111.996 Y100.426 E.12592
G1 X112.261 Y99.572 E.02804
G1 X114.579 Y94.937 E.16249
G1 X115.059 Y94.27 E.02577
M204 S1000
G1 X115.361 Y94.488 F10800
M204 S800
G1 F1200
G1 X115.472 Y94.377 E.00492
G1 X117.152 Y93.681 E.05702
G1 X132.478 Y93.681 E.48054
G1 X134.158 Y94.377 E.05702
G1 X134.714 Y95.105 E.02872
G1 X137.032 Y99.741 E.16252
G1 X137.26 Y100.477 E.02416
G1 X137.835 Y104.782 E.13618
G1 X137.811 Y107.853 E.09629
G1 X137.259 Y111.696 E.12173
G1 X137.032 Y112.422 E.02385
G1 X134.714 Y117.057 E.16249
G1 X134.283 Y117.689 E.02399
G1 X133.176 Y118.486 E.04277
G1 X132.399 Y118.617 E.02471
G1 X117.152 Y118.617 E.47806
G1 X115.472 Y117.92 E.05703
G1 X114.916 Y117.192 E.02872
G1 X112.598 Y112.557 E.16249
M73 Q0 S44
G1 X112.37 Y111.82 E.02419
M73 P1 R44
M73 Q1 S44
G1 X111.795 Y107.515 E.13618
G1 X111.818 Y104.456 E.09592
G1 X112.37 Y100.477 E.12595
G1 X112.598 Y99.741 E.02416
G1 X114.916 Y95.105 E.16252
G1 X115.326 Y94.536 E.02199
M204 S1000
;WIPE_START
G1 F8640
G1 X115.472 Y94.377 E-.04984
G1 X117.152 Y93.681 E-.41989
G1 X118.582 Y93.681 E-.33027
;WIPE_END
G1 Z.6 F720
G1 X118.794 Y97.789 F10800
G1 Z.2 F720
G1 E.8 F2100
M204 S800
G1 F1200
G1 X119.744 Y97.107 E.03667
G1 X121.688 Y96.535 E.06354
G1 X127.961 Y96.542 E.19669
G1 X129.099 Y96.773 E.03641
G1 X130.147 Y97.26 E.03623
G1 X131.334 Y98.325 E.05
G1 X134.703 Y104.048 E.20822
G1 X135.181 Y106.013 E.06341
G1 X135.087 Y107.08 E.03358
G1 X134.753 Y108.124 E.03437
G1 X131.609 Y113.608 E.1982
G1 X130.836 Y114.509 E.03722
G1 X129.886 Y115.191 E.03667
G1 X127.946 Y115.762 E.06341
G1 X121.691 Y115.762 E.19612
G1 X120.121 Y115.365 E.05078
G1 X118.979 Y114.668 E.04195
G1 X118.047 Y113.645 E.04339
G1 X114.924 Y108.244 E.19562
G1 X114.449 Y106.285 E.0632
G1 X114.543 Y105.217 E.03362
G1 X114.877 Y104.173 E.03437
G1 X118.021 Y98.69 E.19817
G1 X118.755 Y97.834 E.03536
M204 S1000
G1 X119.033 Y98.082 F10800
M204 S800
G1 F1200
G1 X119.938 Y97.432 E.03494
G1 X121.714 Y96.912 E.05802
G1 X127.942 Y96.919 E.19527
G1 X128.96 Y97.125 E.03257
G1 X129.962 Y97.59 E.03464
G1 X131.059 Y98.585 E.04644
G1 X134.364 Y104.215 E.20469
G1 X134.803 Y106.01 E.05794
G1 X134.713 Y107.025 E.03195
G1 X134.4 Y107.989 E.03178
G1 X131.291 Y113.405 E.1958
G1 X130.597 Y114.216 E.03347
G1 X129.692 Y114.866 E.03494
G1 X127.919 Y115.385 E.05792
G1 X121.715 Y115.385 E.19452
G1 X120.243 Y115.007 E.04765
G1 X119.201 Y114.363 E.03841
G1 X118.34 Y113.407 E.04034
G1 X115.264 Y108.079 E.1929
G1 X114.827 Y106.287 E.05783
G1 X114.917 Y105.272 E.03195
G1 X115.23 Y104.309 E.03175
G1 X118.339 Y98.893 E.1958
G1 X118.994 Y98.127 E.0316
M204 S1000
G1 X119.279 Y98.373 F10800
M204 S800
G1 F1200
G1 X120.13 Y97.758 E.03292
G1 X121.741 Y97.289 E.05261
G1 X127.922 Y97.296 E.1938
G1 X128.862 Y97.489 E.03009
G1 X129.775 Y97.919 E.03164
G1 X130.783 Y98.843 E.04287
G1 X134.025 Y104.382 E.20123
G1 X134.425 Y106.01 E.05256
G1 X134.348 Y106.93 E.02895
G1 X134.048 Y107.854 E.03046
G1 X130.973 Y113.201 E.1934
G1 X130.327 Y113.952 E.03106
G1 X129.5 Y114.54 E.03182
G1 X127.892 Y115.008 E.05251
G1 X121.739 Y115.008 E.19292
G1 X120.367 Y114.65 E.04446
G1 X119.425 Y114.058 E.03488
G1 X118.657 Y113.202 E.03606
G1 X115.604 Y107.913 E.19148
G1 X115.205 Y106.287 E.05249
G1 X115.282 Y105.368 E.02892
G1 X115.582 Y104.444 E.03046
G1 X118.657 Y99.096 E.19343
G1 X119.24 Y98.419 E.02801
M204 S1000
G1 X119.525 Y98.665 F10800
M204 S800
G1 F1200
G1 X119.572 Y98.611 E.00224
G1 X120.321 Y98.084 E.02871
G1 X121.767 Y97.666 E.04719
G1 X127.902 Y97.673 E.19236
G1 X128.762 Y97.853 E.02755
G1 X129.586 Y98.246 E.02862
G1 X130.506 Y99.1 E.03936
G1 X133.686 Y104.548 E.19779
G1 X134.046 Y106.009 E.04718
G1 X133.974 Y106.876 E.02728
G1 X133.696 Y107.717 E.02777
G1 X130.656 Y112.997 E.19103
G1 X130.058 Y113.687 E.02863
G1 X129.309 Y114.213 E.0287
G1 X127.866 Y114.631 E.0471
G1 X121.764 Y114.631 E.19132
G1 X120.493 Y114.294 E.04123
G1 X119.65 Y113.755 E.03137
G1 X118.974 Y112.997 E.03184
G1 X115.944 Y107.748 E.19003
G1 X115.584 Y106.288 E.04715
G1 X115.656 Y105.422 E.02725
G1 X115.934 Y104.581 E.02777
G1 X118.974 Y99.301 E.19103
G1 X119.486 Y98.711 E.02449
M204 S1000
G1 X119.769 Y98.958 F10800
M204 S800
G1 F1200
G1 X119.841 Y98.877 E.0034
G1 X120.51 Y98.412 E.02555
G1 X121.793 Y98.043 E.04186
G1 X127.881 Y98.05 E.19089
G1 X128.66 Y98.217 E.02498
G1 X129.395 Y98.572 E.02559
G1 X130.227 Y99.355 E.03582
G1 X133.346 Y104.715 E.19444
G1 X133.668 Y106.009 E.04181
G1 X133.6 Y106.821 E.02555
G1 X133.345 Y107.578 E.02505
G1 X130.338 Y112.792 E.18872
G1 X129.79 Y113.421 E.02616
G1 X129.12 Y113.885 E.02555
G1 X127.84 Y114.254 E.04177
G1 X121.79 Y114.254 E.18969
G1 X120.621 Y113.938 E.03797
G1 X119.878 Y113.454 E.0278
G1 X119.292 Y112.792 E.02772
G1 X116.283 Y107.582 E.18864
G1 X115.962 Y106.289 E.04177
G1 X116.03 Y105.476 E.02558
G1 X116.285 Y104.719 E.02505
G1 X119.292 Y99.505 E.18872
G1 X119.73 Y99.004 E.02087
M204 S1000
G1 X120.01 Y99.247 F10800
M204 S800
G1 F1200
G1 X120.075 Y99.173 E.00309
G1 X120.699 Y98.739 E.02383
G1 X121.818 Y98.42 E.03648
G1 X127.86 Y98.427 E.18944
G1 X128.555 Y98.58 E.02231
G1 X129.202 Y98.897 E.02259
G1 X129.947 Y99.609 E.03231
G1 X133.007 Y104.881 E.19113
G1 X133.29 Y106.009 E.03646
G1 X133.226 Y106.766 E.02382
G1 X132.995 Y107.437 E.02225
G1 X130.021 Y112.588 E.18649
G1 X129.555 Y113.125 E.02229
G1 X128.931 Y113.558 E.02381
G1 X127.814 Y113.877 E.03642
G1 X121.816 Y113.877 E.18806
G1 X120.752 Y113.583 E.03461
G1 X120.109 Y113.154 E.02424
G1 X119.609 Y112.588 E.02368
G1 X116.623 Y107.416 E.18725
G1 X116.34 Y106.289 E.03643
G1 X116.404 Y105.532 E.02382
G1 X116.635 Y104.86 E.02228
G1 X119.609 Y99.709 E.18649
G1 X119.971 Y99.293 E.01729
M204 S1000
G1 X120.254 Y99.541 F10800
M204 S800
G1 F1200
G1 X120.342 Y99.44 E.0042
G1 X120.886 Y99.068 E.02066
G1 X121.844 Y98.798 E.03121
G1 X127.838 Y98.804 E.18794
G1 X128.449 Y98.942 E.01964
G1 X129.006 Y99.221 E.01953
G1 X129.665 Y99.86 E.02878
G1 X132.668 Y105.048 E.18795
G1 X132.911 Y106.011 E.03114
G1 X132.861 Y106.668 E.02066
G1 X132.659 Y107.265 E.01976
G1 X129.704 Y112.383 E.1853
G1 X129.288 Y112.857 E.01977
G1 X128.744 Y113.229 E.02066
G1 X127.788 Y113.5 E.03116
G1 X121.842 Y113.5 E.18643
G1 X120.886 Y113.229 E.03116
G1 X120.342 Y112.857 E.02066
G1 X119.926 Y112.383 E.01977
G1 X116.962 Y107.25 E.18585
G1 X116.719 Y106.286 E.03117
G1 X116.769 Y105.629 E.02066
G1 X116.971 Y105.032 E.01976
G1 X119.926 Y99.914 E.1853
G1 X120.214 Y99.586 E.01369
M204 S1000
G1 X120.495 Y99.835 F10800
M204 S800
G1 F1200
G1 X120.607 Y99.709 E.00529
G1 X121.07 Y99.398 E.01749
G1 X121.869 Y99.175 E.02601
G1 X127.815 Y99.181 E.18643
G1 X128.339 Y99.304 E.01688
G1 X128.807 Y99.543 E.01648
G1 X129.381 Y100.11 E.0253
G1 X132.328 Y105.214 E.18479
G1 X132.533 Y106.017 E.02599
G1 X132.496 Y106.573 E.01747
G1 X132.322 Y107.094 E.01722
G1 X129.387 Y112.178 E.18406
G1 X129.023 Y112.588 E.01719
G1 X128.56 Y112.899 E.01749
G1 X127.762 Y113.123 E.02599
G1 X121.868 Y113.123 E.1848
G1 X121.07 Y112.899 E.02599
G1 X120.607 Y112.588 E.01749
G1 X120.243 Y112.178 E.01719
G1 X117.302 Y107.083 E.18445
G1 X117.097 Y106.281 E.02595
G1 X117.134 Y105.724 E.0175
G1 X117.308 Y105.204 E.01719
G1 X120.243 Y100.12 E.18406
G1 X120.456 Y99.88 E.01006
M204 S1000
G1 X120.735 Y100.131 F10800
M204 S800
G1 F1200
G1 X120.87 Y99.981 E.00633
G1 X121.251 Y99.73 E.01431
G1 X121.894 Y99.552 E.02092
G1 X127.791 Y99.558 E.1849
G1 X128.226 Y99.664 E.01404
G1 X128.607 Y99.863 E.01348
G1 X129.067 Y100.32 E.02033
G1 X131.989 Y105.381 E.18323
G1 X132.155 Y106.026 E.02088
G1 X132.129 Y106.481 E.01429
G1 X131.985 Y106.923 E.01458
G1 X129.071 Y111.971 E.18275
G1 X128.76 Y112.317 E.01459
G1 X128.379 Y112.567 E.01429
G1 X127.737 Y112.746 E.0209
G1 X121.893 Y112.746 E.18323
G1 X121.251 Y112.567 E.0209
G1 X120.87 Y112.317 E.01429
G1 X120.559 Y111.971 E.01459
G1 X117.641 Y106.917 E.18298
G1 X117.475 Y106.272 E.02088
G1 X117.501 Y105.816 E.01432
G1 X117.645 Y105.375 E.01455
G1 X120.559 Y100.326 E.18278
G1 X120.695 Y100.176 E.00635
M204 S1000
G1 X120.971 Y100.429 F10800
M204 S800
G1 F1200
G1 X121.13 Y100.255 E.00739
G1 X121.429 Y100.064 E.01112
G1 X121.919 Y99.929 E.01594
G1 X127.766 Y99.935 E.18333
G1 X128.108 Y100.023 E.01107
G1 X128.403 Y100.181 E.01049
G1 X128.753 Y100.53 E.0155
G1 X131.65 Y105.547 E.18165
G1 X131.778 Y106.038 E.01591
G1 X131.762 Y106.393 E.01114
G1 X131.648 Y106.753 E.01184
G1 X128.755 Y111.764 E.18142
G1 X128.5 Y112.043 E.01185
G1 X128.201 Y112.234 E.01112
G1 X127.712 Y112.368 E.0159
G1 X121.918 Y112.368 E.18167
G1 X121.429 Y112.234 E.0159
M73 P2 R44
M73 Q2 S44
G1 X121.13 Y112.043 E.01112
G1 X120.875 Y111.764 E.01185
G1 X117.98 Y106.75 E.18153
G1 X117.852 Y106.259 E.01591
G1 X117.868 Y105.904 E.01114
G1 X117.982 Y105.545 E.01181
G1 X120.875 Y100.533 E.18145
G1 X120.93 Y100.473 E.00255
M204 S1000
G1 X121.206 Y100.723 F10800
M204 S800
G1 F1200
G1 X121.355 Y100.559 E.00695
G1 X121.608 Y100.397 E.00942
G1 X121.943 Y100.306 E.01088
G1 X127.739 Y100.312 E.18173
G1 X127.984 Y100.38 E.00797
G1 X128.196 Y100.497 E.00759
G1 X128.439 Y100.74 E.01078
G1 X131.311 Y105.715 E.18011
G1 X131.4 Y106.05 E.01087
G1 X131.386 Y106.35 E.00942
G1 X131.312 Y106.581 E.00761
G1 X128.438 Y111.559 E.18023
G1 X128.275 Y111.739 E.00761
G1 X128.022 Y111.9 E.0094
G1 X127.687 Y111.991 E.01088
G1 X121.943 Y111.991 E.1801
G1 X121.608 Y111.9 E.01088
G1 X121.355 Y111.739 E.0094
G1 X121.192 Y111.559 E.00761
G1 X118.319 Y106.583 E.18016
G1 X118.23 Y106.247 E.0109
G1 X118.244 Y105.947 E.00942
G1 X118.318 Y105.716 E.00761
G1 X121.173 Y100.772 E.17901
M204 S1000
G1 X121.499 Y100.961 F10800
M204 S800
G1 F1200
G1 X121.61 Y100.837 E.00522
G1 X121.779 Y100.733 E.00622
G1 X121.967 Y100.683 E.0061
G1 X127.708 Y100.69 E.18001
G1 X127.85 Y100.733 E.00465
G1 X127.985 Y100.81 E.00487
G1 X128.125 Y100.95 E.00621
G1 X130.972 Y105.882 E.17855
G1 X131.023 Y106.07 E.00611
G1 X131.017 Y106.269 E.00624
G1 X130.974 Y106.413 E.00471
G1 X128.123 Y111.35 E.17875
G1 X128.02 Y111.46 E.00472
G1 X127.851 Y111.564 E.00622
G1 X127.663 Y111.614 E.0061
G1 X121.967 Y111.614 E.17859
G1 X121.779 Y111.564 E.0061
G1 X121.61 Y111.46 E.00622
G1 X121.507 Y111.35 E.00472
G1 X118.658 Y106.415 E.17867
G1 X118.607 Y106.227 E.00611
G1 X118.613 Y106.029 E.00621
G1 X118.656 Y105.885 E.00471
G1 X121.469 Y101.013 E.17639
M204 S1000
G1 X121.796 Y101.201 F10800
M204 S800
G1 F1200
G1 X121.855 Y101.125 E.00302
G1 X121.992 Y101.06 E.00475
G1 X127.638 Y101.06 E.17703
G1 X127.686 Y101.073 E.00156
G1 X127.81 Y101.16 E.00475
G1 X130.633 Y106.049 E.17701
G1 X130.646 Y106.2 E.00475
G1 X130.633 Y106.248 E.00156
G1 X127.81 Y111.138 E.17704
G1 X127.775 Y111.173 E.00155
G1 X127.638 Y111.237 E.00474
G1 X121.992 Y111.237 E.17703
G1 X121.944 Y111.224 E.00156
G1 X121.82 Y111.138 E.00473
G1 X118.997 Y106.248 E.17704
G1 X118.984 Y106.2 E.00156
G1 X118.997 Y106.049 E.00475
G1 X121.766 Y101.253 E.17364
M204 S1000
; printing object Housing_full_test_1.stl id:0 copy 0
;WIPE_START
G1 F8640
G1 X121.855 Y101.125 E-.036
G1 X121.992 Y101.06 E-.03501
G1 X125.149 Y101.06 E-.72899
;WIPE_END
G1 Z.6 F720
G1 X124.943 Y104.116 F10800
G1 Z.2 F720
G1 E.8 F2100
M204 S800
;TYPE:Support material
G1 F1200
G1 X125.18 Y104.144 E.00748
G1 X125.424 Y104.205 E.00789
G1 X125.823 Y104.378 E.01364
G1 X126.172 Y104.629 E.01348
G1 X126.358 Y104.818 E.00831
G1 X126.496 Y104.997 E.00709
G1 X126.67 Y105.307 E.01115
G1 X126.807 Y105.723 E.01373
G1 X126.887 Y106.325 E.01904
G1 X126.885 Y106.557 E.00727
G1 X126.854 Y106.802 E.00774
G1 X126.73 Y107.226 E.01385
G1 X126.553 Y107.571 E.01216
G1 X126.283 Y107.917 E.01376
G1 X126.116 Y108.076 E.00723
G1 X125.899 Y108.242 E.00857
G1 X125.51 Y108.455 E.01391
G1 X125.126 Y108.584 E.0127
G1 X124.861 Y108.633 E.00845
G1 X124.596 Y108.653 E.00833
G1 X124.172 Y108.627 E.01332
G1 X123.868 Y108.562 E.00975
G1 X123.444 Y108.35 E.01486
G1 X123.12 Y108.112 E.01261
G1 X122.817 Y107.801 E.01361
G1 X122.594 Y107.388 E.01472
G1 X122.464 Y106.993 E.01304
G1 X122.401 Y106.57 E.01341
G1 X122.401 Y106.279 E.00912
G1 X122.422 Y106.072 E.00652
G1 X122.525 Y105.651 E.01359
G1 X122.705 Y105.255 E.01364
G1 X122.952 Y104.904 E.01346
G1 X123.206 Y104.654 E.01117
G1 X123.496 Y104.449 E.01114
G1 X123.703 Y104.342 E.00731
G1 X123.917 Y104.26 E.00719
G1 X124.516 Y104.133 E.0192
G1 X124.886 Y104.113 E.01162
M204 S1000
G1 X126.491 Y107.337 F10800
M204 S800
G1 F1200
G1 X126.491 Y105.878 E.04575
G1 X126.426 Y105.613 E.00856
G1 X126.357 Y105.437 E.00593
G1 X126.216 Y105.19 E.00892
G1 X126.072 Y105.009 E.00725
G1 X126.072 Y107.645 E.08265
G1 X125.872 Y107.838 E.00871
G1 X125.653 Y107.997 E.00849
G1 X125.653 Y104.672 E.10425
G1 X125.463 Y104.579 E.00663
G1 X125.234 Y104.504 E.00756
G1 X125.234 Y108.198 E.11582
G1 X124.815 Y108.297 E.0135
G1 X124.815 Y104.451 E.12059
G1 X124.477 Y104.485 E.01065
G1 X124.396 Y104.504 E.00261
G1 X124.396 Y108.308 E.11927
G1 X123.977 Y108.24 E.01331
G1 X123.977 Y104.598 E.11419
G1 X123.753 Y104.695 E.00765
G1 X123.558 Y104.813 E.00715
G1 X123.558 Y108.019 E.10052
G1 X123.526 Y107.997 E.00122
G1 X123.344 Y107.856 E.00722
G1 X123.139 Y107.655 E.009
G1 X123.139 Y104.95 E.08481
M204 S1000
;WIPE_START
G1 F8640
G1 X123.139 Y107.655 E-.62459
G1 X123.344 Y107.856 E-.06629
G1 X123.526 Y107.997 E-.05316
G1 X123.558 Y108.019 E-.00897
G1 X123.558 Y107.815 E-.04699
;WIPE_END
G1 Z.6 F720
G1 X114.913 Y102.68 F10800
G1 Z.2 F720
G1 E.8 F2100
M204 S800
G1 F1200
G1 X114.913 Y100.882 E.05638
G1 X115.951 Y100.882 E.03255
G1 X114.941 Y102.631 E.06333
M204 S1000
;WIPE_START
G1 F8640
G1 X115.951 Y100.882 E-.46635
G1 X114.913 Y100.882 E-.23968
G1 X114.913 Y101.289 E-.09397
;WIPE_END
G1 Z.6 F720
G1 X118.71 Y96.92 F10800
G1 Z.2 F720
G1 E.8 F2100
M204 S800
G1 F1200
