; generated by PrusaSlicer 2.6.1+win64 on 2023-10-23 at 14:47:39 UTC


;
;
; 

; external perimeters extrusion width = 0.45mm
; perimeters extrusion width = 0.45mm
; infill extrusion width = 0.45mm
; solid infill extrusion width = 0.45mm
; top infill extrusion width = 0.40mm
; support material extrusion width = 0.35mm
; first layer extrusion width = 0.42mm

M73 P0 R29
M73 Q0 S29
M201 X1000 Y1000 Z200 E5000 ; sets maximum accelerations, mm/sec^2
M203 X200 Y200 Z12 E120 ; sets maximum feedrates, mm / sec
M204 S1250 T1250 ; sets acceleration (S) and retract acceleration (R), mm/sec^2
M205 X8.00 Y8.00 Z0.40 E4.50 ; sets the jerk limits, mm/sec
M205 S0 T0 ; sets the minimum extruding and travel feed rate, mm/sec
;TYPE:Custom
M862.3 P "MK3SMMU2S" ; printer model check
M862.1 P0.4 ; nozzle diameter check
M115 U3.12.2 ; tell printer latest fw version
G90 ; use absolute coordinates
M83 ; extruder relative mode
M104 S215 ; set extruder temp
M140 S60 ; set bed temp
Tx
M190 S60 ; wait for bed temp
M109 S215 ; wait for extruder temp
G28 W ; home all without mesh bed level
G80 ; mesh bed leveling

;go outside print area
G1 Y-3 F1000
G1 Z0.4 F1000
; select extruder
Tc
; purge line
G1 X55 F2000
G1 Z0.3 F1000
G92 E0
G1 X240 E25 F2200
G1 Y-2 F1000
G1 X55 E25 F1400
G1 Z0.2 F1000
M73 P0 R28
G1 X5 E4 F1000

M221 S95
G92 E0

; Don't change E values below. Excessive value can damage the printer.
M907 E430 ; set extruder motor current
G21 ; set units to millimeters
G90 ; use absolute coordinates
M83 ; use relative distances for extrusion
M900 K0.05 ; Filament gcode LA 1.5
M900 K30 ; Filament gcode LA 1.0
M107
;LAYER_CHANGE
;Z:0.2
;HEIGHT:0.2
;BEFORE_LAYER_CHANGE
G92 E0.0
;0.2


G1 E-.8 F2100
M73 P1 R28
M73 Q1 S29
G1 Z.4 F720
;AFTER_LAYER_CHANGE
;0.2
G1 X103.859 Y98.104 F10800
G1 Z.2 F720
G1 E.8 F2100
M204 S800
;TYPE:Skirt/Brim
;WIDTH:0.42
G1 F1200
G1 X106.847 Y95.116 E.13249
G1 X108.794 Y94.309 E.06608
M73 Q1 S28
G1 X138.619 Y94.309 E.93514
G1 X140.567 Y95.116 E.06611
G1 X143.554 Y98.104 E.13247
G1 X144.361 Y100.051 E.06608
G1 X144.361 Y109.765 E.30458
G1 X143.554 Y111.713 E.06611
G1 X140.567 Y114.7 E.13245
G1 X138.619 Y115.507 E.06611
G1 X108.794 Y115.507 E.93514
G1 X106.847 Y114.7 E.06608
G1 X103.859 Y111.713 E.13247
G1 X103.053 Y109.765 E.0661
G1 X103.053 Y100.051 E.30458
G1 X103.836 Y98.159 E.0642
M204 S1000
G1 X104.126 Y98.37 F10800
M204 S800
G1 F1200
G1 X107.114 Y95.383 E.13247
G1 X108.794 Y94.686 E.05703
G1 X138.619 Y94.686 E.93514
G1 X140.3 Y95.383 E.05706
G1 X143.288 Y98.37 E.13247
G1 X143.984 Y100.051 E.05705
G1 X143.984 Y109.765 E.30458
G1 X143.288 Y111.446 E.05705
G1 X140.3 Y114.433 E.13247
G1 X138.619 Y115.13 E.05706
G1 X108.794 Y115.13 E.93514
G1 X107.114 Y114.433 E.05703
G1 X104.126 Y111.446 E.13247
G1 X103.43 Y109.765 E.05705
G1 X103.43 Y100.051 E.30458
G1 X104.103 Y98.426 E.05515
M204 S1000
;WIPE_START
G1 F8640
G1 X106.54 Y95.963 E-.8
;WIPE_END
G1 Z.6 F720
G1 X106.734 Y99.729 F10800
G1 Z.2 F720
G1 E.8 F2100
M204 S800
G1 F1200
G1 X107.34 Y98.922 E.03164
G1 X108.127 Y98.218 E.03311
G1 X109.07 Y97.705 E.03366
G1 X110.489 Y97.35 E.04586
G1 X121.904 Y97.354 E.35791
G1 X123.033 Y97.585 E.03613
G1 X123.708 Y97.889 E.02321
G1 X124.066 Y97.707 E.01259
G1 X125.486 Y97.35 E.04591
G1 X136.897 Y97.354 E.35778
G1 X137.917 Y97.548 E.03255
G1 X138.895 Y97.963 E.03331
G1 X140.019 Y98.859 E.04507
G1 X140.912 Y100.198 E.05046
G1 X141.321 Y101.754 E.05044
G1 X141.235 Y108.626 E.21548
G1 X140.809 Y109.841 E.04037
G1 X140.223 Y110.726 E.03328
G1 X139.379 Y111.53 E.03655
G1 X138.348 Y112.109 E.03708
G1 X136.925 Y112.466 E.046
G1 X125.455 Y112.466 E.35963
G1 X123.674 Y111.948 E.05816
G1 X123.345 Y112.11 E.0115
G1 X121.929 Y112.466 E.04578
G1 X110.442 Y112.466 E.36017
G1 X108.314 Y111.738 E.07052
G1 X107.616 Y111.173 E.02816
G1 X107.014 Y110.507 E.02815
G1 X106.45 Y109.492 E.03641
G1 X106.093 Y108.065 E.04612
G1 X106.16 Y101.31 E.21181
M73 Q2 S28
G1 X106.713 Y99.785 E.05086
M204 S1000
M73 P2 R28
G1 X107.068 Y99.914 F10800
M204 S800
G1 F1200
G1 X107.628 Y99.167 E.02927
G1 X108.361 Y98.515 E.03076
G1 X109.228 Y98.048 E.03088
G1 X110.512 Y97.727 E.0415
G1 X121.884 Y97.731 E.35656
G1 X122.934 Y97.95 E.03363
G1 X123.721 Y98.311 E.02715
G1 X124.183 Y98.066 E.0164
G1 X125.509 Y97.727 E.04291
G1 X136.878 Y97.731 E.35647
G1 X137.824 Y97.914 E.03021
G1 X138.722 Y98.299 E.03063
G1 X139.76 Y99.135 E.04179
G1 X140.556 Y100.325 E.04489
G1 X140.944 Y101.776 E.04709
G1 X140.868 Y108.531 E.21181
G1 X140.461 Y109.693 E.0386
G1 X139.922 Y110.498 E.03038
G1 X139.138 Y111.24 E.03385
G1 X138.187 Y111.767 E.03409
G1 X136.902 Y112.089 E.04154
G1 X125.482 Y112.089 E.35807
G1 X123.917 Y111.629 E.05115
G1 X123.704 Y111.508 E.00768
G1 X123.229 Y111.75 E.01671
G1 X121.905 Y112.089 E.04285
G1 X110.473 Y112.089 E.35844
G1 X108.525 Y111.423 E.06455
G1 X107.885 Y110.909 E.02574
G1 X107.309 Y110.27 E.02697
G1 X106.792 Y109.332 E.03358
G1 X106.47 Y108.044 E.04163
G1 X106.525 Y101.409 E.20804
G1 X107.047 Y99.97 E.048
M204 S1000
G1 X107.402 Y100.099 F10800
M204 S800
G1 F1200
G1 X107.422 Y100.043 E.00186
G1 X107.914 Y99.412 E.02509
G1 X108.559 Y98.836 E.02711
G1 X109.386 Y98.392 E.02943
G1 X110.535 Y98.104 E.03714
G1 X121.864 Y98.108 E.35521
G1 X122.834 Y98.314 E.03109
G1 X123.735 Y98.734 E.03117
G1 X124.302 Y98.425 E.02025
G1 X125.534 Y98.104 E.03992
G1 X136.86 Y98.108 E.35512
G1 X137.731 Y98.28 E.02784
G1 X138.547 Y98.634 E.02789
G1 X139.499 Y99.408 E.03847
G1 X140.224 Y100.507 E.04128
G1 X140.567 Y101.798 E.04188
G1 X140.502 Y108.435 E.20811
G1 X140.114 Y109.544 E.03684
G1 X139.622 Y110.268 E.02745
G1 X138.898 Y110.948 E.03114
G1 X138.027 Y111.425 E.03114
G1 X136.879 Y111.712 E.0371
G1 X125.51 Y111.712 E.35647
G1 X124.054 Y111.277 E.04765
G1 X123.724 Y111.07 E.01221
G1 X123.112 Y111.391 E.02167
G1 X121.881 Y111.712 E.03989
G1 X110.504 Y111.712 E.35672
G1 X108.735 Y111.109 E.0586
G1 X108.134 Y110.625 E.02419
G1 X107.604 Y110.035 E.02487
G1 X107.135 Y109.173 E.03077
G1 X106.847 Y108.023 E.03717
G1 X106.891 Y101.507 E.20431
G1 X107.381 Y100.155 E.04509
M204 S1000
G1 X107.736 Y100.284 F10800
M204 S800
G1 F1200
G1 X107.766 Y100.202 E.00274
G1 X108.199 Y99.66 E.02175
G1 X108.76 Y99.156 E.02365
G1 X109.503 Y98.751 E.02653
G1 X110.559 Y98.481 E.03418
G1 X121.843 Y98.485 E.3538
G1 X122.733 Y98.678 E.02855
G1 X123.443 Y99.013 E.02462
G1 X123.679 Y99.199 E.00942
G1 X124.423 Y98.783 E.02673
G1 X125.559 Y98.481 E.03686
G1 X136.84 Y98.485 E.35371
G1 X137.636 Y98.645 E.02546
G1 X138.371 Y98.969 E.02519
G1 X139.237 Y99.68 E.03513
G1 X139.892 Y100.686 E.03764
G1 X140.189 Y101.82 E.03676
G1 X140.136 Y108.34 E.20444
G1 X139.766 Y109.395 E.03505
G1 X139.324 Y110.036 E.02441
G1 X138.658 Y110.656 E.02853
G1 X137.911 Y111.065 E.0267
G1 X136.855 Y111.335 E.03418
G1 X125.538 Y111.335 E.35484
G1 X124.193 Y110.925 E.04409
G1 X123.713 Y110.606 E.01807
G1 X123.548 Y110.736 E.00659
G1 X122.993 Y111.033 E.01974
G1 X121.856 Y111.335 E.03689
G1 X110.535 Y111.335 E.35496
G1 X108.945 Y110.794 E.05266
G1 X108.404 Y110.361 E.02173
G1 X107.9 Y109.8 E.02365
G1 X107.494 Y109.056 E.02657
G1 X107.225 Y108 E.03417
G1 X107.256 Y101.605 E.20051
G1 X107.715 Y100.341 E.04216
M204 S1000
G1 X108.062 Y100.464 F10800
M204 S800
G1 F1200
G1 X108.081 Y100.411 E.00177
G1 X108.463 Y99.93 E.01926
G1 X108.996 Y99.451 E.02247
G1 X109.621 Y99.109 E.02234
G1 X110.584 Y98.858 E.0312
G1 X121.823 Y98.862 E.35239
G1 X122.591 Y99.028 E.02464
G1 X123.257 Y99.342 E.02309
G1 X123.7 Y99.717 E.0182
G1 X124.068 Y99.399 E.01525
G1 X124.542 Y99.141 E.01692
G1 X125.584 Y98.858 E.03385
G1 X136.822 Y98.862 E.35236
G1 X137.503 Y98.998 E.02177
G1 X138.194 Y99.303 E.02368
G1 X138.974 Y99.952 E.03181
G1 X139.535 Y100.813 E.03222
G1 X139.812 Y101.843 E.03344
G1 X139.77 Y108.245 E.20073
G1 X139.419 Y109.245 E.03323
G1 X139.028 Y109.802 E.02134
G1 X138.42 Y110.363 E.02594
G1 X137.793 Y110.707 E.02242
G1 X136.831 Y110.958 E.03117
G1 X125.567 Y110.958 E.35317
G1 X124.334 Y110.574 E.04049
G1 X123.685 Y110.125 E.02474
G1 X123.345 Y110.417 E.01405
G1 X122.872 Y110.675 E.01689
G1 X121.83 Y110.958 E.03385
G1 X110.566 Y110.958 E.35317
G1 X109.154 Y110.478 E.04676
G1 X108.673 Y110.097 E.01924
G1 X108.195 Y109.564 E.02245
G1 X107.853 Y108.938 E.02237
G1 X107.602 Y107.976 E.03117
M73 P3 R28
G1 X107.622 Y101.7 E.19678
M73 Q3 S28
G1 X108.042 Y100.52 E.03927
M204 S1000
G1 X108.389 Y100.641 F10800
M204 S800
G1 F1200
G1 X108.727 Y100.2 E.01742
G1 X109.231 Y99.746 E.02127
G1 X109.741 Y99.468 E.01821
G1 X110.609 Y99.235 E.02818
G1 X121.803 Y99.239 E.35098
G1 X122.45 Y99.378 E.02075
G1 X123.071 Y99.671 E.02153
G1 X123.702 Y100.222 E.02627
G1 X124.269 Y99.72 E.02374
G1 X124.703 Y99.483 E.0155
G1 X125.609 Y99.235 E.02945
G1 X136.802 Y99.239 E.35095
G1 X137.405 Y99.363 E.0193
G1 X138.015 Y99.636 E.02095
G1 X138.708 Y100.221 E.02844
G1 X139.202 Y100.991 E.02868
G1 X139.435 Y101.867 E.02842
G1 X139.404 Y108.15 E.197
G1 X139.073 Y109.094 E.03137
G1 X138.734 Y109.565 E.0182
G1 X138.182 Y110.069 E.02344
G1 X137.673 Y110.348 E.0182
G1 X136.805 Y110.581 E.02818
G1 X125.597 Y110.581 E.35142
G1 X124.478 Y110.225 E.03682
G1 X123.997 Y109.882 E.01852
G1 X123.722 Y109.585 E.01269
G1 X123.145 Y110.096 E.02417
G1 X122.71 Y110.334 E.01555
G1 X121.805 Y110.581 E.02941
G1 X110.597 Y110.581 E.35142
G1 X109.361 Y110.162 E.04092
G1 X108.943 Y109.832 E.0167
G1 X108.49 Y109.328 E.02125
G1 X108.211 Y108.819 E.0182
G1 X107.979 Y107.951 E.02817
G1 X107.989 Y101.794 E.19305
G1 X108.37 Y100.698 E.03638
M204 S1000
G1 X108.715 Y100.824 F10800
M204 S800
G1 F1200
G1 X108.992 Y100.469 E.01412
G1 X109.467 Y100.041 E.02005
G1 X109.863 Y99.825 E.01414
G1 X110.635 Y99.613 E.0251
G1 X121.782 Y99.616 E.34951
G1 X122.346 Y99.741 E.01811
G1 X122.883 Y99.999 E.01868
G1 X123.48 Y100.532 E.02509
G1 X123.698 Y100.84 E.01183
G1 X123.991 Y100.47 E.0148
G1 X124.502 Y100.017 E.02141
G1 X124.862 Y99.825 E.01279
G1 X125.635 Y99.613 E.02513
G1 X136.782 Y99.616 E.34951
G1 X137.306 Y99.728 E.0168
G1 X137.834 Y99.967 E.01817
G1 X138.441 Y100.488 E.02508
G1 X138.846 Y101.119 E.02351
G1 X139.058 Y101.892 E.02513
G1 X139.037 Y108.055 E.19324
G1 X138.727 Y108.941 E.02943
G1 X138.443 Y109.324 E.01495
G1 X137.946 Y109.775 E.02104
G1 X137.551 Y109.991 E.01412
G1 X136.779 Y110.204 E.02511
G1 X125.628 Y110.204 E.34963
G1 X124.626 Y109.876 E.03306
G1 X124.238 Y109.592 E.01508
G1 X123.702 Y108.992 E.02523
G1 X123.423 Y109.347 E.01416
G1 X122.912 Y109.799 E.02139
G1 X122.552 Y109.991 E.01279
G1 X121.779 Y110.204 E.02514
G1 X110.628 Y110.204 E.34963
G1 X109.567 Y109.845 E.03512
G1 X109.212 Y109.568 E.01412
G1 X108.785 Y109.092 E.02005
G1 X108.568 Y108.697 E.01413
G1 X108.356 Y107.925 E.0251
G1 X108.356 Y101.884 E.18941
G1 X108.696 Y100.881 E.03321
M204 S1000
G1 X109.033 Y101.029 F10800
M204 S800
G1 F1200
G1 X109.257 Y100.737 E.01154
G1 X109.703 Y100.337 E.01878
G1 X109.987 Y100.182 E.01014
G1 X110.662 Y99.99 E.022
G1 X121.759 Y99.993 E.34794
G1 X122.239 Y100.103 E.01544
G1 X122.691 Y100.325 E.01579
G1 X123.205 Y100.791 E.02175
G1 X123.471 Y101.204 E.0154
G1 X123.579 Y101.532 E.01083
G1 X123.848 Y101.536 E.00844
G1 X124.032 Y101.031 E.01685
G1 X124.257 Y100.737 E.01161
G1 X124.703 Y100.337 E.01878
G1 X124.987 Y100.182 E.01014
G1 X125.662 Y99.99 E.022
G1 X136.76 Y99.993 E.34797
G1 X137.203 Y100.091 E.01423
G1 X137.65 Y100.297 E.01543
G1 X138.173 Y100.754 E.02178
G1 X138.491 Y101.25 E.01847
G1 X138.681 Y101.918 E.02178
G1 X138.671 Y107.961 E.18947
G1 X138.381 Y108.787 E.02745
G1 X138.157 Y109.079 E.01154
G1 X137.711 Y109.479 E.01878
G1 X137.427 Y109.635 E.01016
G1 X136.752 Y109.826 E.022
G1 X125.658 Y109.826 E.34784
G1 X124.822 Y109.553 E.02757
G1 X124.505 Y109.325 E.01224
G1 X124.055 Y108.821 E.02118
G1 X123.939 Y108.607 E.00763
G1 X123.837 Y108.284 E.01062
G1 X123.567 Y108.278 E.00847
G1 X123.382 Y108.786 E.01695
G1 X123.157 Y109.079 E.01158
G1 X122.711 Y109.479 E.01878
G1 X122.427 Y109.635 E.01016
G1 X121.752 Y109.826 E.022
G1 X110.659 Y109.826 E.34781
G1 X109.772 Y109.526 E.02936
G1 X109.48 Y109.302 E.01154
G1 X109.08 Y108.856 E.01878
G1 X108.925 Y108.573 E.01012
G1 X108.733 Y107.898 E.022
G1 X108.733 Y101.915 E.18759
G1 X109.014 Y101.086 E.02745
M204 S1000
;WIPE_START
G1 F8640
G1 X109.257 Y100.737 E-.09819
G1 X109.703 Y100.337 E-.13833
G1 X109.987 Y100.182 E-.07471
G1 X110.662 Y99.99 E-.16204
G1 X112.077 Y99.99 E-.32673
;WIPE_END
G1 Z.6 F720
G1 X124.11 Y101.946 F10800
G1 Z.2 F720
G1 E.8 F2100
M204 S800
G1 F1200
G1 X124.352 Y101.231 E.02367
G1 X124.523 Y101.005 E.00889
G1 X124.938 Y100.632 E.0175
G1 X125.113 Y100.537 E.00624
G1 X125.69 Y100.367 E.01886
G1 X136.738 Y100.37 E.3464
G1 X137.097 Y100.453 E.01155
G1 X137.463 Y100.626 E.01269
G1 X137.902 Y101.018 E.01845
G1 X138.138 Y101.383 E.01363
G1 X138.304 Y101.946 E.0184
G1 X138.304 Y107.87 E.18574
G1 X138.061 Y108.585 E.02368
G1 X137.891 Y108.811 E.00887
G1 X137.475 Y109.184 E.01752
G1 X137.3 Y109.279 E.00624
G1 X136.724 Y109.449 E.01883
G1 X125.689 Y109.449 E.34599
G1 X124.975 Y109.207 E.02364
G1 X124.748 Y109.036 E.00891
G1 X124.375 Y108.621 E.0175
G1 X124.28 Y108.446 E.00624
G1 X124.11 Y107.87 E.01883
G1 X124.11 Y102.006 E.18386
M204 S1000
G1 X124.487 Y102.006 F10800
M204 S800
G1 F1200
G1 X124.673 Y101.431 E.01895
G1 X124.792 Y101.27 E.00628
G1 X125.144 Y100.948 E.01496
G1 X125.247 Y100.89 E.00371
G1 X125.719 Y100.744 E.01549
G1 X136.716 Y100.747 E.3448
G1 X136.954 Y100.803 E.00767
G1 X137.275 Y100.954 E.01112
G1 X137.63 Y101.279 E.01509
G1 X137.786 Y101.52 E.009
G1 X137.927 Y101.976 E.01497
G1 X137.927 Y107.839 E.18383
G1 X137.741 Y108.385 E.01809
G1 X137.622 Y108.546 E.00628
G1 X137.269 Y108.868 E.01498
G1 X137.167 Y108.926 E.00368
G1 X136.694 Y109.072 E.01552
G1 X125.721 Y109.072 E.34405
G1 X125.174 Y108.886 E.01812
G1 X125.013 Y108.767 E.00628
G1 X124.692 Y108.415 E.01494
G1 X124.634 Y108.312 E.00371
G1 X124.487 Y107.84 E.0155
G1 X124.487 Y102.066 E.18104
M204 S1000
G1 X124.864 Y102.066 F10800
M204 S800
G1 F1200
G1 X124.864 Y102.009 E.00179
G1 X124.996 Y101.627 E.01267
G1 X125.064 Y101.532 E.00366
G1 X125.39 Y101.24 E.01372
G1 X125.751 Y101.121 E.01192
G1 X136.694 Y101.124 E.34311
G1 X136.811 Y101.152 E.00377
M73 P4 R28
M73 Q4 S28
G1 X137.085 Y101.282 E.00951
G1 X137.353 Y101.536 E.01158
G1 X137.436 Y101.663 E.00476
G1 X137.55 Y102.008 E.01139
G1 X137.55 Y107.807 E.18182
G1 X137.418 Y108.189 E.01267
G1 X137.35 Y108.284 E.00366
G1 X137.055 Y108.558 E.01262
G1 X136.663 Y108.695 E.01302
G1 X125.752 Y108.695 E.34211
G1 X125.37 Y108.563 E.01267
G1 X125.275 Y108.495 E.00366
G1 X125.002 Y108.2 E.0126
G1 X124.864 Y107.808 E.01303
G1 X124.864 Y102.126 E.17816
M204 S1000
G1 X125.241 Y102.126 F10800
M204 S800
G1 F1200
G1 X125.241 Y102.043 E.0026
G1 X125.339 Y101.791 E.00848
G1 X125.573 Y101.574 E.01001
G1 X125.786 Y101.498 E.00709
G1 X136.642 Y101.498 E.34038
G1 X136.892 Y101.607 E.00855
M73 P4 R27
G1 X137.091 Y101.815 E.00903
G1 X137.172 Y102.043 E.00759
G1 X137.172 Y107.773 E.17966
G1 X137.091 Y108.001 E.00759
G1 X136.841 Y108.242 E.01089
G1 X136.628 Y108.318 E.00709
G1 X125.786 Y108.318 E.33994
G1 X125.559 Y108.237 E.00756
G1 X125.318 Y107.986 E.01091
G1 X125.241 Y107.773 E.0071
G1 X125.241 Y102.186 E.17518
M204 S1000
G1 X125.618 Y102.186 F10800
M204 S800
G1 F1200
G1 X125.618 Y102.085 E.00317
G1 X125.647 Y102.015 E.00238
G1 X125.759 Y101.904 E.00494
G1 X125.828 Y101.875 E.00235
G1 X136.586 Y101.875 E.33731
G1 X136.655 Y101.904 E.00235
G1 X136.767 Y102.015 E.00494
G1 X136.795 Y102.085 E.00236
G1 X136.795 Y107.731 E.17703
G1 X136.767 Y107.801 E.00236
G1 X136.655 Y107.912 E.00494
G1 X136.586 Y107.941 E.00235
G1 X125.828 Y107.941 E.33731
G1 X125.759 Y107.912 E.00235
G1 X125.647 Y107.801 E.00494
G1 X125.618 Y107.731 E.00238
G1 X125.618 Y102.246 E.17198
M204 S1000
;WIPE_START
G1 F8640
G1 X125.618 Y102.085 E-.03718
G1 X125.647 Y102.015 E-.0175
G1 X125.759 Y101.904 E-.03641
G1 X125.828 Y101.875 E-.01728
G1 X128.823 Y101.875 E-.69163
;WIPE_END
G1 Z.6 F720
G1 X123.304 Y102.246 F10800
G1 Z.2 F720
G1 E.8 F2100
M204 S800
G1 F1200
G1 X123.304 Y107.87 E.17634
G1 X123.061 Y108.585 E.02368
G1 X122.891 Y108.811 E.00887
G1 X122.475 Y109.184 E.01752
G1 X122.3 Y109.279 E.00624
