; generated by PrusaSlicer 2.6.1+win64 on 2023-10-24 at 12:12:08 UTC


;
;
; 

; external perimeters extrusion width = 0.45mm
; perimeters extrusion width = 0.45mm
; infill extrusion width = 0.45mm
; solid infill extrusion width = 0.45mm
; top infill extrusion width = 0.40mm
; support material extrusion width = 0.35mm
; first layer extrusion width = 0.42mm

M73 P0 R44
M73 Q0 S44
M201 X1000 Y1000 Z200 E5000 ; sets maximum accelerations, mm/sec^2
M203 X200 Y200 Z12 E120 ; sets maximum feedrates, mm / sec
M204 S1250 T1250 ; sets acceleration (S) and retract acceleration (R), mm/sec^2
M205 X8.00 Y8.00 Z0.40 E4.50 ; sets the jerk limits, mm/sec
M205 S0 T0 ; sets the minimum extruding and travel feed rate, mm/sec
;TYPE:Custom
M862.3 P "MK3SMMU2S" ; printer model check
M862.1 P0.4 ; nozzle diameter check
M115 U3.12.2 ; tell printer latest fw version
G90 ; use absolute coordinates
M83 ; extruder relative mode
M104 S215 ; set extruder temp
M140 S60 ; set bed temp
Tx
M190 S60 ; wait for bed temp
M109 S215 ; wait for extruder temp
G28 W ; home all without mesh bed level
G80 ; mesh bed leveling

;go outside print area
G1 Y-3 F1000
G1 Z0.4 F1000
; select extruder
Tc
; purge line
G1 X55 F2000
G1 Z0.3 F1000
G92 E0
G1 X240 E25 F2200
G1 Y-2 F1000
G1 X55 E25 F1400
G1 Z0.2 F1000
M73 P0 R43
G1 X5 E4 F1000

M221 S95
G92 E0

; Don't change E values below. Excessive value can damage the printer.
M907 E430 ; set extruder motor current
G21 ; set units to millimeters
G90 ; use absolute coordinates
M83 ; use relative distances for extrusion
M900 K0.05 ; Filament gcode LA 1.5
M900 K30 ; Filament gcode LA 1.0
M107
;LAYER_CHANGE
;Z:0.2
;HEIGHT:0.2
;BEFORE_LAYER_CHANGE
G92 E0.0
;0.2


G1 E-.8 F2100
M73 Q0 S43
G1 Z.4 F720
;AFTER_LAYER_CHANGE
;0.2
G1 X112.479 Y105.669 F10800
G1 Z.2 F720
G1 E.8 F2100
M204 S800
;TYPE:Skirt/Brim
;WIDTH:0.42
G1 F1200
G1 X117.225 Y100.923 E.21045
G1 X119.173 Y100.116 E.06611
G1 X129.862 Y100.116 E.33515
G1 X131.81 Y100.923 E.06611
G1 X136.556 Y105.669 E.21045
G1 X137.336 Y107.238 E.05494
G1 X137.888 Y111.216 E.12592
G1 X137.914 Y114.327 E.09755
G1 X137.334 Y118.562 E.13402
G1 X136.791 Y119.85 E.04383
G1 X136.372 Y120.359 E.02067
G1 X131.727 Y125.004 E.20597
G1 X129.784 Y125.806 E.06591
G1 X119.173 Y125.806 E.3327
G1 X117.225 Y124.999 E.06611
G1 X112.479 Y120.253 E.21045
G1 X111.698 Y118.684 E.05495
G1 X111.147 Y114.706 E.12592
G1 X111.121 Y111.594 E.09758
G1 X111.698 Y107.238 E.13777
G1 X112.452 Y105.722 E.05309
M204 S1000
G1 X112.745 Y105.935 F10800
M204 S800
G1 F1200
G1 X117.492 Y101.189 E.21047
G1 X119.173 Y100.493 E.05705
G1 X129.862 Y100.493 E.33515
G1 X131.543 Y101.189 E.05705
G1 X136.289 Y105.935 E.21045
G1 X136.963 Y107.29 E.04745
G1 X137.514 Y111.268 E.12592
G1 X137.537 Y114.327 E.09592
G1 X136.961 Y118.509 E.13236
G1 X136.492 Y119.62 E.03781
G1 X136.104 Y120.093 E.01918
G1 X131.461 Y124.736 E.20588
G1 X129.784 Y125.429 E.05689
G1 X119.173 Y125.429 E.3327
G1 X117.492 Y124.733 E.05705
M73 P1 R43
M73 Q1 S43
G1 X112.746 Y119.987 E.21045
G1 X112.072 Y118.632 E.04745
G1 X111.52 Y114.654 E.12592
G1 X111.498 Y111.594 E.09595
G1 X112.072 Y107.29 E.13614
G1 X112.719 Y105.989 E.04556
M204 S1000
;WIPE_START
G1 F8640
G1 X115.162 Y103.532 E-.8
;WIPE_END
G1 Z.6 F720
G1 X116.275 Y108.028 F10800
G1 Z.2 F720
G1 E.8 F2100
M204 S800
G1 F1200
G1 X117.723 Y105.502 E.09129
G1 X118.497 Y104.601 E.03724
G1 X119.446 Y103.919 E.03664
G1 X121.39 Y103.347 E.06354
G1 X127.663 Y103.354 E.19669
G1 X128.801 Y103.585 E.03641
G1 X129.849 Y104.073 E.03625
G1 X131.036 Y105.137 E.04998
G1 X134.405 Y110.86 E.20822
G1 X134.883 Y112.825 E.06341
G1 X134.789 Y113.892 E.03358
G1 X134.455 Y114.937 E.0344
G1 X131.312 Y120.42 E.19816
G1 X130.538 Y121.321 E.03724
G1 X129.588 Y122.003 E.03667
G1 X127.648 Y122.574 E.06341
G1 X121.393 Y122.574 E.19612
G1 X119.823 Y122.177 E.05078
G1 X118.682 Y121.481 E.04191
G1 X117.749 Y120.457 E.04344
G1 X114.626 Y115.056 E.19562
G1 X114.151 Y113.097 E.0632
G1 X114.245 Y112.03 E.03358
G1 X114.58 Y110.985 E.03441
G1 X116.245 Y108.08 E.10498
M204 S1000
G1 X116.571 Y108.267 F10800
M204 S800
G1 F1200
G1 X118.041 Y105.705 E.09261
G1 X118.735 Y104.894 E.03347
G1 X119.64 Y104.244 E.03494
G1 X121.417 Y103.724 E.05805
G1 X127.644 Y103.731 E.19524
G1 X128.662 Y103.937 E.03257
G1 X129.664 Y104.402 E.03464
G1 X130.761 Y105.397 E.04644
G1 X134.066 Y111.027 E.20469
G1 X134.505 Y112.823 E.05797
G1 X134.415 Y113.837 E.03192
G1 X134.103 Y114.801 E.03177
G1 X130.993 Y120.217 E.19582
G1 X130.3 Y121.028 E.03345
G1 X129.394 Y121.678 E.03496
G1 X127.621 Y122.197 E.05792
G1 X121.417 Y122.197 E.19452
G1 X119.945 Y121.82 E.04764
G1 X118.904 Y121.175 E.0384
G1 X118.043 Y120.22 E.04032
G1 X114.966 Y114.891 E.19294
G1 X114.529 Y113.099 E.05783
G1 X114.619 Y112.084 E.03195
G1 X114.932 Y111.121 E.03175
G1 X116.541 Y108.319 E.10131
M204 S1000
G1 X116.866 Y108.506 F10800
M204 S800
G1 F1200
G1 X118.359 Y105.909 E.09392
G1 X119.005 Y105.158 E.03106
G1 X119.832 Y104.57 E.03182
G1 X121.443 Y104.101 E.05261
G1 X127.624 Y104.108 E.1938
G1 X128.564 Y104.301 E.03009
G1 X129.477 Y104.731 E.03164
G1 X130.485 Y105.655 E.04287
G1 X133.727 Y111.194 E.20123
G1 X134.127 Y112.822 E.05256
G1 X134.05 Y113.742 E.02895
G1 X133.75 Y114.666 E.03046
G1 X130.676 Y120.013 E.19338
G1 X130.029 Y120.764 E.03108
G1 X129.202 Y121.352 E.03182
G1 X127.595 Y121.82 E.05248
G1 X121.442 Y121.82 E.19292
G1 X120.069 Y121.462 E.04449
G1 X119.127 Y120.87 E.03488
G1 X118.36 Y120.014 E.03604
G1 X115.306 Y114.725 E.19149
G1 X114.908 Y113.1 E.05246
G1 X114.985 Y112.18 E.02895
G1 X115.285 Y111.256 E.03046
G1 X116.836 Y108.558 E.09758
M204 S1000
G1 X117.161 Y108.745 F10800
M204 S800
G1 F1200
G1 X118.677 Y106.113 E.09523
G1 X119.275 Y105.423 E.02863
G1 X120.023 Y104.896 E.02869
G1 X121.469 Y104.478 E.04719
G1 X127.604 Y104.485 E.19236
G1 X128.464 Y104.666 E.02756
G1 X129.288 Y105.058 E.02861
G1 X130.208 Y105.912 E.03936
G1 X133.388 Y111.361 E.19782
G1 X133.749 Y112.822 E.04719
G1 X133.676 Y113.688 E.02725
G1 X133.398 Y114.529 E.02777
G1 X130.358 Y119.809 E.19103
G1 X129.76 Y120.499 E.02863
G1 X129.012 Y121.025 E.02867
G1 X127.568 Y121.443 E.04713
G1 X121.466 Y121.443 E.19132
G1 X120.195 Y121.106 E.04123
G1 X119.353 Y120.567 E.03135
G1 X118.677 Y119.809 E.03184
G1 X115.646 Y114.56 E.19005
G1 X115.286 Y113.1 E.04715
G1 X115.358 Y112.234 E.02725
G1 X115.636 Y111.393 E.02777
G1 X117.131 Y108.797 E.09393
M204 S1000
G1 X117.456 Y108.984 F10800
M204 S800
G1 F1200
G1 X118.994 Y106.317 E.09653
G1 X119.543 Y105.689 E.02615
G1 X120.212 Y105.224 E.02555
G1 X121.495 Y104.856 E.04185
G1 X127.583 Y104.862 E.19089
G1 X128.362 Y105.029 E.02498
G1 X129.097 Y105.385 E.02561
G1 X129.929 Y106.167 E.0358
G1 X133.049 Y111.527 E.19446
G1 X133.37 Y112.821 E.0418
G1 X133.302 Y113.633 E.02555
G1 X133.047 Y114.39 E.02505
G1 X130.041 Y119.604 E.1887
G1 X129.492 Y120.233 E.02618
G1 X128.823 Y120.698 E.02555
G1 X127.542 Y121.066 E.04179
G1 X121.492 Y121.066 E.18969
G1 X120.324 Y120.75 E.03794
G1 X119.581 Y120.266 E.0278
G1 X118.994 Y119.604 E.02774
G1 X115.986 Y114.394 E.18863
G1 X115.664 Y113.101 E.04178
G1 X115.732 Y112.289 E.02555
G1 X115.987 Y111.532 E.02505
G1 X117.426 Y109.036 E.09033
M204 S1000
G1 X117.751 Y109.224 F10800
M204 S800
G1 F1200
G1 X119.311 Y106.521 E.09785
G1 X119.777 Y105.985 E.02227
G1 X120.401 Y105.552 E.02381
G1 X121.521 Y105.233 E.03651
G1 X127.562 Y105.239 E.18941
G1 X128.258 Y105.392 E.02234
G1 X128.904 Y105.71 E.02258
G1 X129.649 Y106.421 E.03229
G1 X132.709 Y111.694 E.19115
G1 X132.992 Y112.821 E.03643
G1 X132.929 Y113.578 E.02382
G1 X132.697 Y114.25 E.02229
G1 X129.723 Y119.4 E.18646
G1 X129.257 Y119.937 E.02229
G1 X128.633 Y120.37 E.02381
G1 X127.516 Y120.689 E.03642
G1 X121.518 Y120.689 E.18806
G1 X120.454 Y120.395 E.03461
G1 X119.811 Y119.966 E.02424
G1 X119.311 Y119.4 E.02368
G1 X116.325 Y114.228 E.18725
G1 X116.043 Y113.101 E.03643
G1 X116.106 Y112.344 E.02382
G1 X116.338 Y111.672 E.02229
G1 X117.721 Y109.276 E.08674
M204 S1000
G1 X118.048 Y109.464 F10800
M204 S800
G1 F1200
G1 X119.629 Y106.726 E.09913
G1 X120.044 Y106.252 E.01975
G1 X120.588 Y105.881 E.02065
G1 X121.546 Y105.61 E.03122
G1 X127.54 Y105.616 E.18794
G1 X128.151 Y105.755 E.01965
G1 X128.708 Y106.033 E.01952
G1 X129.367 Y106.673 E.0288
G1 X132.37 Y111.86 E.18792
G1 X132.614 Y112.824 E.03118
G1 X132.564 Y113.48 E.02063
G1 X132.361 Y114.077 E.01977
G1 X129.406 Y119.195 E.1853
G1 X128.99 Y119.67 E.0198
G1 X128.446 Y120.041 E.02065
G1 X127.49 Y120.312 E.03116
G1 X121.544 Y120.312 E.18643
G1 X120.588 Y120.041 E.03116
G1 X120.044 Y119.67 E.02065
G1 X119.629 Y119.195 E.01978
G1 X116.665 Y114.062 E.18585
G1 X116.421 Y113.098 E.03118
G1 X116.471 Y112.442 E.02063
G1 X116.674 Y111.844 E.0198
G1 X118.018 Y109.516 E.08428
M204 S1000
G1 X118.344 Y109.705 F10800
M204 S800
G1 F1200
G1 X119.945 Y106.932 E.1004
G1 X120.31 Y106.521 E.01723
G1 X120.772 Y106.211 E.01744
G1 X121.571 Y105.987 E.02602
G1 X127.517 Y105.994 E.18643
G1 X128.042 Y106.116 E.0169
G1 X128.51 Y106.355 E.01648
G1 X129.084 Y106.922 E.0253
G1 X132.03 Y112.026 E.18478
G1 X132.236 Y112.829 E.02599
G1 X132.198 Y113.385 E.01747
G1 X132.024 Y113.906 E.01722
G1 X129.089 Y118.99 E.18406
G1 X128.725 Y119.4 E.01719
G1 X128.262 Y119.711 E.01749
G1 X127.464 Y119.935 E.02599
G1 X121.57 Y119.935 E.1848
G1 X120.772 Y119.711 E.02599
G1 X120.31 Y119.4 E.01746
G1 X119.945 Y118.99 E.01721
G1 X117.004 Y113.896 E.18443
G1 X116.799 Y113.093 E.02599
G1 X116.837 Y112.537 E.01747
G1 X117.01 Y112.016 E.01721
G1 X118.314 Y109.757 E.08178
M204 S1000
G1 X118.641 Y109.945 F10800
M204 S800
G1 F1200
G1 X120.262 Y107.138 E.10163
G1 X120.572 Y106.793 E.01454
G1 X120.954 Y106.542 E.01433
G1 X121.596 Y106.364 E.02089
G1 X127.494 Y106.371 E.18493
G1 X127.928 Y106.477 E.01401
G1 X128.309 Y106.675 E.01346
G1 X128.77 Y107.132 E.02035
G1 X131.691 Y112.193 E.18322
G1 X131.858 Y112.838 E.02089
G1 X131.831 Y113.293 E.01429
G1 X131.688 Y113.735 E.01457
G1 X128.773 Y118.784 E.1828
G1 X128.462 Y119.129 E.01456
G1 X128.081 Y119.379 E.01429
G1 X127.439 Y119.558 E.0209
G1 X121.595 Y119.558 E.18323
G1 X120.954 Y119.379 E.02087
G1 X120.572 Y119.129 E.01431
G1 X120.262 Y118.784 E.01454
G1 X117.343 Y113.729 E.18302
G1 X117.177 Y113.084 E.02088
G1 X117.203 Y112.629 E.01429
G1 X117.347 Y112.187 E.01458
G1 X118.611 Y109.997 E.07928
M204 S1000
G1 X118.937 Y110.186 F10800
M204 S800
G1 F1200
G1 X120.578 Y107.345 E.10287
G1 X120.832 Y107.067 E.01181
M73 P2 R43
M73 Q2 S43
G1 X121.131 Y106.876 E.01112
G1 X121.621 Y106.741 E.01594
G1 X127.469 Y106.748 E.18336
G1 X127.811 Y106.835 E.01106
G1 X128.106 Y106.994 E.01051
G1 X128.455 Y107.342 E.01545
G1 X131.352 Y112.36 E.18167
G1 X131.48 Y112.851 E.01591
G1 X131.464 Y113.205 E.01111
G1 X131.35 Y113.565 E.01184
G1 X128.457 Y118.577 E.18145
G1 X128.202 Y118.855 E.01183
G1 X127.903 Y119.046 E.01112
G1 X127.414 Y119.181 E.01591
G1 X121.621 Y119.181 E.18164
G1 X121.131 Y119.046 E.01594
G1 X120.832 Y118.855 E.01112
G1 X120.578 Y118.577 E.01181
G1 X117.682 Y113.562 E.18158
G1 X117.555 Y113.071 E.0159
G1 X117.57 Y112.717 E.01111
G1 X117.684 Y112.357 E.01184
G1 X118.907 Y110.238 E.07671
M204 S1000
G1 X119.234 Y110.426 F10800
M204 S800
G1 F1200
G1 X120.894 Y107.551 E.10409
G1 X121.057 Y107.371 E.00761
G1 X121.31 Y107.209 E.00942
G1 X121.645 Y107.118 E.01088
G1 X127.441 Y107.125 E.18173
G1 X127.686 Y107.192 E.00796
G1 X127.899 Y107.31 E.00763
G1 X128.141 Y107.552 E.01073
G1 X131.013 Y112.527 E.18011
G1 X131.102 Y112.863 E.0109
G1 X131.089 Y113.163 E.00942
G1 X131.014 Y113.393 E.00759
G1 X128.14 Y118.371 E.18023
G1 X127.977 Y118.551 E.00761
G1 X127.725 Y118.713 E.00939
G1 X127.389 Y118.804 E.01091
G1 X121.645 Y118.804 E.1801
G1 X121.31 Y118.713 E.01088
G1 X121.057 Y118.551 E.00942
G1 X120.894 Y118.371 E.00761
G1 X118.021 Y113.395 E.18016
G1 X117.933 Y113.059 E.01089
G1 X117.946 Y112.759 E.00942
G1 X118.02 Y112.529 E.00758
G1 X119.204 Y110.478 E.07425
M204 S1000
G1 X119.531 Y110.667 F10800
M204 S800
G1 F1200
G1 X121.209 Y107.759 E.10527
G1 X121.312 Y107.649 E.00472
G1 X121.482 Y107.546 E.00623
G1 X121.67 Y107.495 E.00611
G1 X127.411 Y107.502 E.18001
G1 X127.553 Y107.545 E.00465
G1 X127.687 Y107.623 E.00486
G1 X127.827 Y107.762 E.00619
G1 X130.674 Y112.694 E.17855
G1 X130.725 Y112.882 E.00611
G1 X130.72 Y113.081 E.00624
G1 X130.676 Y113.225 E.00472
G1 X127.825 Y118.163 E.17878
G1 X127.722 Y118.272 E.0047
G1 X127.553 Y118.376 E.00622
G1 X127.365 Y118.427 E.00611
G1 X121.67 Y118.427 E.17856
G1 X121.482 Y118.376 E.00611
G1 X121.312 Y118.272 E.00625
G1 X121.209 Y118.163 E.0047
G1 X118.36 Y113.228 E.17867
G1 X118.31 Y113.04 E.0061
G1 X118.315 Y112.841 E.00624
G1 X118.359 Y112.697 E.00472
G1 X119.501 Y110.719 E.07161
M204 S1000
G1 X119.827 Y110.907 F10800
M204 S800
G1 F1200
G1 X121.522 Y107.972 E.10627
G1 X121.646 Y107.885 E.00475
G1 X121.694 Y107.872 E.00156
G1 X127.34 Y107.872 E.17703
G1 X127.388 Y107.885 E.00156
G1 X127.513 Y107.972 E.00478
G1 X130.336 Y112.861 E.17701
G1 X130.348 Y113.013 E.00478
G1 X130.336 Y113.06 E.00152
G1 X127.513 Y117.95 E.17704
G1 X127.478 Y117.985 E.00155
G1 X127.34 Y118.049 E.00477
G1 X121.694 Y118.049 E.17703
G1 X121.646 Y118.037 E.00155
G1 X121.522 Y117.95 E.00475
G1 X118.699 Y113.06 E.17704
G1 X118.686 Y113.013 E.00153
G1 X118.699 Y112.861 E.00478
G1 X119.797 Y110.959 E.06886
M204 S1000
; printing object Housing_full_test_1.stl id:0 copy 0
;WIPE_START
G1 F8640
G1 X121.522 Y107.972 E-.79646
G1 X121.535 Y107.963 E-.00354
;WIPE_END
G1 Z.6 F720
G1 X114.615 Y109.492 F10800
G1 Z.2 F720
G1 E.8 F2100
M204 S800
;TYPE:Support material
G1 F1200
G1 X114.615 Y107.694 E.05638
G1 X115.653 Y107.694 E.03255
G1 X114.643 Y109.443 E.06333
M204 S1000
;WIPE_START
G1 F8640
G1 X115.653 Y107.694 E-.46635
G1 X114.615 Y107.694 E-.23968
G1 X114.615 Y108.101 E-.09397
;WIPE_END
G1 Z.6 F720
G1 X116.933 Y105.477 F10800
G1 Z.2 F720
G1 E.8 F2100
M204 S800
G1 F1200
G1 X116.933 Y105.376 E.00317
G1 X116.991 Y105.376 E.00182
G1 X116.961 Y105.428 E.00188
M204 S1000
;WIPE_START
G1 F8640
G1 X116.991 Y105.376 E-.01386
G1 X116.933 Y105.376 E-.01339
G1 X116.933 Y105.477 E-.02332
;WIPE_END
G1 E-.74943 F2100
G1 Z.6 F720
G1 X119.251 Y103.325 F10800
G1 Z.2 F720
G1 E.8 F2100
M204 S800
G1 F1200
G1 X119.251 Y103.059 E.00834
G1 X119.799 Y103.059 E.01718
G1 X119.302 Y103.3 E.01732
M204 S1000
;WIPE_START
G1 F8640
G1 X119.799 Y103.059 E-.12754
G1 X119.251 Y103.059 E-.12653
G1 X119.251 Y103.325 E-.06142
;WIPE_END
G1 E-.48451 F2100
G1 Z.6 F720
G1 X129.784 Y103.28 F10800
G1 Z.2 F720
G1 E.8 F2100
M204 S800
G1 F1200
G1 X129.454 Y103.059 E.01245
G1 X129.784 Y103.059 E.01035
G1 X129.784 Y103.224 E.00517
M204 S1000
;WIPE_START
G1 F8640
G1 X129.784 Y103.059 E-.0381
G1 X129.454 Y103.059 E-.0762
G1 X129.784 Y103.28 E-.09171
;WIPE_END
G1 E-.59399 F2100
G1 Z.6 F720
G1 X132.102 Y105.477 F10800
G1 Z.2 F720
G1 E.8 F2100
M204 S800
G1 F1200
G1 X132.043 Y105.376 E.00367
G1 X132.102 Y105.376 E.00185
G1 X132.102 Y105.421 E.00141
M204 S1000
;WIPE_START
G1 F8640
G1 X132.102 Y105.376 E-.01039
G1 X132.043 Y105.376 E-.01362
G1 X132.102 Y105.477 E-.02701
;WIPE_END
G1 E-.74898 F2100
G1 Z.6 F720
G1 X134.42 Y109.492 F10800
G1 Z.2 F720
G1 E.8 F2100
M204 S800
G1 F1200
G1 X133.382 Y107.694 E.0651
G1 X134.42 Y107.694 E.03255
G1 X134.42 Y109.435 E.05459
M204 S1000
;WIPE_START
G1 F8640
G1 X134.42 Y107.694 E-.402
G1 X133.382 Y107.694 E-.23968
G1 X133.725 Y108.288 E-.15832
;WIPE_END
G1 Z.6 F720
G1 X134.42 Y118.228 F10800
G1 Z.2 F720
G1 E.8 F2100
M204 S800
G1 F1200
G1 X133.382 Y118.228 E.03255
G1 X134.42 Y116.43 E.0651
G1 X134.42 Y118.171 E.05459
M204 S1000
;WIPE_START
G1 F8640
G1 X134.42 Y116.43 E-.402
G1 X133.558 Y117.923 E-.398
;WIPE_END
G1 Z.6 F720
G1 X132.102 Y120.545 F10800
G1 Z.2 F720
G1 E.8 F2100
M204 S800
G1 F1200
G1 X132.043 Y120.545 E.00185
G1 X132.102 Y120.444 E.00367
G1 X132.102 Y120.489 E.00141
M204 S1000
;WIPE_START
G1 F8640
G1 X132.102 Y120.444 E-.01039
G1 X132.043 Y120.545 E-.02701
G1 X132.102 Y120.545 E-.01362
;WIPE_END
G1 E-.74898 F2100
G1 Z.6 F720
G1 X129.784 Y122.863 F10800
G1 Z.2 F720
G1 E.8 F2100
M204 S800
G1 F1200
G1 X129.236 Y122.863 E.01718
G1 X129.784 Y122.597 E.0191
G1 X129.784 Y122.807 E.00658
M204 S1000
;WIPE_START
G1 F8640
